MODULE MainModule
PERS speeddata work:= [1000,180,5000,1000];
PERS tooldata tPen :=[TRUE,[[0,0,350],[0,0,0,1]],[0.1,[0,0,10],[1,0,0,0],0,0,0]];
PERS wobjdata WObj1 := [FALSE, TRUE, "" , [[0, 0, 0],[1, 0, 0, 0]],[[0, 0, 0],[1, 0, 0, 0]]];
PROC Main()
ConfL \Off;
ConfJ \On;
MoveAbsJ [[0,0,0,0,90,0],[9E9,9E9,9E9,9E9,9E9,9E9]],work,z10,tPen \WObj:=WObj1;
work:= [1000,180,5000,1000];
MoveJ [[105,2004.758,460.8],[0.707,0,-0.707,0],[-1,-1,-1,0],[9E9,9E9,9E9,9E9,9E9,9E9]],work,z10,tPen \WObj:=WObj1;
MoveL [[105,2004.758,460.8],[0.707,0,-0.707,0],[-1,-1,-1,0],[9E9,9E9,9E9,9E9,9E9,9E9]],work,z10,tPen \WObj:=WObj1;
MoveL [[125,2004.758,460.8],[0.707,0,-0.707,0],[-1,-1,-1,0],[9E9,9E9,9E9,9E9,9E9,9E9]],work,z10,tPen \WObj:=WObj1;
MoveL [[125,1859.33,460.8],[0.707,0,-0.707,0],[-1,-1,-1,0],[9E9,9E9,9E9,9E9,9E9,9E9]],work,z10,tPen \WObj:=WObj1;
MoveL [[105,1859.33,460.8],[0.707,0,-0.707,0],[-1,-1,-1,0],[9E9,9E9,9E9,9E9,9E9,9E9]],work,z10,tPen \WObj:=WObj1;
MoveL [[125,1859.33,460.8],[0.707,0,-0.707,0],[-1,-1,-1,0],[9E9,9E9,9E9,9E9,9E9,9E9]],work,z10,tPen \WObj:=WObj1;
MoveL [[125,1713.901,460.8],[0.707,0,-0.707,0],[-1,-1,-1,0],[9E9,9E9,9E9,9E9,9E9,9E9]],work,z10,tPen \WObj:=WObj1;
MoveL [[105,1713.901,460.8],[0.707,0,-0.707,0],[-1,-1,-1,0],[9E9,9E9,9E9,9E9,9E9,9E9]],work,z10,tPen \WObj:=WObj1;
MoveL [[125,1713.901,460.8],[0.707,0,-0.707,0],[-1,-1,-1,0],[9E9,9E9,9E9,9E9,9E9,9E9]],work,z10,tPen \WObj:=WObj1;
MoveL [[125,1568.472,460.8],[0.707,0,-0.707,0],[-1,-1,-1,0],[9E9,9E9,9E9,9E9,9E9,9E9]],work,z10,tPen \WObj:=WObj1;
MoveL [[105,1568.472,460.8],[0.707,0,-0.707,0],[-1,-1,-1,0],[9E9,9E9,9E9,9E9,9E9,9E9]],work,z10,tPen \WObj:=WObj1;
MoveL [[125,1568.472,460.8],[0.707,0,-0.707,0],[-1,-1,-1,0],[9E9,9E9,9E9,9E9,9E9,9E9]],work,z10,tPen \WObj:=WObj1;
MoveL [[125,1423.044,460.8],[0.707,0,-0.707,0],[-1,-1,-1,0],[9E9,9E9,9E9,9E9,9E9,9E9]],work,z10,tPen \WObj:=WObj1;
MoveL [[105,1423.044,460.8],[0.707,0,-0.707,0],[-1,-1,-1,0],[9E9,9E9,9E9,9E9,9E9,9E9]],work,z10,tPen \WObj:=WObj1;
MoveL [[125,1423.044,460.8],[0.707,0,-0.707,0],[-1,-1,-1,0],[9E9,9E9,9E9,9E9,9E9,9E9]],work,z10,tPen \WObj:=WObj1;
MoveL [[125,1277.615,460.8],[0.707,0,-0.707,0],[-1,-1,-1,0],[9E9,9E9,9E9,9E9,9E9,9E9]],work,z10,tPen \WObj:=WObj1;
MoveL [[105,1277.615,460.8],[0.707,0,-0.707,0],[-1,-1,-1,0],[9E9,9E9,9E9,9E9,9E9,9E9]],work,z10,tPen \WObj:=WObj1;
MoveL [[125,1277.615,460.8],[0.707,0,-0.707,0],[-1,-1,-1,0],[9E9,9E9,9E9,9E9,9E9,9E9]],work,z10,tPen \WObj:=WObj1;
MoveL [[125,1132.187,460.8],[0.707,0,-0.707,0],[-1,-1,-1,0],[9E9,9E9,9E9,9E9,9E9,9E9]],work,z10,tPen \WObj:=WObj1;
MoveL [[105,1132.187,460.8],[0.707,0,-0.707,0],[-1,-1,-1,0],[9E9,9E9,9E9,9E9,9E9,9E9]],work,z10,tPen \WObj:=WObj1;
MoveL [[125,1132.187,460.8],[0.707,0,-0.707,0],[-1,-1,-1,0],[9E9,9E9,9E9,9E9,9E9,9E9]],work,z10,tPen \WObj:=WObj1;
MoveL [[125,2004.758,558.4],[0.707,0,-0.707,0],[-1,-1,-1,0],[9E9,9E9,9E9,9E9,9E9,9E9]],work,z10,tPen \WObj:=WObj1;
MoveL [[105,2004.758,558.4],[0.707,0,-0.707,0],[-1,-1,-1,0],[9E9,9E9,9E9,9E9,9E9,9E9]],work,z10,tPen \WObj:=WObj1;
MoveL [[125,2004.758,558.4],[0.707,0,-0.707,0],[-1,-1,-1,0],[9E9,9E9,9E9,9E9,9E9,9E9]],work,z10,tPen \WObj:=WObj1;
MoveL [[125,1859.33,558.4],[0.707,0,-0.707,0],[-1,-1,-1,0],[9E9,9E9,9E9,9E9,9E9,9E9]],work,z10,tPen \WObj:=WObj1;
MoveL [[105,1859.33,558.4],[0.707,0,-0.707,0],[-1,-1,-1,0],[9E9,9E9,9E9,9E9,9E9,9E9]],work,z10,tPen \WObj:=WObj1;
MoveL [[125,1859.33,558.4],[0.707,0,-0.707,0],[-1,-1,-1,0],[9E9,9E9,9E9,9E9,9E9,9E9]],work,z10,tPen \WObj:=WObj1;
MoveL [[125,1713.901,558.4],[0.707,0,-0.707,0],[-1,-1,-1,0],[9E9,9E9,9E9,9E9,9E9,9E9]],work,z10,tPen \WObj:=WObj1;
MoveL [[105,1713.901,558.4],[0.707,0,-0.707,0],[-1,-1,-1,0],[9E9,9E9,9E9,9E9,9E9,9E9]],work,z10,tPen \WObj:=WObj1;
MoveL [[125,1713.901,558.4],[0.707,0,-0.707,0],[-1,-1,-1,0],[9E9,9E9,9E9,9E9,9E9,9E9]],work,z10,tPen \WObj:=WObj1;
MoveL [[125,1568.472,558.4],[0.707,0,-0.707,0],[-1,-1,-1,0],[9E9,9E9,9E9,9E9,9E9,9E9]],work,z10,tPen \WObj:=WObj1;
MoveL [[105,1568.472,558.4],[0.707,0,-0.707,0],[-1,-1,-1,0],[9E9,9E9,9E9,9E9,9E9,9E9]],work,z10,tPen \WObj:=WObj1;
MoveL [[125,1568.472,558.4],[0.707,0,-0.707,0],[-1,-1,-1,0],[9E9,9E9,9E9,9E9,9E9,9E9]],work,z10,tPen \WObj:=WObj1;
MoveL [[125,1423.044,558.4],[0.707,0,-0.707,0],[-1,-1,-1,0],[9E9,9E9,9E9,9E9,9E9,9E9]],work,z10,tPen \WObj:=WObj1;
MoveL [[105,1423.044,558.4],[0.707,0,-0.707,0],[-1,-1,-1,0],[9E9,9E9,9E9,9E9,9E9,9E9]],work,z10,tPen \WObj:=WObj1;
MoveL [[125,1423.044,558.4],[0.707,0,-0.707,0],[-1,-1,-1,0],[9E9,9E9,9E9,9E9,9E9,9E9]],work,z10,tPen \WObj:=WObj1;
MoveL [[125,1277.615,558.4],[0.707,0,-0.707,0],[-1,-1,-1,0],[9E9,9E9,9E9,9E9,9E9,9E9]],work,z10,tPen \WObj:=WObj1;
MoveL [[105,1277.615,558.4],[0.707,0,-0.707,0],[-1,-1,-1,0],[9E9,9E9,9E9,9E9,9E9,9E9]],work,z10,tPen \WObj:=WObj1;
MoveL [[125,1277.615,558.4],[0.707,0,-0.707,0],[-1,-1,-1,0],[9E9,9E9,9E9,9E9,9E9,9E9]],work,z10,tPen \WObj:=WObj1;
ENDPROC
ENDMODULE
