MODULE MainModule
PERS speeddata work:= [1000,180,5000,1000];
PERS tooldata tPen :=[TRUE,[[0,0,350],[0,0,0,1]],[0.1,[0,0,10],[1,0,0,0],0,0,0]];
PERS wobjdata WObj1 := [FALSE, TRUE, "" , [[0, 0, 0],[1, 0, 0, 0]],[[0, 0, 0],[1, 0, 0, 0]]];
PROC Main()
ConfL \Off;
ConfJ \On;
MoveAbsJ [[0,0,0,0,90,0],[9E9,9E9,9E9,9E9,9E9,9E9]],work,z10,tPen \WObj:=WObj1;
work:= [1000,180,5000,1000];
MoveJ [[105,2004.758,481.714],[0.707,0,-0.707,0],[-1,-1,-1,0],[9E9,9E9,9E9,9E9,9E9,9E9]],work,z10,tPen \WObj:=WObj1;
MoveL [[105,2004.758,481.714],[0.707,0,-0.707,0],[-1,-1,-1,0],[9E9,9E9,9E9,9E9,9E9,9E9]],work,z10,tPen \WObj:=WObj1;
MoveL [[125,2004.758,481.714],[0.707,0,-0.707,0],[-1,-1,-1,0],[9E9,9E9,9E9,9E9,9E9,9E9]],work,z10,tPen \WObj:=WObj1;
MoveL [[125,1859.33,481.714],[0.707,0,-0.707,0],[-1,-1,-1,0],[9E9,9E9,9E9,9E9,9E9,9E9]],work,z10,tPen \WObj:=WObj1;
MoveL [[105,1859.33,481.714],[0.707,0,-0.707,0],[-1,-1,-1,0],[9E9,9E9,9E9,9E9,9E9,9E9]],work,z10,tPen \WObj:=WObj1;
MoveL [[125,1859.33,481.714],[0.707,0,-0.707,0],[-1,-1,-1,0],[9E9,9E9,9E9,9E9,9E9,9E9]],work,z10,tPen \WObj:=WObj1;
MoveL [[125,1713.901,481.714],[0.707,0,-0.707,0],[-1,-1,-1,0],[9E9,9E9,9E9,9E9,9E9,9E9]],work,z10,tPen \WObj:=WObj1;
MoveL [[105,1713.901,481.714],[0.707,0,-0.707,0],[-1,-1,-1,0],[9E9,9E9,9E9,9E9,9E9,9E9]],work,z10,tPen \WObj:=WObj1;
MoveL [[125,1713.901,481.714],[0.707,0,-0.707,0],[-1,-1,-1,0],[9E9,9E9,9E9,9E9,9E9,9E9]],work,z10,tPen \WObj:=WObj1;
MoveL [[125,1568.472,481.714],[0.707,0,-0.707,0],[-1,-1,-1,0],[9E9,9E9,9E9,9E9,9E9,9E9]],work,z10,tPen \WObj:=WObj1;
MoveL [[105,1568.472,481.714],[0.707,0,-0.707,0],[-1,-1,-1,0],[9E9,9E9,9E9,9E9,9E9,9E9]],work,z10,tPen \WObj:=WObj1;
MoveL [[125,1568.472,481.714],[0.707,0,-0.707,0],[-1,-1,-1,0],[9E9,9E9,9E9,9E9,9E9,9E9]],work,z10,tPen \WObj:=WObj1;
MoveL [[125,1423.044,481.714],[0.707,0,-0.707,0],[-1,-1,-1,0],[9E9,9E9,9E9,9E9,9E9,9E9]],work,z10,tPen \WObj:=WObj1;
MoveL [[105,1423.044,481.714],[0.707,0,-0.707,0],[-1,-1,-1,0],[9E9,9E9,9E9,9E9,9E9,9E9]],work,z10,tPen \WObj:=WObj1;
MoveL [[125,1423.044,481.714],[0.707,0,-0.707,0],[-1,-1,-1,0],[9E9,9E9,9E9,9E9,9E9,9E9]],work,z10,tPen \WObj:=WObj1;
MoveL [[125,1277.615,481.714],[0.707,0,-0.707,0],[-1,-1,-1,0],[9E9,9E9,9E9,9E9,9E9,9E9]],work,z10,tPen \WObj:=WObj1;
MoveL [[105,1277.615,481.714],[0.707,0,-0.707,0],[-1,-1,-1,0],[9E9,9E9,9E9,9E9,9E9,9E9]],work,z10,tPen \WObj:=WObj1;
MoveL [[125,1277.615,481.714],[0.707,0,-0.707,0],[-1,-1,-1,0],[9E9,9E9,9E9,9E9,9E9,9E9]],work,z10,tPen \WObj:=WObj1;
MoveL [[125,1132.187,481.714],[0.707,0,-0.707,0],[-1,-1,-1,0],[9E9,9E9,9E9,9E9,9E9,9E9]],work,z10,tPen \WObj:=WObj1;
MoveL [[105,1132.187,481.714],[0.707,0,-0.707,0],[-1,-1,-1,0],[9E9,9E9,9E9,9E9,9E9,9E9]],work,z10,tPen \WObj:=WObj1;
MoveL [[125,1132.187,481.714],[0.707,0,-0.707,0],[-1,-1,-1,0],[9E9,9E9,9E9,9E9,9E9,9E9]],work,z10,tPen \WObj:=WObj1;
MoveL [[125,2004.758,586.286],[0.707,0,-0.707,0],[-1,-1,-1,0],[9E9,9E9,9E9,9E9,9E9,9E9]],work,z10,tPen \WObj:=WObj1;
MoveL [[105,2004.758,586.286],[0.707,0,-0.707,0],[-1,-1,-1,0],[9E9,9E9,9E9,9E9,9E9,9E9]],work,z10,tPen \WObj:=WObj1;
MoveL [[125,2004.758,586.286],[0.707,0,-0.707,0],[-1,-1,-1,0],[9E9,9E9,9E9,9E9,9E9,9E9]],work,z10,tPen \WObj:=WObj1;
MoveL [[125,1859.33,586.286],[0.707,0,-0.707,0],[-1,-1,-1,0],[9E9,9E9,9E9,9E9,9E9,9E9]],work,z10,tPen \WObj:=WObj1;
MoveL [[105,1859.33,586.286],[0.707,0,-0.707,0],[-1,-1,-1,0],[9E9,9E9,9E9,9E9,9E9,9E9]],work,z10,tPen \WObj:=WObj1;
MoveL [[125,1859.33,586.286],[0.707,0,-0.707,0],[-1,-1,-1,0],[9E9,9E9,9E9,9E9,9E9,9E9]],work,z10,tPen \WObj:=WObj1;
MoveL [[125,1713.901,586.286],[0.707,0,-0.707,0],[-1,-1,-1,0],[9E9,9E9,9E9,9E9,9E9,9E9]],work,z10,tPen \WObj:=WObj1;
MoveL [[105,1713.901,586.286],[0.707,0,-0.707,0],[-1,-1,-1,0],[9E9,9E9,9E9,9E9,9E9,9E9]],work,z10,tPen \WObj:=WObj1;
MoveL [[125,1713.901,586.286],[0.707,0,-0.707,0],[-1,-1,-1,0],[9E9,9E9,9E9,9E9,9E9,9E9]],work,z10,tPen \WObj:=WObj1;
MoveL [[125,1568.472,586.286],[0.707,0,-0.707,0],[-1,-1,-1,0],[9E9,9E9,9E9,9E9,9E9,9E9]],work,z10,tPen \WObj:=WObj1;
MoveL [[105,1568.472,586.286],[0.707,0,-0.707,0],[-1,-1,-1,0],[9E9,9E9,9E9,9E9,9E9,9E9]],work,z10,tPen \WObj:=WObj1;
MoveL [[125,1568.472,586.286],[0.707,0,-0.707,0],[-1,-1,-1,0],[9E9,9E9,9E9,9E9,9E9,9E9]],work,z10,tPen \WObj:=WObj1;
MoveL [[125,1423.044,586.286],[0.707,0,-0.707,0],[-1,-1,-1,0],[9E9,9E9,9E9,9E9,9E9,9E9]],work,z10,tPen \WObj:=WObj1;
MoveL [[105,1423.044,586.286],[0.707,0,-0.707,0],[-1,-1,-1,0],[9E9,9E9,9E9,9E9,9E9,9E9]],work,z10,tPen \WObj:=WObj1;
MoveL [[125,1423.044,586.286],[0.707,0,-0.707,0],[-1,-1,-1,0],[9E9,9E9,9E9,9E9,9E9,9E9]],work,z10,tPen \WObj:=WObj1;
MoveL [[125,1277.615,586.286],[0.707,0,-0.707,0],[-1,-1,-1,0],[9E9,9E9,9E9,9E9,9E9,9E9]],work,z10,tPen \WObj:=WObj1;
MoveL [[105,1277.615,586.286],[0.707,0,-0.707,0],[-1,-1,-1,0],[9E9,9E9,9E9,9E9,9E9,9E9]],work,z10,tPen \WObj:=WObj1;
MoveL [[125,1277.615,586.286],[0.707,0,-0.707,0],[-1,-1,-1,0],[9E9,9E9,9E9,9E9,9E9,9E9]],work,z10,tPen \WObj:=WObj1;
ENDPROC
ENDMODULE
