MODULE MainModule
PERS speeddata work:= [1000,180,5000,1000];
PERS tooldata tPen :=[TRUE,[[0,0,350],[0,0,0,1]],[0.1,[0,0,10],[1,0,0,0],0,0,0]];
PERS wobjdata WObj1 := [FALSE, TRUE, "" , [[0, 0, 0],[1, 0, 0, 0]],[[0, 0, 0],[1, 0, 0, 0]]];
PROC Main()
ConfL \Off;
ConfJ \On;
MoveAbsJ [[0,0,0,0,90,0],[9E9,9E9,9E9,9E9,9E9,9E9]],work,z10,tPen \WObj:=WObj1;
work:= [1000,180,5000,1000];
MoveJ [[125,1618.472,471.4],[0.5,-0.5,-0.5,0.5],[-1,-1,-1,0],[9E9,9E9,9E9,9E9,9E9,9E9]],work,z10,tPen \WObj:=WObj1;
MoveL [[125,1618.472,471.4],[0.5,-0.5,-0.5,0.5],[-1,-1,-1,0],[9E9,9E9,9E9,9E9,9E9,9E9]],work,z10,tPen \WObj:=WObj1;
MoveL [[125,1618.472,471.4],[0.5,-0.5,-0.5,0.5],[-1,-1,-1,0],[9E9,9E9,9E9,9E9,9E9,9E9]],work,z10,tPen \WObj:=WObj1;
MoveL [[125,1518.472,471.4],[0.5,-0.5,-0.5,0.5],[-1,-1,-1,0],[9E9,9E9,9E9,9E9,9E9,9E9]],work,z10,tPen \WObj:=WObj1;
MoveL [[125,1518.472,471.4],[0.5,-0.5,-0.5,0.5],[-1,-1,-1,0],[9E9,9E9,9E9,9E9,9E9,9E9]],work,z10,tPen \WObj:=WObj1;
MoveL [[125,1418.472,471.4],[0.5,-0.5,-0.5,0.5],[-1,-1,-1,0],[9E9,9E9,9E9,9E9,9E9,9E9]],work,z10,tPen \WObj:=WObj1;
MoveL [[125,1418.472,471.4],[0.5,-0.5,-0.5,0.5],[-1,-1,-1,0],[9E9,9E9,9E9,9E9,9E9,9E9]],work,z10,tPen \WObj:=WObj1;
MoveL [[125,2018.472,568.867],[0.5,-0.5,-0.5,0.5],[-1,-1,-1,0],[9E9,9E9,9E9,9E9,9E9,9E9]],work,z10,tPen \WObj:=WObj1;
MoveL [[125,2018.472,568.867],[0.5,-0.5,-0.5,0.5],[-1,-1,-1,0],[9E9,9E9,9E9,9E9,9E9,9E9]],work,z10,tPen \WObj:=WObj1;
MoveL [[125,1918.472,568.867],[0.5,-0.5,-0.5,0.5],[-1,-1,-1,0],[9E9,9E9,9E9,9E9,9E9,9E9]],work,z10,tPen \WObj:=WObj1;
MoveL [[125,1918.472,568.867],[0.5,-0.5,-0.5,0.5],[-1,-1,-1,0],[9E9,9E9,9E9,9E9,9E9,9E9]],work,z10,tPen \WObj:=WObj1;
MoveL [[125,1818.472,568.867],[0.5,-0.5,-0.5,0.5],[-1,-1,-1,0],[9E9,9E9,9E9,9E9,9E9,9E9]],work,z10,tPen \WObj:=WObj1;
MoveL [[125,1818.472,568.867],[0.5,-0.5,-0.5,0.5],[-1,-1,-1,0],[9E9,9E9,9E9,9E9,9E9,9E9]],work,z10,tPen \WObj:=WObj1;
MoveL [[125,1718.472,568.867],[0.5,-0.5,-0.5,0.5],[-1,-1,-1,0],[9E9,9E9,9E9,9E9,9E9,9E9]],work,z10,tPen \WObj:=WObj1;
MoveL [[125,1718.472,568.867],[0.5,-0.5,-0.5,0.5],[-1,-1,-1,0],[9E9,9E9,9E9,9E9,9E9,9E9]],work,z10,tPen \WObj:=WObj1;
MoveL [[125,1618.472,568.867],[0.5,-0.5,-0.5,0.5],[-1,-1,-1,0],[9E9,9E9,9E9,9E9,9E9,9E9]],work,z10,tPen \WObj:=WObj1;
MoveL [[125,1618.472,568.867],[0.5,-0.5,-0.5,0.5],[-1,-1,-1,0],[9E9,9E9,9E9,9E9,9E9,9E9]],work,z10,tPen \WObj:=WObj1;
MoveL [[125,1518.472,568.867],[0.5,-0.5,-0.5,0.5],[-1,-1,-1,0],[9E9,9E9,9E9,9E9,9E9,9E9]],work,z10,tPen \WObj:=WObj1;
MoveL [[125,1518.472,568.867],[0.5,-0.5,-0.5,0.5],[-1,-1,-1,0],[9E9,9E9,9E9,9E9,9E9,9E9]],work,z10,tPen \WObj:=WObj1;
MoveL [[125,1418.472,568.867],[0.5,-0.5,-0.5,0.5],[-1,-1,-1,0],[9E9,9E9,9E9,9E9,9E9,9E9]],work,z10,tPen \WObj:=WObj1;
MoveL [[125,1418.472,568.867],[0.5,-0.5,-0.5,0.5],[-1,-1,-1,0],[9E9,9E9,9E9,9E9,9E9,9E9]],work,z10,tPen \WObj:=WObj1;
MoveL [[125,2018.472,666.333],[0.5,-0.5,-0.5,0.5],[-1,-1,-1,0],[9E9,9E9,9E9,9E9,9E9,9E9]],work,z10,tPen \WObj:=WObj1;
MoveL [[125,2018.472,666.333],[0.5,-0.5,-0.5,0.5],[-1,-1,-1,0],[9E9,9E9,9E9,9E9,9E9,9E9]],work,z10,tPen \WObj:=WObj1;
MoveL [[125,1918.472,666.333],[0.5,-0.5,-0.5,0.5],[-1,-1,-1,0],[9E9,9E9,9E9,9E9,9E9,9E9]],work,z10,tPen \WObj:=WObj1;
MoveL [[125,1918.472,666.333],[0.5,-0.5,-0.5,0.5],[-1,-1,-1,0],[9E9,9E9,9E9,9E9,9E9,9E9]],work,z10,tPen \WObj:=WObj1;
MoveL [[125,1818.472,666.333],[0.5,-0.5,-0.5,0.5],[-1,-1,-1,0],[9E9,9E9,9E9,9E9,9E9,9E9]],work,z10,tPen \WObj:=WObj1;
MoveL [[125,1818.472,666.333],[0.5,-0.5,-0.5,0.5],[-1,-1,-1,0],[9E9,9E9,9E9,9E9,9E9,9E9]],work,z10,tPen \WObj:=WObj1;
MoveL [[125,1718.472,666.333],[0.5,-0.5,-0.5,0.5],[-1,-1,-1,0],[9E9,9E9,9E9,9E9,9E9,9E9]],work,z10,tPen \WObj:=WObj1;
MoveL [[125,1718.472,666.333],[0.5,-0.5,-0.5,0.5],[-1,-1,-1,0],[9E9,9E9,9E9,9E9,9E9,9E9]],work,z10,tPen \WObj:=WObj1;
MoveL [[125,1618.472,666.333],[0.5,-0.5,-0.5,0.5],[-1,-1,-1,0],[9E9,9E9,9E9,9E9,9E9,9E9]],work,z10,tPen \WObj:=WObj1;
MoveL [[125,1618.472,666.333],[0.5,-0.5,-0.5,0.5],[-1,-1,-1,0],[9E9,9E9,9E9,9E9,9E9,9E9]],work,z10,tPen \WObj:=WObj1;
MoveL [[125,1518.472,666.333],[0.5,-0.5,-0.5,0.5],[-1,-1,-1,0],[9E9,9E9,9E9,9E9,9E9,9E9]],work,z10,tPen \WObj:=WObj1;
MoveL [[125,1518.472,666.333],[0.5,-0.5,-0.5,0.5],[-1,-1,-1,0],[9E9,9E9,9E9,9E9,9E9,9E9]],work,z10,tPen \WObj:=WObj1;
MoveL [[125,1418.472,666.333],[0.5,-0.5,-0.5,0.5],[-1,-1,-1,0],[9E9,9E9,9E9,9E9,9E9,9E9]],work,z10,tPen \WObj:=WObj1;
MoveL [[125,1418.472,666.333],[0.5,-0.5,-0.5,0.5],[-1,-1,-1,0],[9E9,9E9,9E9,9E9,9E9,9E9]],work,z10,tPen \WObj:=WObj1;
MoveL [[125,2018.472,763.8],[0.5,-0.5,-0.5,0.5],[-1,-1,-1,0],[9E9,9E9,9E9,9E9,9E9,9E9]],work,z10,tPen \WObj:=WObj1;
MoveL [[125,2018.472,763.8],[0.5,-0.5,-0.5,0.5],[-1,-1,-1,0],[9E9,9E9,9E9,9E9,9E9,9E9]],work,z10,tPen \WObj:=WObj1;
MoveL [[125,1918.472,763.8],[0.5,-0.5,-0.5,0.5],[-1,-1,-1,0],[9E9,9E9,9E9,9E9,9E9,9E9]],work,z10,tPen \WObj:=WObj1;
MoveL [[125,1918.472,763.8],[0.5,-0.5,-0.5,0.5],[-1,-1,-1,0],[9E9,9E9,9E9,9E9,9E9,9E9]],work,z10,tPen \WObj:=WObj1;
MoveL [[125,1618.472,471.4],[0.5,-0.5,-0.5,0.5],[-1,-1,-1,0],[9E9,9E9,9E9,9E9,9E9,9E9]],work,z10,tPen \WObj:=WObj1;
MoveL [[125,1618.472,471.4],[0.5,-0.5,-0.5,0.5],[-1,-1,-1,0],[9E9,9E9,9E9,9E9,9E9,9E9]],work,z10,tPen \WObj:=WObj1;
MoveL [[125,1518.472,471.4],[0.5,-0.5,-0.5,0.5],[-1,-1,-1,0],[9E9,9E9,9E9,9E9,9E9,9E9]],work,z10,tPen \WObj:=WObj1;
MoveL [[125,1518.472,471.4],[0.5,-0.5,-0.5,0.5],[-1,-1,-1,0],[9E9,9E9,9E9,9E9,9E9,9E9]],work,z10,tPen \WObj:=WObj1;
MoveL [[125,1418.472,471.4],[0.5,-0.5,-0.5,0.5],[-1,-1,-1,0],[9E9,9E9,9E9,9E9,9E9,9E9]],work,z10,tPen \WObj:=WObj1;
MoveL [[125,1418.472,471.4],[0.5,-0.5,-0.5,0.5],[-1,-1,-1,0],[9E9,9E9,9E9,9E9,9E9,9E9]],work,z10,tPen \WObj:=WObj1;
MoveL [[125,2018.472,568.867],[0.5,-0.5,-0.5,0.5],[-1,-1,-1,0],[9E9,9E9,9E9,9E9,9E9,9E9]],work,z10,tPen \WObj:=WObj1;
MoveL [[125,2018.472,568.867],[0.5,-0.5,-0.5,0.5],[-1,-1,-1,0],[9E9,9E9,9E9,9E9,9E9,9E9]],work,z10,tPen \WObj:=WObj1;
MoveL [[125,1918.472,568.867],[0.5,-0.5,-0.5,0.5],[-1,-1,-1,0],[9E9,9E9,9E9,9E9,9E9,9E9]],work,z10,tPen \WObj:=WObj1;
MoveL [[125,1918.472,568.867],[0.5,-0.5,-0.5,0.5],[-1,-1,-1,0],[9E9,9E9,9E9,9E9,9E9,9E9]],work,z10,tPen \WObj:=WObj1;
MoveL [[125,1818.472,568.867],[0.5,-0.5,-0.5,0.5],[-1,-1,-1,0],[9E9,9E9,9E9,9E9,9E9,9E9]],work,z10,tPen \WObj:=WObj1;
MoveL [[125,1818.472,568.867],[0.5,-0.5,-0.5,0.5],[-1,-1,-1,0],[9E9,9E9,9E9,9E9,9E9,9E9]],work,z10,tPen \WObj:=WObj1;
MoveL [[125,1718.472,568.867],[0.5,-0.5,-0.5,0.5],[-1,-1,-1,0],[9E9,9E9,9E9,9E9,9E9,9E9]],work,z10,tPen \WObj:=WObj1;
MoveL [[125,1718.472,568.867],[0.5,-0.5,-0.5,0.5],[-1,-1,-1,0],[9E9,9E9,9E9,9E9,9E9,9E9]],work,z10,tPen \WObj:=WObj1;
MoveL [[125,1618.472,568.867],[0.5,-0.5,-0.5,0.5],[-1,-1,-1,0],[9E9,9E9,9E9,9E9,9E9,9E9]],work,z10,tPen \WObj:=WObj1;
MoveL [[125,1618.472,568.867],[0.5,-0.5,-0.5,0.5],[-1,-1,-1,0],[9E9,9E9,9E9,9E9,9E9,9E9]],work,z10,tPen \WObj:=WObj1;
MoveL [[125,1518.472,568.867],[0.5,-0.5,-0.5,0.5],[-1,-1,-1,0],[9E9,9E9,9E9,9E9,9E9,9E9]],work,z10,tPen \WObj:=WObj1;
MoveL [[125,1518.472,568.867],[0.5,-0.5,-0.5,0.5],[-1,-1,-1,0],[9E9,9E9,9E9,9E9,9E9,9E9]],work,z10,tPen \WObj:=WObj1;
MoveL [[125,1418.472,568.867],[0.5,-0.5,-0.5,0.5],[-1,-1,-1,0],[9E9,9E9,9E9,9E9,9E9,9E9]],work,z10,tPen \WObj:=WObj1;
MoveL [[125,1418.472,568.867],[0.5,-0.5,-0.5,0.5],[-1,-1,-1,0],[9E9,9E9,9E9,9E9,9E9,9E9]],work,z10,tPen \WObj:=WObj1;
MoveL [[125,2018.472,666.333],[0.5,-0.5,-0.5,0.5],[-1,-1,-1,0],[9E9,9E9,9E9,9E9,9E9,9E9]],work,z10,tPen \WObj:=WObj1;
MoveL [[125,2018.472,666.333],[0.5,-0.5,-0.5,0.5],[-1,-1,-1,0],[9E9,9E9,9E9,9E9,9E9,9E9]],work,z10,tPen \WObj:=WObj1;
MoveL [[125,1918.472,666.333],[0.5,-0.5,-0.5,0.5],[-1,-1,-1,0],[9E9,9E9,9E9,9E9,9E9,9E9]],work,z10,tPen \WObj:=WObj1;
MoveL [[125,1918.472,666.333],[0.5,-0.5,-0.5,0.5],[-1,-1,-1,0],[9E9,9E9,9E9,9E9,9E9,9E9]],work,z10,tPen \WObj:=WObj1;
MoveL [[125,1818.472,666.333],[0.5,-0.5,-0.5,0.5],[-1,-1,-1,0],[9E9,9E9,9E9,9E9,9E9,9E9]],work,z10,tPen \WObj:=WObj1;
MoveL [[125,1818.472,666.333],[0.5,-0.5,-0.5,0.5],[-1,-1,-1,0],[9E9,9E9,9E9,9E9,9E9,9E9]],work,z10,tPen \WObj:=WObj1;
MoveL [[125,1718.472,666.333],[0.5,-0.5,-0.5,0.5],[-1,-1,-1,0],[9E9,9E9,9E9,9E9,9E9,9E9]],work,z10,tPen \WObj:=WObj1;
MoveL [[125,1718.472,666.333],[0.5,-0.5,-0.5,0.5],[-1,-1,-1,0],[9E9,9E9,9E9,9E9,9E9,9E9]],work,z10,tPen \WObj:=WObj1;
MoveL [[125,1618.472,666.333],[0.5,-0.5,-0.5,0.5],[-1,-1,-1,0],[9E9,9E9,9E9,9E9,9E9,9E9]],work,z10,tPen \WObj:=WObj1;
MoveL [[125,1618.472,666.333],[0.5,-0.5,-0.5,0.5],[-1,-1,-1,0],[9E9,9E9,9E9,9E9,9E9,9E9]],work,z10,tPen \WObj:=WObj1;
MoveL [[125,1518.472,666.333],[0.5,-0.5,-0.5,0.5],[-1,-1,-1,0],[9E9,9E9,9E9,9E9,9E9,9E9]],work,z10,tPen \WObj:=WObj1;
MoveL [[125,1518.472,666.333],[0.5,-0.5,-0.5,0.5],[-1,-1,-1,0],[9E9,9E9,9E9,9E9,9E9,9E9]],work,z10,tPen \WObj:=WObj1;
MoveL [[125,1418.472,666.333],[0.5,-0.5,-0.5,0.5],[-1,-1,-1,0],[9E9,9E9,9E9,9E9,9E9,9E9]],work,z10,tPen \WObj:=WObj1;
MoveL [[125,1418.472,666.333],[0.5,-0.5,-0.5,0.5],[-1,-1,-1,0],[9E9,9E9,9E9,9E9,9E9,9E9]],work,z10,tPen \WObj:=WObj1;
MoveL [[125,2018.472,763.8],[0.5,-0.5,-0.5,0.5],[-1,-1,-1,0],[9E9,9E9,9E9,9E9,9E9,9E9]],work,z10,tPen \WObj:=WObj1;
MoveL [[125,2018.472,763.8],[0.5,-0.5,-0.5,0.5],[-1,-1,-1,0],[9E9,9E9,9E9,9E9,9E9,9E9]],work,z10,tPen \WObj:=WObj1;
MoveL [[125,1918.472,763.8],[0.5,-0.5,-0.5,0.5],[-1,-1,-1,0],[9E9,9E9,9E9,9E9,9E9,9E9]],work,z10,tPen \WObj:=WObj1;
MoveL [[125,1918.472,763.8],[0.5,-0.5,-0.5,0.5],[-1,-1,-1,0],[9E9,9E9,9E9,9E9,9E9,9E9]],work,z10,tPen \WObj:=WObj1;
MoveL [[125,1618.472,471.4],[0.5,-0.5,-0.5,0.5],[-1,-1,-1,0],[9E9,9E9,9E9,9E9,9E9,9E9]],work,z10,tPen \WObj:=WObj1;
MoveL [[125,1618.472,471.4],[0.5,-0.5,-0.5,0.5],[-1,-1,-1,0],[9E9,9E9,9E9,9E9,9E9,9E9]],work,z10,tPen \WObj:=WObj1;
MoveL [[125,1518.472,471.4],[0.5,-0.5,-0.5,0.5],[-1,-1,-1,0],[9E9,9E9,9E9,9E9,9E9,9E9]],work,z10,tPen \WObj:=WObj1;
MoveL [[125,1518.472,471.4],[0.5,-0.5,-0.5,0.5],[-1,-1,-1,0],[9E9,9E9,9E9,9E9,9E9,9E9]],work,z10,tPen \WObj:=WObj1;
MoveL [[125,1418.472,471.4],[0.5,-0.5,-0.5,0.5],[-1,-1,-1,0],[9E9,9E9,9E9,9E9,9E9,9E9]],work,z10,tPen \WObj:=WObj1;
MoveL [[125,1418.472,471.4],[0.5,-0.5,-0.5,0.5],[-1,-1,-1,0],[9E9,9E9,9E9,9E9,9E9,9E9]],work,z10,tPen \WObj:=WObj1;
MoveL [[125,2018.472,568.867],[0.5,-0.5,-0.5,0.5],[-1,-1,-1,0],[9E9,9E9,9E9,9E9,9E9,9E9]],work,z10,tPen \WObj:=WObj1;
MoveL [[125,2018.472,568.867],[0.5,-0.5,-0.5,0.5],[-1,-1,-1,0],[9E9,9E9,9E9,9E9,9E9,9E9]],work,z10,tPen \WObj:=WObj1;
MoveL [[125,1918.472,568.867],[0.5,-0.5,-0.5,0.5],[-1,-1,-1,0],[9E9,9E9,9E9,9E9,9E9,9E9]],work,z10,tPen \WObj:=WObj1;
MoveL [[125,1918.472,568.867],[0.5,-0.5,-0.5,0.5],[-1,-1,-1,0],[9E9,9E9,9E9,9E9,9E9,9E9]],work,z10,tPen \WObj:=WObj1;
MoveL [[125,1818.472,568.867],[0.5,-0.5,-0.5,0.5],[-1,-1,-1,0],[9E9,9E9,9E9,9E9,9E9,9E9]],work,z10,tPen \WObj:=WObj1;
MoveL [[125,1818.472,568.867],[0.5,-0.5,-0.5,0.5],[-1,-1,-1,0],[9E9,9E9,9E9,9E9,9E9,9E9]],work,z10,tPen \WObj:=WObj1;
MoveL [[125,1718.472,568.867],[0.5,-0.5,-0.5,0.5],[-1,-1,-1,0],[9E9,9E9,9E9,9E9,9E9,9E9]],work,z10,tPen \WObj:=WObj1;
MoveL [[125,1718.472,568.867],[0.5,-0.5,-0.5,0.5],[-1,-1,-1,0],[9E9,9E9,9E9,9E9,9E9,9E9]],work,z10,tPen \WObj:=WObj1;
MoveL [[125,1618.472,568.867],[0.5,-0.5,-0.5,0.5],[-1,-1,-1,0],[9E9,9E9,9E9,9E9,9E9,9E9]],work,z10,tPen \WObj:=WObj1;
MoveL [[125,1618.472,568.867],[0.5,-0.5,-0.5,0.5],[-1,-1,-1,0],[9E9,9E9,9E9,9E9,9E9,9E9]],work,z10,tPen \WObj:=WObj1;
MoveL [[125,1518.472,568.867],[0.5,-0.5,-0.5,0.5],[-1,-1,-1,0],[9E9,9E9,9E9,9E9,9E9,9E9]],work,z10,tPen \WObj:=WObj1;
MoveL [[125,1518.472,568.867],[0.5,-0.5,-0.5,0.5],[-1,-1,-1,0],[9E9,9E9,9E9,9E9,9E9,9E9]],work,z10,tPen \WObj:=WObj1;
MoveL [[125,1418.472,568.867],[0.5,-0.5,-0.5,0.5],[-1,-1,-1,0],[9E9,9E9,9E9,9E9,9E9,9E9]],work,z10,tPen \WObj:=WObj1;
MoveL [[125,1418.472,568.867],[0.5,-0.5,-0.5,0.5],[-1,-1,-1,0],[9E9,9E9,9E9,9E9,9E9,9E9]],work,z10,tPen \WObj:=WObj1;
MoveL [[125,2018.472,666.333],[0.5,-0.5,-0.5,0.5],[-1,-1,-1,0],[9E9,9E9,9E9,9E9,9E9,9E9]],work,z10,tPen \WObj:=WObj1;
MoveL [[125,2018.472,666.333],[0.5,-0.5,-0.5,0.5],[-1,-1,-1,0],[9E9,9E9,9E9,9E9,9E9,9E9]],work,z10,tPen \WObj:=WObj1;
MoveL [[125,1918.472,666.333],[0.5,-0.5,-0.5,0.5],[-1,-1,-1,0],[9E9,9E9,9E9,9E9,9E9,9E9]],work,z10,tPen \WObj:=WObj1;
MoveL [[125,1918.472,666.333],[0.5,-0.5,-0.5,0.5],[-1,-1,-1,0],[9E9,9E9,9E9,9E9,9E9,9E9]],work,z10,tPen \WObj:=WObj1;
MoveL [[125,1818.472,666.333],[0.5,-0.5,-0.5,0.5],[-1,-1,-1,0],[9E9,9E9,9E9,9E9,9E9,9E9]],work,z10,tPen \WObj:=WObj1;
MoveL [[125,1818.472,666.333],[0.5,-0.5,-0.5,0.5],[-1,-1,-1,0],[9E9,9E9,9E9,9E9,9E9,9E9]],work,z10,tPen \WObj:=WObj1;
MoveL [[125,1718.472,666.333],[0.5,-0.5,-0.5,0.5],[-1,-1,-1,0],[9E9,9E9,9E9,9E9,9E9,9E9]],work,z10,tPen \WObj:=WObj1;
MoveL [[125,1718.472,666.333],[0.5,-0.5,-0.5,0.5],[-1,-1,-1,0],[9E9,9E9,9E9,9E9,9E9,9E9]],work,z10,tPen \WObj:=WObj1;
MoveL [[125,1618.472,666.333],[0.5,-0.5,-0.5,0.5],[-1,-1,-1,0],[9E9,9E9,9E9,9E9,9E9,9E9]],work,z10,tPen \WObj:=WObj1;
MoveL [[125,1618.472,666.333],[0.5,-0.5,-0.5,0.5],[-1,-1,-1,0],[9E9,9E9,9E9,9E9,9E9,9E9]],work,z10,tPen \WObj:=WObj1;
MoveL [[125,1518.472,666.333],[0.5,-0.5,-0.5,0.5],[-1,-1,-1,0],[9E9,9E9,9E9,9E9,9E9,9E9]],work,z10,tPen \WObj:=WObj1;
MoveL [[125,1518.472,666.333],[0.5,-0.5,-0.5,0.5],[-1,-1,-1,0],[9E9,9E9,9E9,9E9,9E9,9E9]],work,z10,tPen \WObj:=WObj1;
MoveL [[125,1418.472,666.333],[0.5,-0.5,-0.5,0.5],[-1,-1,-1,0],[9E9,9E9,9E9,9E9,9E9,9E9]],work,z10,tPen \WObj:=WObj1;
MoveL [[125,1418.472,666.333],[0.5,-0.5,-0.5,0.5],[-1,-1,-1,0],[9E9,9E9,9E9,9E9,9E9,9E9]],work,z10,tPen \WObj:=WObj1;
MoveL [[125,2018.472,763.8],[0.5,-0.5,-0.5,0.5],[-1,-1,-1,0],[9E9,9E9,9E9,9E9,9E9,9E9]],work,z10,tPen \WObj:=WObj1;
MoveL [[125,2018.472,763.8],[0.5,-0.5,-0.5,0.5],[-1,-1,-1,0],[9E9,9E9,9E9,9E9,9E9,9E9]],work,z10,tPen \WObj:=WObj1;
MoveL [[125,1918.472,763.8],[0.5,-0.5,-0.5,0.5],[-1,-1,-1,0],[9E9,9E9,9E9,9E9,9E9,9E9]],work,z10,tPen \WObj:=WObj1;
MoveL [[125,1918.472,763.8],[0.5,-0.5,-0.5,0.5],[-1,-1,-1,0],[9E9,9E9,9E9,9E9,9E9,9E9]],work,z10,tPen \WObj:=WObj1;
MoveL [[125,1618.472,471.4],[0.5,-0.5,-0.5,0.5],[-1,-1,-1,0],[9E9,9E9,9E9,9E9,9E9,9E9]],work,z10,tPen \WObj:=WObj1;
MoveL [[125,1618.472,471.4],[0.5,-0.5,-0.5,0.5],[-1,-1,-1,0],[9E9,9E9,9E9,9E9,9E9,9E9]],work,z10,tPen \WObj:=WObj1;
MoveL [[125,1518.472,471.4],[0.5,-0.5,-0.5,0.5],[-1,-1,-1,0],[9E9,9E9,9E9,9E9,9E9,9E9]],work,z10,tPen \WObj:=WObj1;
MoveL [[125,1518.472,471.4],[0.5,-0.5,-0.5,0.5],[-1,-1,-1,0],[9E9,9E9,9E9,9E9,9E9,9E9]],work,z10,tPen \WObj:=WObj1;
MoveL [[125,1418.472,471.4],[0.5,-0.5,-0.5,0.5],[-1,-1,-1,0],[9E9,9E9,9E9,9E9,9E9,9E9]],work,z10,tPen \WObj:=WObj1;
MoveL [[125,1418.472,471.4],[0.5,-0.5,-0.5,0.5],[-1,-1,-1,0],[9E9,9E9,9E9,9E9,9E9,9E9]],work,z10,tPen \WObj:=WObj1;
MoveL [[125,2018.472,568.867],[0.5,-0.5,-0.5,0.5],[-1,-1,-1,0],[9E9,9E9,9E9,9E9,9E9,9E9]],work,z10,tPen \WObj:=WObj1;
MoveL [[125,2018.472,568.867],[0.5,-0.5,-0.5,0.5],[-1,-1,-1,0],[9E9,9E9,9E9,9E9,9E9,9E9]],work,z10,tPen \WObj:=WObj1;
MoveL [[125,1918.472,568.867],[0.5,-0.5,-0.5,0.5],[-1,-1,-1,0],[9E9,9E9,9E9,9E9,9E9,9E9]],work,z10,tPen \WObj:=WObj1;
MoveL [[125,1918.472,568.867],[0.5,-0.5,-0.5,0.5],[-1,-1,-1,0],[9E9,9E9,9E9,9E9,9E9,9E9]],work,z10,tPen \WObj:=WObj1;
MoveL [[125,1818.472,568.867],[0.5,-0.5,-0.5,0.5],[-1,-1,-1,0],[9E9,9E9,9E9,9E9,9E9,9E9]],work,z10,tPen \WObj:=WObj1;
MoveL [[125,1818.472,568.867],[0.5,-0.5,-0.5,0.5],[-1,-1,-1,0],[9E9,9E9,9E9,9E9,9E9,9E9]],work,z10,tPen \WObj:=WObj1;
MoveL [[125,1718.472,568.867],[0.5,-0.5,-0.5,0.5],[-1,-1,-1,0],[9E9,9E9,9E9,9E9,9E9,9E9]],work,z10,tPen \WObj:=WObj1;
MoveL [[125,1718.472,568.867],[0.5,-0.5,-0.5,0.5],[-1,-1,-1,0],[9E9,9E9,9E9,9E9,9E9,9E9]],work,z10,tPen \WObj:=WObj1;
MoveL [[125,1618.472,568.867],[0.5,-0.5,-0.5,0.5],[-1,-1,-1,0],[9E9,9E9,9E9,9E9,9E9,9E9]],work,z10,tPen \WObj:=WObj1;
MoveL [[125,1618.472,568.867],[0.5,-0.5,-0.5,0.5],[-1,-1,-1,0],[9E9,9E9,9E9,9E9,9E9,9E9]],work,z10,tPen \WObj:=WObj1;
MoveL [[125,1518.472,568.867],[0.5,-0.5,-0.5,0.5],[-1,-1,-1,0],[9E9,9E9,9E9,9E9,9E9,9E9]],work,z10,tPen \WObj:=WObj1;
MoveL [[125,1518.472,568.867],[0.5,-0.5,-0.5,0.5],[-1,-1,-1,0],[9E9,9E9,9E9,9E9,9E9,9E9]],work,z10,tPen \WObj:=WObj1;
MoveL [[125,1418.472,568.867],[0.5,-0.5,-0.5,0.5],[-1,-1,-1,0],[9E9,9E9,9E9,9E9,9E9,9E9]],work,z10,tPen \WObj:=WObj1;
MoveL [[125,1418.472,568.867],[0.5,-0.5,-0.5,0.5],[-1,-1,-1,0],[9E9,9E9,9E9,9E9,9E9,9E9]],work,z10,tPen \WObj:=WObj1;
MoveL [[125,2018.472,666.333],[0.5,-0.5,-0.5,0.5],[-1,-1,-1,0],[9E9,9E9,9E9,9E9,9E9,9E9]],work,z10,tPen \WObj:=WObj1;
MoveL [[125,2018.472,666.333],[0.5,-0.5,-0.5,0.5],[-1,-1,-1,0],[9E9,9E9,9E9,9E9,9E9,9E9]],work,z10,tPen \WObj:=WObj1;
MoveL [[125,1918.472,666.333],[0.5,-0.5,-0.5,0.5],[-1,-1,-1,0],[9E9,9E9,9E9,9E9,9E9,9E9]],work,z10,tPen \WObj:=WObj1;
MoveL [[125,1918.472,666.333],[0.5,-0.5,-0.5,0.5],[-1,-1,-1,0],[9E9,9E9,9E9,9E9,9E9,9E9]],work,z10,tPen \WObj:=WObj1;
MoveL [[125,1818.472,666.333],[0.5,-0.5,-0.5,0.5],[-1,-1,-1,0],[9E9,9E9,9E9,9E9,9E9,9E9]],work,z10,tPen \WObj:=WObj1;
MoveL [[125,1818.472,666.333],[0.5,-0.5,-0.5,0.5],[-1,-1,-1,0],[9E9,9E9,9E9,9E9,9E9,9E9]],work,z10,tPen \WObj:=WObj1;
MoveL [[125,1718.472,666.333],[0.5,-0.5,-0.5,0.5],[-1,-1,-1,0],[9E9,9E9,9E9,9E9,9E9,9E9]],work,z10,tPen \WObj:=WObj1;
MoveL [[125,1718.472,666.333],[0.5,-0.5,-0.5,0.5],[-1,-1,-1,0],[9E9,9E9,9E9,9E9,9E9,9E9]],work,z10,tPen \WObj:=WObj1;
MoveL [[125,1618.472,666.333],[0.5,-0.5,-0.5,0.5],[-1,-1,-1,0],[9E9,9E9,9E9,9E9,9E9,9E9]],work,z10,tPen \WObj:=WObj1;
MoveL [[125,1618.472,666.333],[0.5,-0.5,-0.5,0.5],[-1,-1,-1,0],[9E9,9E9,9E9,9E9,9E9,9E9]],work,z10,tPen \WObj:=WObj1;
MoveL [[125,1518.472,666.333],[0.5,-0.5,-0.5,0.5],[-1,-1,-1,0],[9E9,9E9,9E9,9E9,9E9,9E9]],work,z10,tPen \WObj:=WObj1;
MoveL [[125,1518.472,666.333],[0.5,-0.5,-0.5,0.5],[-1,-1,-1,0],[9E9,9E9,9E9,9E9,9E9,9E9]],work,z10,tPen \WObj:=WObj1;
MoveL [[125,1418.472,666.333],[0.5,-0.5,-0.5,0.5],[-1,-1,-1,0],[9E9,9E9,9E9,9E9,9E9,9E9]],work,z10,tPen \WObj:=WObj1;
MoveL [[125,1418.472,666.333],[0.5,-0.5,-0.5,0.5],[-1,-1,-1,0],[9E9,9E9,9E9,9E9,9E9,9E9]],work,z10,tPen \WObj:=WObj1;
MoveL [[125,2018.472,763.8],[0.5,-0.5,-0.5,0.5],[-1,-1,-1,0],[9E9,9E9,9E9,9E9,9E9,9E9]],work,z10,tPen \WObj:=WObj1;
MoveL [[125,2018.472,763.8],[0.5,-0.5,-0.5,0.5],[-1,-1,-1,0],[9E9,9E9,9E9,9E9,9E9,9E9]],work,z10,tPen \WObj:=WObj1;
MoveL [[125,1918.472,763.8],[0.5,-0.5,-0.5,0.5],[-1,-1,-1,0],[9E9,9E9,9E9,9E9,9E9,9E9]],work,z10,tPen \WObj:=WObj1;
MoveL [[125,1918.472,763.8],[0.5,-0.5,-0.5,0.5],[-1,-1,-1,0],[9E9,9E9,9E9,9E9,9E9,9E9]],work,z10,tPen \WObj:=WObj1;
MoveL [[125,1618.472,471.4],[0.5,-0.5,-0.5,0.5],[-1,-1,-1,0],[9E9,9E9,9E9,9E9,9E9,9E9]],work,z10,tPen \WObj:=WObj1;
MoveL [[125,1618.472,471.4],[0.5,-0.5,-0.5,0.5],[-1,-1,-1,0],[9E9,9E9,9E9,9E9,9E9,9E9]],work,z10,tPen \WObj:=WObj1;
MoveL [[125,1518.472,471.4],[0.5,-0.5,-0.5,0.5],[-1,-1,-1,0],[9E9,9E9,9E9,9E9,9E9,9E9]],work,z10,tPen \WObj:=WObj1;
MoveL [[125,1518.472,471.4],[0.5,-0.5,-0.5,0.5],[-1,-1,-1,0],[9E9,9E9,9E9,9E9,9E9,9E9]],work,z10,tPen \WObj:=WObj1;
MoveL [[125,1418.472,471.4],[0.5,-0.5,-0.5,0.5],[-1,-1,-1,0],[9E9,9E9,9E9,9E9,9E9,9E9]],work,z10,tPen \WObj:=WObj1;
MoveL [[125,1418.472,471.4],[0.5,-0.5,-0.5,0.5],[-1,-1,-1,0],[9E9,9E9,9E9,9E9,9E9,9E9]],work,z10,tPen \WObj:=WObj1;
MoveL [[125,2018.472,568.867],[0.5,-0.5,-0.5,0.5],[-1,-1,-1,0],[9E9,9E9,9E9,9E9,9E9,9E9]],work,z10,tPen \WObj:=WObj1;
MoveL [[125,2018.472,568.867],[0.5,-0.5,-0.5,0.5],[-1,-1,-1,0],[9E9,9E9,9E9,9E9,9E9,9E9]],work,z10,tPen \WObj:=WObj1;
MoveL [[125,1918.472,568.867],[0.5,-0.5,-0.5,0.5],[-1,-1,-1,0],[9E9,9E9,9E9,9E9,9E9,9E9]],work,z10,tPen \WObj:=WObj1;
MoveL [[125,1918.472,568.867],[0.5,-0.5,-0.5,0.5],[-1,-1,-1,0],[9E9,9E9,9E9,9E9,9E9,9E9]],work,z10,tPen \WObj:=WObj1;
MoveL [[125,1818.472,568.867],[0.5,-0.5,-0.5,0.5],[-1,-1,-1,0],[9E9,9E9,9E9,9E9,9E9,9E9]],work,z10,tPen \WObj:=WObj1;
MoveL [[125,1818.472,568.867],[0.5,-0.5,-0.5,0.5],[-1,-1,-1,0],[9E9,9E9,9E9,9E9,9E9,9E9]],work,z10,tPen \WObj:=WObj1;
MoveL [[125,1718.472,568.867],[0.5,-0.5,-0.5,0.5],[-1,-1,-1,0],[9E9,9E9,9E9,9E9,9E9,9E9]],work,z10,tPen \WObj:=WObj1;
MoveL [[125,1718.472,568.867],[0.5,-0.5,-0.5,0.5],[-1,-1,-1,0],[9E9,9E9,9E9,9E9,9E9,9E9]],work,z10,tPen \WObj:=WObj1;
MoveL [[125,1618.472,568.867],[0.5,-0.5,-0.5,0.5],[-1,-1,-1,0],[9E9,9E9,9E9,9E9,9E9,9E9]],work,z10,tPen \WObj:=WObj1;
MoveL [[125,1618.472,568.867],[0.5,-0.5,-0.5,0.5],[-1,-1,-1,0],[9E9,9E9,9E9,9E9,9E9,9E9]],work,z10,tPen \WObj:=WObj1;
MoveL [[125,1518.472,568.867],[0.5,-0.5,-0.5,0.5],[-1,-1,-1,0],[9E9,9E9,9E9,9E9,9E9,9E9]],work,z10,tPen \WObj:=WObj1;
MoveL [[125,1518.472,568.867],[0.5,-0.5,-0.5,0.5],[-1,-1,-1,0],[9E9,9E9,9E9,9E9,9E9,9E9]],work,z10,tPen \WObj:=WObj1;
MoveL [[125,1418.472,568.867],[0.5,-0.5,-0.5,0.5],[-1,-1,-1,0],[9E9,9E9,9E9,9E9,9E9,9E9]],work,z10,tPen \WObj:=WObj1;
MoveL [[125,1418.472,568.867],[0.5,-0.5,-0.5,0.5],[-1,-1,-1,0],[9E9,9E9,9E9,9E9,9E9,9E9]],work,z10,tPen \WObj:=WObj1;
MoveL [[125,2018.472,666.333],[0.5,-0.5,-0.5,0.5],[-1,-1,-1,0],[9E9,9E9,9E9,9E9,9E9,9E9]],work,z10,tPen \WObj:=WObj1;
MoveL [[125,2018.472,666.333],[0.5,-0.5,-0.5,0.5],[-1,-1,-1,0],[9E9,9E9,9E9,9E9,9E9,9E9]],work,z10,tPen \WObj:=WObj1;
MoveL [[125,1918.472,666.333],[0.5,-0.5,-0.5,0.5],[-1,-1,-1,0],[9E9,9E9,9E9,9E9,9E9,9E9]],work,z10,tPen \WObj:=WObj1;
MoveL [[125,1918.472,666.333],[0.5,-0.5,-0.5,0.5],[-1,-1,-1,0],[9E9,9E9,9E9,9E9,9E9,9E9]],work,z10,tPen \WObj:=WObj1;
MoveL [[125,1818.472,666.333],[0.5,-0.5,-0.5,0.5],[-1,-1,-1,0],[9E9,9E9,9E9,9E9,9E9,9E9]],work,z10,tPen \WObj:=WObj1;
MoveL [[125,1818.472,666.333],[0.5,-0.5,-0.5,0.5],[-1,-1,-1,0],[9E9,9E9,9E9,9E9,9E9,9E9]],work,z10,tPen \WObj:=WObj1;
MoveL [[125,1718.472,666.333],[0.5,-0.5,-0.5,0.5],[-1,-1,-1,0],[9E9,9E9,9E9,9E9,9E9,9E9]],work,z10,tPen \WObj:=WObj1;
MoveL [[125,1718.472,666.333],[0.5,-0.5,-0.5,0.5],[-1,-1,-1,0],[9E9,9E9,9E9,9E9,9E9,9E9]],work,z10,tPen \WObj:=WObj1;
MoveL [[125,1618.472,666.333],[0.5,-0.5,-0.5,0.5],[-1,-1,-1,0],[9E9,9E9,9E9,9E9,9E9,9E9]],work,z10,tPen \WObj:=WObj1;
MoveL [[125,1618.472,666.333],[0.5,-0.5,-0.5,0.5],[-1,-1,-1,0],[9E9,9E9,9E9,9E9,9E9,9E9]],work,z10,tPen \WObj:=WObj1;
MoveL [[125,1518.472,666.333],[0.5,-0.5,-0.5,0.5],[-1,-1,-1,0],[9E9,9E9,9E9,9E9,9E9,9E9]],work,z10,tPen \WObj:=WObj1;
MoveL [[125,1518.472,666.333],[0.5,-0.5,-0.5,0.5],[-1,-1,-1,0],[9E9,9E9,9E9,9E9,9E9,9E9]],work,z10,tPen \WObj:=WObj1;
MoveL [[125,1418.472,666.333],[0.5,-0.5,-0.5,0.5],[-1,-1,-1,0],[9E9,9E9,9E9,9E9,9E9,9E9]],work,z10,tPen \WObj:=WObj1;
MoveL [[125,1418.472,666.333],[0.5,-0.5,-0.5,0.5],[-1,-1,-1,0],[9E9,9E9,9E9,9E9,9E9,9E9]],work,z10,tPen \WObj:=WObj1;
MoveL [[125,2018.472,763.8],[0.5,-0.5,-0.5,0.5],[-1,-1,-1,0],[9E9,9E9,9E9,9E9,9E9,9E9]],work,z10,tPen \WObj:=WObj1;
MoveL [[125,2018.472,763.8],[0.5,-0.5,-0.5,0.5],[-1,-1,-1,0],[9E9,9E9,9E9,9E9,9E9,9E9]],work,z10,tPen \WObj:=WObj1;
MoveL [[125,1918.472,763.8],[0.5,-0.5,-0.5,0.5],[-1,-1,-1,0],[9E9,9E9,9E9,9E9,9E9,9E9]],work,z10,tPen \WObj:=WObj1;
MoveL [[125,1918.472,763.8],[0.5,-0.5,-0.5,0.5],[-1,-1,-1,0],[9E9,9E9,9E9,9E9,9E9,9E9]],work,z10,tPen \WObj:=WObj1;
MoveL [[125,1618.472,471.4],[0.5,-0.5,-0.5,0.5],[-1,-1,-1,0],[9E9,9E9,9E9,9E9,9E9,9E9]],work,z10,tPen \WObj:=WObj1;
MoveL [[125,1618.472,471.4],[0.5,-0.5,-0.5,0.5],[-1,-1,-1,0],[9E9,9E9,9E9,9E9,9E9,9E9]],work,z10,tPen \WObj:=WObj1;
MoveL [[125,1518.472,471.4],[0.5,-0.5,-0.5,0.5],[-1,-1,-1,0],[9E9,9E9,9E9,9E9,9E9,9E9]],work,z10,tPen \WObj:=WObj1;
MoveL [[125,1518.472,471.4],[0.5,-0.5,-0.5,0.5],[-1,-1,-1,0],[9E9,9E9,9E9,9E9,9E9,9E9]],work,z10,tPen \WObj:=WObj1;
MoveL [[125,1418.472,471.4],[0.5,-0.5,-0.5,0.5],[-1,-1,-1,0],[9E9,9E9,9E9,9E9,9E9,9E9]],work,z10,tPen \WObj:=WObj1;
MoveL [[125,1418.472,471.4],[0.5,-0.5,-0.5,0.5],[-1,-1,-1,0],[9E9,9E9,9E9,9E9,9E9,9E9]],work,z10,tPen \WObj:=WObj1;
MoveL [[125,2018.472,568.867],[0.5,-0.5,-0.5,0.5],[-1,-1,-1,0],[9E9,9E9,9E9,9E9,9E9,9E9]],work,z10,tPen \WObj:=WObj1;
MoveL [[125,2018.472,568.867],[0.5,-0.5,-0.5,0.5],[-1,-1,-1,0],[9E9,9E9,9E9,9E9,9E9,9E9]],work,z10,tPen \WObj:=WObj1;
MoveL [[125,1918.472,568.867],[0.5,-0.5,-0.5,0.5],[-1,-1,-1,0],[9E9,9E9,9E9,9E9,9E9,9E9]],work,z10,tPen \WObj:=WObj1;
MoveL [[125,1918.472,568.867],[0.5,-0.5,-0.5,0.5],[-1,-1,-1,0],[9E9,9E9,9E9,9E9,9E9,9E9]],work,z10,tPen \WObj:=WObj1;
MoveL [[125,1818.472,568.867],[0.5,-0.5,-0.5,0.5],[-1,-1,-1,0],[9E9,9E9,9E9,9E9,9E9,9E9]],work,z10,tPen \WObj:=WObj1;
MoveL [[125,1818.472,568.867],[0.5,-0.5,-0.5,0.5],[-1,-1,-1,0],[9E9,9E9,9E9,9E9,9E9,9E9]],work,z10,tPen \WObj:=WObj1;
MoveL [[125,1718.472,568.867],[0.5,-0.5,-0.5,0.5],[-1,-1,-1,0],[9E9,9E9,9E9,9E9,9E9,9E9]],work,z10,tPen \WObj:=WObj1;
MoveL [[125,1718.472,568.867],[0.5,-0.5,-0.5,0.5],[-1,-1,-1,0],[9E9,9E9,9E9,9E9,9E9,9E9]],work,z10,tPen \WObj:=WObj1;
MoveL [[125,1618.472,568.867],[0.5,-0.5,-0.5,0.5],[-1,-1,-1,0],[9E9,9E9,9E9,9E9,9E9,9E9]],work,z10,tPen \WObj:=WObj1;
MoveL [[125,1618.472,568.867],[0.5,-0.5,-0.5,0.5],[-1,-1,-1,0],[9E9,9E9,9E9,9E9,9E9,9E9]],work,z10,tPen \WObj:=WObj1;
MoveL [[125,1518.472,568.867],[0.5,-0.5,-0.5,0.5],[-1,-1,-1,0],[9E9,9E9,9E9,9E9,9E9,9E9]],work,z10,tPen \WObj:=WObj1;
MoveL [[125,1518.472,568.867],[0.5,-0.5,-0.5,0.5],[-1,-1,-1,0],[9E9,9E9,9E9,9E9,9E9,9E9]],work,z10,tPen \WObj:=WObj1;
MoveL [[125,1418.472,568.867],[0.5,-0.5,-0.5,0.5],[-1,-1,-1,0],[9E9,9E9,9E9,9E9,9E9,9E9]],work,z10,tPen \WObj:=WObj1;
MoveL [[125,1418.472,568.867],[0.5,-0.5,-0.5,0.5],[-1,-1,-1,0],[9E9,9E9,9E9,9E9,9E9,9E9]],work,z10,tPen \WObj:=WObj1;
MoveL [[125,2018.472,666.333],[0.5,-0.5,-0.5,0.5],[-1,-1,-1,0],[9E9,9E9,9E9,9E9,9E9,9E9]],work,z10,tPen \WObj:=WObj1;
MoveL [[125,2018.472,666.333],[0.5,-0.5,-0.5,0.5],[-1,-1,-1,0],[9E9,9E9,9E9,9E9,9E9,9E9]],work,z10,tPen \WObj:=WObj1;
MoveL [[125,1918.472,666.333],[0.5,-0.5,-0.5,0.5],[-1,-1,-1,0],[9E9,9E9,9E9,9E9,9E9,9E9]],work,z10,tPen \WObj:=WObj1;
MoveL [[125,1918.472,666.333],[0.5,-0.5,-0.5,0.5],[-1,-1,-1,0],[9E9,9E9,9E9,9E9,9E9,9E9]],work,z10,tPen \WObj:=WObj1;
MoveL [[125,1818.472,666.333],[0.5,-0.5,-0.5,0.5],[-1,-1,-1,0],[9E9,9E9,9E9,9E9,9E9,9E9]],work,z10,tPen \WObj:=WObj1;
MoveL [[125,1818.472,666.333],[0.5,-0.5,-0.5,0.5],[-1,-1,-1,0],[9E9,9E9,9E9,9E9,9E9,9E9]],work,z10,tPen \WObj:=WObj1;
MoveL [[125,1718.472,666.333],[0.5,-0.5,-0.5,0.5],[-1,-1,-1,0],[9E9,9E9,9E9,9E9,9E9,9E9]],work,z10,tPen \WObj:=WObj1;
MoveL [[125,1718.472,666.333],[0.5,-0.5,-0.5,0.5],[-1,-1,-1,0],[9E9,9E9,9E9,9E9,9E9,9E9]],work,z10,tPen \WObj:=WObj1;
MoveL [[125,1618.472,666.333],[0.5,-0.5,-0.5,0.5],[-1,-1,-1,0],[9E9,9E9,9E9,9E9,9E9,9E9]],work,z10,tPen \WObj:=WObj1;
MoveL [[125,1618.472,666.333],[0.5,-0.5,-0.5,0.5],[-1,-1,-1,0],[9E9,9E9,9E9,9E9,9E9,9E9]],work,z10,tPen \WObj:=WObj1;
MoveL [[125,1518.472,666.333],[0.5,-0.5,-0.5,0.5],[-1,-1,-1,0],[9E9,9E9,9E9,9E9,9E9,9E9]],work,z10,tPen \WObj:=WObj1;
MoveL [[125,1518.472,666.333],[0.5,-0.5,-0.5,0.5],[-1,-1,-1,0],[9E9,9E9,9E9,9E9,9E9,9E9]],work,z10,tPen \WObj:=WObj1;
MoveL [[125,1418.472,666.333],[0.5,-0.5,-0.5,0.5],[-1,-1,-1,0],[9E9,9E9,9E9,9E9,9E9,9E9]],work,z10,tPen \WObj:=WObj1;
MoveL [[125,1418.472,666.333],[0.5,-0.5,-0.5,0.5],[-1,-1,-1,0],[9E9,9E9,9E9,9E9,9E9,9E9]],work,z10,tPen \WObj:=WObj1;
MoveL [[125,2018.472,763.8],[0.5,-0.5,-0.5,0.5],[-1,-1,-1,0],[9E9,9E9,9E9,9E9,9E9,9E9]],work,z10,tPen \WObj:=WObj1;
MoveL [[125,2018.472,763.8],[0.5,-0.5,-0.5,0.5],[-1,-1,-1,0],[9E9,9E9,9E9,9E9,9E9,9E9]],work,z10,tPen \WObj:=WObj1;
MoveL [[125,1918.472,763.8],[0.5,-0.5,-0.5,0.5],[-1,-1,-1,0],[9E9,9E9,9E9,9E9,9E9,9E9]],work,z10,tPen \WObj:=WObj1;
MoveL [[125,1918.472,763.8],[0.5,-0.5,-0.5,0.5],[-1,-1,-1,0],[9E9,9E9,9E9,9E9,9E9,9E9]],work,z10,tPen \WObj:=WObj1;
MoveL [[125,1618.472,471.4],[0.5,-0.5,-0.5,0.5],[-1,-1,-1,0],[9E9,9E9,9E9,9E9,9E9,9E9]],work,z10,tPen \WObj:=WObj1;
MoveL [[125,1618.472,471.4],[0.5,-0.5,-0.5,0.5],[-1,-1,-1,0],[9E9,9E9,9E9,9E9,9E9,9E9]],work,z10,tPen \WObj:=WObj1;
MoveL [[125,1518.472,471.4],[0.5,-0.5,-0.5,0.5],[-1,-1,-1,0],[9E9,9E9,9E9,9E9,9E9,9E9]],work,z10,tPen \WObj:=WObj1;
MoveL [[125,1518.472,471.4],[0.5,-0.5,-0.5,0.5],[-1,-1,-1,0],[9E9,9E9,9E9,9E9,9E9,9E9]],work,z10,tPen \WObj:=WObj1;
MoveL [[125,1418.472,471.4],[0.5,-0.5,-0.5,0.5],[-1,-1,-1,0],[9E9,9E9,9E9,9E9,9E9,9E9]],work,z10,tPen \WObj:=WObj1;
MoveL [[125,1418.472,471.4],[0.5,-0.5,-0.5,0.5],[-1,-1,-1,0],[9E9,9E9,9E9,9E9,9E9,9E9]],work,z10,tPen \WObj:=WObj1;
MoveL [[125,2018.472,568.867],[0.5,-0.5,-0.5,0.5],[-1,-1,-1,0],[9E9,9E9,9E9,9E9,9E9,9E9]],work,z10,tPen \WObj:=WObj1;
MoveL [[125,2018.472,568.867],[0.5,-0.5,-0.5,0.5],[-1,-1,-1,0],[9E9,9E9,9E9,9E9,9E9,9E9]],work,z10,tPen \WObj:=WObj1;
MoveL [[125,1918.472,568.867],[0.5,-0.5,-0.5,0.5],[-1,-1,-1,0],[9E9,9E9,9E9,9E9,9E9,9E9]],work,z10,tPen \WObj:=WObj1;
MoveL [[125,1918.472,568.867],[0.5,-0.5,-0.5,0.5],[-1,-1,-1,0],[9E9,9E9,9E9,9E9,9E9,9E9]],work,z10,tPen \WObj:=WObj1;
MoveL [[125,1818.472,568.867],[0.5,-0.5,-0.5,0.5],[-1,-1,-1,0],[9E9,9E9,9E9,9E9,9E9,9E9]],work,z10,tPen \WObj:=WObj1;
MoveL [[125,1818.472,568.867],[0.5,-0.5,-0.5,0.5],[-1,-1,-1,0],[9E9,9E9,9E9,9E9,9E9,9E9]],work,z10,tPen \WObj:=WObj1;
MoveL [[125,1718.472,568.867],[0.5,-0.5,-0.5,0.5],[-1,-1,-1,0],[9E9,9E9,9E9,9E9,9E9,9E9]],work,z10,tPen \WObj:=WObj1;
MoveL [[125,1718.472,568.867],[0.5,-0.5,-0.5,0.5],[-1,-1,-1,0],[9E9,9E9,9E9,9E9,9E9,9E9]],work,z10,tPen \WObj:=WObj1;
MoveL [[125,1618.472,568.867],[0.5,-0.5,-0.5,0.5],[-1,-1,-1,0],[9E9,9E9,9E9,9E9,9E9,9E9]],work,z10,tPen \WObj:=WObj1;
MoveL [[125,1618.472,568.867],[0.5,-0.5,-0.5,0.5],[-1,-1,-1,0],[9E9,9E9,9E9,9E9,9E9,9E9]],work,z10,tPen \WObj:=WObj1;
MoveL [[125,1518.472,568.867],[0.5,-0.5,-0.5,0.5],[-1,-1,-1,0],[9E9,9E9,9E9,9E9,9E9,9E9]],work,z10,tPen \WObj:=WObj1;
MoveL [[125,1518.472,568.867],[0.5,-0.5,-0.5,0.5],[-1,-1,-1,0],[9E9,9E9,9E9,9E9,9E9,9E9]],work,z10,tPen \WObj:=WObj1;
MoveL [[125,1418.472,568.867],[0.5,-0.5,-0.5,0.5],[-1,-1,-1,0],[9E9,9E9,9E9,9E9,9E9,9E9]],work,z10,tPen \WObj:=WObj1;
MoveL [[125,1418.472,568.867],[0.5,-0.5,-0.5,0.5],[-1,-1,-1,0],[9E9,9E9,9E9,9E9,9E9,9E9]],work,z10,tPen \WObj:=WObj1;
MoveL [[125,2018.472,666.333],[0.5,-0.5,-0.5,0.5],[-1,-1,-1,0],[9E9,9E9,9E9,9E9,9E9,9E9]],work,z10,tPen \WObj:=WObj1;
MoveL [[125,2018.472,666.333],[0.5,-0.5,-0.5,0.5],[-1,-1,-1,0],[9E9,9E9,9E9,9E9,9E9,9E9]],work,z10,tPen \WObj:=WObj1;
MoveL [[125,1918.472,666.333],[0.5,-0.5,-0.5,0.5],[-1,-1,-1,0],[9E9,9E9,9E9,9E9,9E9,9E9]],work,z10,tPen \WObj:=WObj1;
MoveL [[125,1918.472,666.333],[0.5,-0.5,-0.5,0.5],[-1,-1,-1,0],[9E9,9E9,9E9,9E9,9E9,9E9]],work,z10,tPen \WObj:=WObj1;
MoveL [[125,1818.472,666.333],[0.5,-0.5,-0.5,0.5],[-1,-1,-1,0],[9E9,9E9,9E9,9E9,9E9,9E9]],work,z10,tPen \WObj:=WObj1;
MoveL [[125,1818.472,666.333],[0.5,-0.5,-0.5,0.5],[-1,-1,-1,0],[9E9,9E9,9E9,9E9,9E9,9E9]],work,z10,tPen \WObj:=WObj1;
MoveL [[125,1718.472,666.333],[0.5,-0.5,-0.5,0.5],[-1,-1,-1,0],[9E9,9E9,9E9,9E9,9E9,9E9]],work,z10,tPen \WObj:=WObj1;
MoveL [[125,1718.472,666.333],[0.5,-0.5,-0.5,0.5],[-1,-1,-1,0],[9E9,9E9,9E9,9E9,9E9,9E9]],work,z10,tPen \WObj:=WObj1;
MoveL [[125,1618.472,666.333],[0.5,-0.5,-0.5,0.5],[-1,-1,-1,0],[9E9,9E9,9E9,9E9,9E9,9E9]],work,z10,tPen \WObj:=WObj1;
MoveL [[125,1618.472,666.333],[0.5,-0.5,-0.5,0.5],[-1,-1,-1,0],[9E9,9E9,9E9,9E9,9E9,9E9]],work,z10,tPen \WObj:=WObj1;
MoveL [[125,1518.472,666.333],[0.5,-0.5,-0.5,0.5],[-1,-1,-1,0],[9E9,9E9,9E9,9E9,9E9,9E9]],work,z10,tPen \WObj:=WObj1;
MoveL [[125,1518.472,666.333],[0.5,-0.5,-0.5,0.5],[-1,-1,-1,0],[9E9,9E9,9E9,9E9,9E9,9E9]],work,z10,tPen \WObj:=WObj1;
MoveL [[125,1418.472,666.333],[0.5,-0.5,-0.5,0.5],[-1,-1,-1,0],[9E9,9E9,9E9,9E9,9E9,9E9]],work,z10,tPen \WObj:=WObj1;
MoveL [[125,1418.472,666.333],[0.5,-0.5,-0.5,0.5],[-1,-1,-1,0],[9E9,9E9,9E9,9E9,9E9,9E9]],work,z10,tPen \WObj:=WObj1;
MoveL [[125,2018.472,763.8],[0.5,-0.5,-0.5,0.5],[-1,-1,-1,0],[9E9,9E9,9E9,9E9,9E9,9E9]],work,z10,tPen \WObj:=WObj1;
MoveL [[125,2018.472,763.8],[0.5,-0.5,-0.5,0.5],[-1,-1,-1,0],[9E9,9E9,9E9,9E9,9E9,9E9]],work,z10,tPen \WObj:=WObj1;
MoveL [[125,1918.472,763.8],[0.5,-0.5,-0.5,0.5],[-1,-1,-1,0],[9E9,9E9,9E9,9E9,9E9,9E9]],work,z10,tPen \WObj:=WObj1;
MoveL [[125,1918.472,763.8],[0.5,-0.5,-0.5,0.5],[-1,-1,-1,0],[9E9,9E9,9E9,9E9,9E9,9E9]],work,z10,tPen \WObj:=WObj1;
MoveL [[125,1618.472,471.4],[0.5,-0.5,-0.5,0.5],[-1,-1,-1,0],[9E9,9E9,9E9,9E9,9E9,9E9]],work,z10,tPen \WObj:=WObj1;
MoveL [[125,1618.472,471.4],[0.5,-0.5,-0.5,0.5],[-1,-1,-1,0],[9E9,9E9,9E9,9E9,9E9,9E9]],work,z10,tPen \WObj:=WObj1;
MoveL [[125,1518.472,471.4],[0.5,-0.5,-0.5,0.5],[-1,-1,-1,0],[9E9,9E9,9E9,9E9,9E9,9E9]],work,z10,tPen \WObj:=WObj1;
MoveL [[125,1518.472,471.4],[0.5,-0.5,-0.5,0.5],[-1,-1,-1,0],[9E9,9E9,9E9,9E9,9E9,9E9]],work,z10,tPen \WObj:=WObj1;
MoveL [[125,1418.472,471.4],[0.5,-0.5,-0.5,0.5],[-1,-1,-1,0],[9E9,9E9,9E9,9E9,9E9,9E9]],work,z10,tPen \WObj:=WObj1;
MoveL [[125,1418.472,471.4],[0.5,-0.5,-0.5,0.5],[-1,-1,-1,0],[9E9,9E9,9E9,9E9,9E9,9E9]],work,z10,tPen \WObj:=WObj1;
MoveL [[125,2018.472,568.867],[0.5,-0.5,-0.5,0.5],[-1,-1,-1,0],[9E9,9E9,9E9,9E9,9E9,9E9]],work,z10,tPen \WObj:=WObj1;
MoveL [[125,2018.472,568.867],[0.5,-0.5,-0.5,0.5],[-1,-1,-1,0],[9E9,9E9,9E9,9E9,9E9,9E9]],work,z10,tPen \WObj:=WObj1;
MoveL [[125,1918.472,568.867],[0.5,-0.5,-0.5,0.5],[-1,-1,-1,0],[9E9,9E9,9E9,9E9,9E9,9E9]],work,z10,tPen \WObj:=WObj1;
MoveL [[125,1918.472,568.867],[0.5,-0.5,-0.5,0.5],[-1,-1,-1,0],[9E9,9E9,9E9,9E9,9E9,9E9]],work,z10,tPen \WObj:=WObj1;
MoveL [[125,1818.472,568.867],[0.5,-0.5,-0.5,0.5],[-1,-1,-1,0],[9E9,9E9,9E9,9E9,9E9,9E9]],work,z10,tPen \WObj:=WObj1;
MoveL [[125,1818.472,568.867],[0.5,-0.5,-0.5,0.5],[-1,-1,-1,0],[9E9,9E9,9E9,9E9,9E9,9E9]],work,z10,tPen \WObj:=WObj1;
MoveL [[125,1718.472,568.867],[0.5,-0.5,-0.5,0.5],[-1,-1,-1,0],[9E9,9E9,9E9,9E9,9E9,9E9]],work,z10,tPen \WObj:=WObj1;
MoveL [[125,1718.472,568.867],[0.5,-0.5,-0.5,0.5],[-1,-1,-1,0],[9E9,9E9,9E9,9E9,9E9,9E9]],work,z10,tPen \WObj:=WObj1;
MoveL [[125,1618.472,568.867],[0.5,-0.5,-0.5,0.5],[-1,-1,-1,0],[9E9,9E9,9E9,9E9,9E9,9E9]],work,z10,tPen \WObj:=WObj1;
MoveL [[125,1618.472,568.867],[0.5,-0.5,-0.5,0.5],[-1,-1,-1,0],[9E9,9E9,9E9,9E9,9E9,9E9]],work,z10,tPen \WObj:=WObj1;
MoveL [[125,1518.472,568.867],[0.5,-0.5,-0.5,0.5],[-1,-1,-1,0],[9E9,9E9,9E9,9E9,9E9,9E9]],work,z10,tPen \WObj:=WObj1;
MoveL [[125,1518.472,568.867],[0.5,-0.5,-0.5,0.5],[-1,-1,-1,0],[9E9,9E9,9E9,9E9,9E9,9E9]],work,z10,tPen \WObj:=WObj1;
MoveL [[125,1418.472,568.867],[0.5,-0.5,-0.5,0.5],[-1,-1,-1,0],[9E9,9E9,9E9,9E9,9E9,9E9]],work,z10,tPen \WObj:=WObj1;
MoveL [[125,1418.472,568.867],[0.5,-0.5,-0.5,0.5],[-1,-1,-1,0],[9E9,9E9,9E9,9E9,9E9,9E9]],work,z10,tPen \WObj:=WObj1;
MoveL [[125,2018.472,666.333],[0.5,-0.5,-0.5,0.5],[-1,-1,-1,0],[9E9,9E9,9E9,9E9,9E9,9E9]],work,z10,tPen \WObj:=WObj1;
MoveL [[125,2018.472,666.333],[0.5,-0.5,-0.5,0.5],[-1,-1,-1,0],[9E9,9E9,9E9,9E9,9E9,9E9]],work,z10,tPen \WObj:=WObj1;
MoveL [[125,1918.472,666.333],[0.5,-0.5,-0.5,0.5],[-1,-1,-1,0],[9E9,9E9,9E9,9E9,9E9,9E9]],work,z10,tPen \WObj:=WObj1;
MoveL [[125,1918.472,666.333],[0.5,-0.5,-0.5,0.5],[-1,-1,-1,0],[9E9,9E9,9E9,9E9,9E9,9E9]],work,z10,tPen \WObj:=WObj1;
MoveL [[125,1818.472,666.333],[0.5,-0.5,-0.5,0.5],[-1,-1,-1,0],[9E9,9E9,9E9,9E9,9E9,9E9]],work,z10,tPen \WObj:=WObj1;
MoveL [[125,1818.472,666.333],[0.5,-0.5,-0.5,0.5],[-1,-1,-1,0],[9E9,9E9,9E9,9E9,9E9,9E9]],work,z10,tPen \WObj:=WObj1;
MoveL [[125,1718.472,666.333],[0.5,-0.5,-0.5,0.5],[-1,-1,-1,0],[9E9,9E9,9E9,9E9,9E9,9E9]],work,z10,tPen \WObj:=WObj1;
MoveL [[125,1718.472,666.333],[0.5,-0.5,-0.5,0.5],[-1,-1,-1,0],[9E9,9E9,9E9,9E9,9E9,9E9]],work,z10,tPen \WObj:=WObj1;
MoveL [[125,1618.472,666.333],[0.5,-0.5,-0.5,0.5],[-1,-1,-1,0],[9E9,9E9,9E9,9E9,9E9,9E9]],work,z10,tPen \WObj:=WObj1;
MoveL [[125,1618.472,666.333],[0.5,-0.5,-0.5,0.5],[-1,-1,-1,0],[9E9,9E9,9E9,9E9,9E9,9E9]],work,z10,tPen \WObj:=WObj1;
MoveL [[125,1518.472,666.333],[0.5,-0.5,-0.5,0.5],[-1,-1,-1,0],[9E9,9E9,9E9,9E9,9E9,9E9]],work,z10,tPen \WObj:=WObj1;
MoveL [[125,1518.472,666.333],[0.5,-0.5,-0.5,0.5],[-1,-1,-1,0],[9E9,9E9,9E9,9E9,9E9,9E9]],work,z10,tPen \WObj:=WObj1;
MoveL [[125,1418.472,666.333],[0.5,-0.5,-0.5,0.5],[-1,-1,-1,0],[9E9,9E9,9E9,9E9,9E9,9E9]],work,z10,tPen \WObj:=WObj1;
MoveL [[125,1418.472,666.333],[0.5,-0.5,-0.5,0.5],[-1,-1,-1,0],[9E9,9E9,9E9,9E9,9E9,9E9]],work,z10,tPen \WObj:=WObj1;
MoveL [[125,2018.472,763.8],[0.5,-0.5,-0.5,0.5],[-1,-1,-1,0],[9E9,9E9,9E9,9E9,9E9,9E9]],work,z10,tPen \WObj:=WObj1;
MoveL [[125,2018.472,763.8],[0.5,-0.5,-0.5,0.5],[-1,-1,-1,0],[9E9,9E9,9E9,9E9,9E9,9E9]],work,z10,tPen \WObj:=WObj1;
MoveL [[125,1918.472,763.8],[0.5,-0.5,-0.5,0.5],[-1,-1,-1,0],[9E9,9E9,9E9,9E9,9E9,9E9]],work,z10,tPen \WObj:=WObj1;
MoveL [[125,1918.472,763.8],[0.5,-0.5,-0.5,0.5],[-1,-1,-1,0],[9E9,9E9,9E9,9E9,9E9,9E9]],work,z10,tPen \WObj:=WObj1;
MoveL [[125,1618.472,471.4],[0.5,-0.5,-0.5,0.5],[-1,-1,-1,0],[9E9,9E9,9E9,9E9,9E9,9E9]],work,z10,tPen \WObj:=WObj1;
MoveL [[125,1618.472,471.4],[0.5,-0.5,-0.5,0.5],[-1,-1,-1,0],[9E9,9E9,9E9,9E9,9E9,9E9]],work,z10,tPen \WObj:=WObj1;
MoveL [[125,1518.472,471.4],[0.5,-0.5,-0.5,0.5],[-1,-1,-1,0],[9E9,9E9,9E9,9E9,9E9,9E9]],work,z10,tPen \WObj:=WObj1;
MoveL [[125,1518.472,471.4],[0.5,-0.5,-0.5,0.5],[-1,-1,-1,0],[9E9,9E9,9E9,9E9,9E9,9E9]],work,z10,tPen \WObj:=WObj1;
MoveL [[125,1418.472,471.4],[0.5,-0.5,-0.5,0.5],[-1,-1,-1,0],[9E9,9E9,9E9,9E9,9E9,9E9]],work,z10,tPen \WObj:=WObj1;
MoveL [[125,1418.472,471.4],[0.5,-0.5,-0.5,0.5],[-1,-1,-1,0],[9E9,9E9,9E9,9E9,9E9,9E9]],work,z10,tPen \WObj:=WObj1;
MoveL [[125,2018.472,568.867],[0.5,-0.5,-0.5,0.5],[-1,-1,-1,0],[9E9,9E9,9E9,9E9,9E9,9E9]],work,z10,tPen \WObj:=WObj1;
MoveL [[125,2018.472,568.867],[0.5,-0.5,-0.5,0.5],[-1,-1,-1,0],[9E9,9E9,9E9,9E9,9E9,9E9]],work,z10,tPen \WObj:=WObj1;
MoveL [[125,1918.472,568.867],[0.5,-0.5,-0.5,0.5],[-1,-1,-1,0],[9E9,9E9,9E9,9E9,9E9,9E9]],work,z10,tPen \WObj:=WObj1;
MoveL [[125,1918.472,568.867],[0.5,-0.5,-0.5,0.5],[-1,-1,-1,0],[9E9,9E9,9E9,9E9,9E9,9E9]],work,z10,tPen \WObj:=WObj1;
MoveL [[125,1818.472,568.867],[0.5,-0.5,-0.5,0.5],[-1,-1,-1,0],[9E9,9E9,9E9,9E9,9E9,9E9]],work,z10,tPen \WObj:=WObj1;
MoveL [[125,1818.472,568.867],[0.5,-0.5,-0.5,0.5],[-1,-1,-1,0],[9E9,9E9,9E9,9E9,9E9,9E9]],work,z10,tPen \WObj:=WObj1;
MoveL [[125,1718.472,568.867],[0.5,-0.5,-0.5,0.5],[-1,-1,-1,0],[9E9,9E9,9E9,9E9,9E9,9E9]],work,z10,tPen \WObj:=WObj1;
MoveL [[125,1718.472,568.867],[0.5,-0.5,-0.5,0.5],[-1,-1,-1,0],[9E9,9E9,9E9,9E9,9E9,9E9]],work,z10,tPen \WObj:=WObj1;
MoveL [[125,1618.472,568.867],[0.5,-0.5,-0.5,0.5],[-1,-1,-1,0],[9E9,9E9,9E9,9E9,9E9,9E9]],work,z10,tPen \WObj:=WObj1;
MoveL [[125,1618.472,568.867],[0.5,-0.5,-0.5,0.5],[-1,-1,-1,0],[9E9,9E9,9E9,9E9,9E9,9E9]],work,z10,tPen \WObj:=WObj1;
MoveL [[125,1518.472,568.867],[0.5,-0.5,-0.5,0.5],[-1,-1,-1,0],[9E9,9E9,9E9,9E9,9E9,9E9]],work,z10,tPen \WObj:=WObj1;
MoveL [[125,1518.472,568.867],[0.5,-0.5,-0.5,0.5],[-1,-1,-1,0],[9E9,9E9,9E9,9E9,9E9,9E9]],work,z10,tPen \WObj:=WObj1;
MoveL [[125,1418.472,568.867],[0.5,-0.5,-0.5,0.5],[-1,-1,-1,0],[9E9,9E9,9E9,9E9,9E9,9E9]],work,z10,tPen \WObj:=WObj1;
MoveL [[125,1418.472,568.867],[0.5,-0.5,-0.5,0.5],[-1,-1,-1,0],[9E9,9E9,9E9,9E9,9E9,9E9]],work,z10,tPen \WObj:=WObj1;
MoveL [[125,2018.472,666.333],[0.5,-0.5,-0.5,0.5],[-1,-1,-1,0],[9E9,9E9,9E9,9E9,9E9,9E9]],work,z10,tPen \WObj:=WObj1;
MoveL [[125,2018.472,666.333],[0.5,-0.5,-0.5,0.5],[-1,-1,-1,0],[9E9,9E9,9E9,9E9,9E9,9E9]],work,z10,tPen \WObj:=WObj1;
MoveL [[125,1918.472,666.333],[0.5,-0.5,-0.5,0.5],[-1,-1,-1,0],[9E9,9E9,9E9,9E9,9E9,9E9]],work,z10,tPen \WObj:=WObj1;
MoveL [[125,1918.472,666.333],[0.5,-0.5,-0.5,0.5],[-1,-1,-1,0],[9E9,9E9,9E9,9E9,9E9,9E9]],work,z10,tPen \WObj:=WObj1;
MoveL [[125,1818.472,666.333],[0.5,-0.5,-0.5,0.5],[-1,-1,-1,0],[9E9,9E9,9E9,9E9,9E9,9E9]],work,z10,tPen \WObj:=WObj1;
MoveL [[125,1818.472,666.333],[0.5,-0.5,-0.5,0.5],[-1,-1,-1,0],[9E9,9E9,9E9,9E9,9E9,9E9]],work,z10,tPen \WObj:=WObj1;
MoveL [[125,1718.472,666.333],[0.5,-0.5,-0.5,0.5],[-1,-1,-1,0],[9E9,9E9,9E9,9E9,9E9,9E9]],work,z10,tPen \WObj:=WObj1;
MoveL [[125,1718.472,666.333],[0.5,-0.5,-0.5,0.5],[-1,-1,-1,0],[9E9,9E9,9E9,9E9,9E9,9E9]],work,z10,tPen \WObj:=WObj1;
MoveL [[125,1618.472,666.333],[0.5,-0.5,-0.5,0.5],[-1,-1,-1,0],[9E9,9E9,9E9,9E9,9E9,9E9]],work,z10,tPen \WObj:=WObj1;
MoveL [[125,1618.472,666.333],[0.5,-0.5,-0.5,0.5],[-1,-1,-1,0],[9E9,9E9,9E9,9E9,9E9,9E9]],work,z10,tPen \WObj:=WObj1;
MoveL [[125,1518.472,666.333],[0.5,-0.5,-0.5,0.5],[-1,-1,-1,0],[9E9,9E9,9E9,9E9,9E9,9E9]],work,z10,tPen \WObj:=WObj1;
MoveL [[125,1518.472,666.333],[0.5,-0.5,-0.5,0.5],[-1,-1,-1,0],[9E9,9E9,9E9,9E9,9E9,9E9]],work,z10,tPen \WObj:=WObj1;
MoveL [[125,1418.472,666.333],[0.5,-0.5,-0.5,0.5],[-1,-1,-1,0],[9E9,9E9,9E9,9E9,9E9,9E9]],work,z10,tPen \WObj:=WObj1;
MoveL [[125,1418.472,666.333],[0.5,-0.5,-0.5,0.5],[-1,-1,-1,0],[9E9,9E9,9E9,9E9,9E9,9E9]],work,z10,tPen \WObj:=WObj1;
MoveL [[125,2018.472,763.8],[0.5,-0.5,-0.5,0.5],[-1,-1,-1,0],[9E9,9E9,9E9,9E9,9E9,9E9]],work,z10,tPen \WObj:=WObj1;
MoveL [[125,2018.472,763.8],[0.5,-0.5,-0.5,0.5],[-1,-1,-1,0],[9E9,9E9,9E9,9E9,9E9,9E9]],work,z10,tPen \WObj:=WObj1;
MoveL [[125,1918.472,763.8],[0.5,-0.5,-0.5,0.5],[-1,-1,-1,0],[9E9,9E9,9E9,9E9,9E9,9E9]],work,z10,tPen \WObj:=WObj1;
MoveL [[125,1918.472,763.8],[0.5,-0.5,-0.5,0.5],[-1,-1,-1,0],[9E9,9E9,9E9,9E9,9E9,9E9]],work,z10,tPen \WObj:=WObj1;
MoveL [[125,1618.472,471.4],[0.5,-0.5,-0.5,0.5],[-1,-1,-1,0],[9E9,9E9,9E9,9E9,9E9,9E9]],work,z10,tPen \WObj:=WObj1;
MoveL [[125,1618.472,471.4],[0.5,-0.5,-0.5,0.5],[-1,-1,-1,0],[9E9,9E9,9E9,9E9,9E9,9E9]],work,z10,tPen \WObj:=WObj1;
MoveL [[125,1518.472,471.4],[0.5,-0.5,-0.5,0.5],[-1,-1,-1,0],[9E9,9E9,9E9,9E9,9E9,9E9]],work,z10,tPen \WObj:=WObj1;
MoveL [[125,1518.472,471.4],[0.5,-0.5,-0.5,0.5],[-1,-1,-1,0],[9E9,9E9,9E9,9E9,9E9,9E9]],work,z10,tPen \WObj:=WObj1;
MoveL [[125,1418.472,471.4],[0.5,-0.5,-0.5,0.5],[-1,-1,-1,0],[9E9,9E9,9E9,9E9,9E9,9E9]],work,z10,tPen \WObj:=WObj1;
MoveL [[125,1418.472,471.4],[0.5,-0.5,-0.5,0.5],[-1,-1,-1,0],[9E9,9E9,9E9,9E9,9E9,9E9]],work,z10,tPen \WObj:=WObj1;
MoveL [[125,2018.472,568.867],[0.5,-0.5,-0.5,0.5],[-1,-1,-1,0],[9E9,9E9,9E9,9E9,9E9,9E9]],work,z10,tPen \WObj:=WObj1;
MoveL [[125,2018.472,568.867],[0.5,-0.5,-0.5,0.5],[-1,-1,-1,0],[9E9,9E9,9E9,9E9,9E9,9E9]],work,z10,tPen \WObj:=WObj1;
MoveL [[125,1918.472,568.867],[0.5,-0.5,-0.5,0.5],[-1,-1,-1,0],[9E9,9E9,9E9,9E9,9E9,9E9]],work,z10,tPen \WObj:=WObj1;
MoveL [[125,1918.472,568.867],[0.5,-0.5,-0.5,0.5],[-1,-1,-1,0],[9E9,9E9,9E9,9E9,9E9,9E9]],work,z10,tPen \WObj:=WObj1;
MoveL [[125,1818.472,568.867],[0.5,-0.5,-0.5,0.5],[-1,-1,-1,0],[9E9,9E9,9E9,9E9,9E9,9E9]],work,z10,tPen \WObj:=WObj1;
MoveL [[125,1818.472,568.867],[0.5,-0.5,-0.5,0.5],[-1,-1,-1,0],[9E9,9E9,9E9,9E9,9E9,9E9]],work,z10,tPen \WObj:=WObj1;
MoveL [[125,1718.472,568.867],[0.5,-0.5,-0.5,0.5],[-1,-1,-1,0],[9E9,9E9,9E9,9E9,9E9,9E9]],work,z10,tPen \WObj:=WObj1;
MoveL [[125,1718.472,568.867],[0.5,-0.5,-0.5,0.5],[-1,-1,-1,0],[9E9,9E9,9E9,9E9,9E9,9E9]],work,z10,tPen \WObj:=WObj1;
MoveL [[125,1618.472,568.867],[0.5,-0.5,-0.5,0.5],[-1,-1,-1,0],[9E9,9E9,9E9,9E9,9E9,9E9]],work,z10,tPen \WObj:=WObj1;
MoveL [[125,1618.472,568.867],[0.5,-0.5,-0.5,0.5],[-1,-1,-1,0],[9E9,9E9,9E9,9E9,9E9,9E9]],work,z10,tPen \WObj:=WObj1;
MoveL [[125,1518.472,568.867],[0.5,-0.5,-0.5,0.5],[-1,-1,-1,0],[9E9,9E9,9E9,9E9,9E9,9E9]],work,z10,tPen \WObj:=WObj1;
MoveL [[125,1518.472,568.867],[0.5,-0.5,-0.5,0.5],[-1,-1,-1,0],[9E9,9E9,9E9,9E9,9E9,9E9]],work,z10,tPen \WObj:=WObj1;
MoveL [[125,1418.472,568.867],[0.5,-0.5,-0.5,0.5],[-1,-1,-1,0],[9E9,9E9,9E9,9E9,9E9,9E9]],work,z10,tPen \WObj:=WObj1;
MoveL [[125,1418.472,568.867],[0.5,-0.5,-0.5,0.5],[-1,-1,-1,0],[9E9,9E9,9E9,9E9,9E9,9E9]],work,z10,tPen \WObj:=WObj1;
MoveL [[125,2018.472,666.333],[0.5,-0.5,-0.5,0.5],[-1,-1,-1,0],[9E9,9E9,9E9,9E9,9E9,9E9]],work,z10,tPen \WObj:=WObj1;
MoveL [[125,2018.472,666.333],[0.5,-0.5,-0.5,0.5],[-1,-1,-1,0],[9E9,9E9,9E9,9E9,9E9,9E9]],work,z10,tPen \WObj:=WObj1;
MoveL [[125,1918.472,666.333],[0.5,-0.5,-0.5,0.5],[-1,-1,-1,0],[9E9,9E9,9E9,9E9,9E9,9E9]],work,z10,tPen \WObj:=WObj1;
MoveL [[125,1918.472,666.333],[0.5,-0.5,-0.5,0.5],[-1,-1,-1,0],[9E9,9E9,9E9,9E9,9E9,9E9]],work,z10,tPen \WObj:=WObj1;
MoveL [[125,1818.472,666.333],[0.5,-0.5,-0.5,0.5],[-1,-1,-1,0],[9E9,9E9,9E9,9E9,9E9,9E9]],work,z10,tPen \WObj:=WObj1;
MoveL [[125,1818.472,666.333],[0.5,-0.5,-0.5,0.5],[-1,-1,-1,0],[9E9,9E9,9E9,9E9,9E9,9E9]],work,z10,tPen \WObj:=WObj1;
MoveL [[125,1718.472,666.333],[0.5,-0.5,-0.5,0.5],[-1,-1,-1,0],[9E9,9E9,9E9,9E9,9E9,9E9]],work,z10,tPen \WObj:=WObj1;
MoveL [[125,1718.472,666.333],[0.5,-0.5,-0.5,0.5],[-1,-1,-1,0],[9E9,9E9,9E9,9E9,9E9,9E9]],work,z10,tPen \WObj:=WObj1;
MoveL [[125,1618.472,666.333],[0.5,-0.5,-0.5,0.5],[-1,-1,-1,0],[9E9,9E9,9E9,9E9,9E9,9E9]],work,z10,tPen \WObj:=WObj1;
MoveL [[125,1618.472,666.333],[0.5,-0.5,-0.5,0.5],[-1,-1,-1,0],[9E9,9E9,9E9,9E9,9E9,9E9]],work,z10,tPen \WObj:=WObj1;
MoveL [[125,1518.472,666.333],[0.5,-0.5,-0.5,0.5],[-1,-1,-1,0],[9E9,9E9,9E9,9E9,9E9,9E9]],work,z10,tPen \WObj:=WObj1;
MoveL [[125,1518.472,666.333],[0.5,-0.5,-0.5,0.5],[-1,-1,-1,0],[9E9,9E9,9E9,9E9,9E9,9E9]],work,z10,tPen \WObj:=WObj1;
MoveL [[125,1418.472,666.333],[0.5,-0.5,-0.5,0.5],[-1,-1,-1,0],[9E9,9E9,9E9,9E9,9E9,9E9]],work,z10,tPen \WObj:=WObj1;
MoveL [[125,1418.472,666.333],[0.5,-0.5,-0.5,0.5],[-1,-1,-1,0],[9E9,9E9,9E9,9E9,9E9,9E9]],work,z10,tPen \WObj:=WObj1;
MoveL [[125,2018.472,763.8],[0.5,-0.5,-0.5,0.5],[-1,-1,-1,0],[9E9,9E9,9E9,9E9,9E9,9E9]],work,z10,tPen \WObj:=WObj1;
MoveL [[125,2018.472,763.8],[0.5,-0.5,-0.5,0.5],[-1,-1,-1,0],[9E9,9E9,9E9,9E9,9E9,9E9]],work,z10,tPen \WObj:=WObj1;
MoveL [[125,1918.472,763.8],[0.5,-0.5,-0.5,0.5],[-1,-1,-1,0],[9E9,9E9,9E9,9E9,9E9,9E9]],work,z10,tPen \WObj:=WObj1;
MoveL [[125,1918.472,763.8],[0.5,-0.5,-0.5,0.5],[-1,-1,-1,0],[9E9,9E9,9E9,9E9,9E9,9E9]],work,z10,tPen \WObj:=WObj1;
MoveL [[125,1618.472,471.4],[0.5,-0.5,-0.5,0.5],[-1,-1,-1,0],[9E9,9E9,9E9,9E9,9E9,9E9]],work,z10,tPen \WObj:=WObj1;
MoveL [[125,1618.472,471.4],[0.5,-0.5,-0.5,0.5],[-1,-1,-1,0],[9E9,9E9,9E9,9E9,9E9,9E9]],work,z10,tPen \WObj:=WObj1;
MoveL [[125,1518.472,471.4],[0.5,-0.5,-0.5,0.5],[-1,-1,-1,0],[9E9,9E9,9E9,9E9,9E9,9E9]],work,z10,tPen \WObj:=WObj1;
MoveL [[125,1518.472,471.4],[0.5,-0.5,-0.5,0.5],[-1,-1,-1,0],[9E9,9E9,9E9,9E9,9E9,9E9]],work,z10,tPen \WObj:=WObj1;
MoveL [[125,1418.472,471.4],[0.5,-0.5,-0.5,0.5],[-1,-1,-1,0],[9E9,9E9,9E9,9E9,9E9,9E9]],work,z10,tPen \WObj:=WObj1;
MoveL [[125,1418.472,471.4],[0.5,-0.5,-0.5,0.5],[-1,-1,-1,0],[9E9,9E9,9E9,9E9,9E9,9E9]],work,z10,tPen \WObj:=WObj1;
MoveL [[125,2018.472,568.867],[0.5,-0.5,-0.5,0.5],[-1,-1,-1,0],[9E9,9E9,9E9,9E9,9E9,9E9]],work,z10,tPen \WObj:=WObj1;
MoveL [[125,2018.472,568.867],[0.5,-0.5,-0.5,0.5],[-1,-1,-1,0],[9E9,9E9,9E9,9E9,9E9,9E9]],work,z10,tPen \WObj:=WObj1;
MoveL [[125,1918.472,568.867],[0.5,-0.5,-0.5,0.5],[-1,-1,-1,0],[9E9,9E9,9E9,9E9,9E9,9E9]],work,z10,tPen \WObj:=WObj1;
MoveL [[125,1918.472,568.867],[0.5,-0.5,-0.5,0.5],[-1,-1,-1,0],[9E9,9E9,9E9,9E9,9E9,9E9]],work,z10,tPen \WObj:=WObj1;
MoveL [[125,1818.472,568.867],[0.5,-0.5,-0.5,0.5],[-1,-1,-1,0],[9E9,9E9,9E9,9E9,9E9,9E9]],work,z10,tPen \WObj:=WObj1;
MoveL [[125,1818.472,568.867],[0.5,-0.5,-0.5,0.5],[-1,-1,-1,0],[9E9,9E9,9E9,9E9,9E9,9E9]],work,z10,tPen \WObj:=WObj1;
MoveL [[125,1718.472,568.867],[0.5,-0.5,-0.5,0.5],[-1,-1,-1,0],[9E9,9E9,9E9,9E9,9E9,9E9]],work,z10,tPen \WObj:=WObj1;
MoveL [[125,1718.472,568.867],[0.5,-0.5,-0.5,0.5],[-1,-1,-1,0],[9E9,9E9,9E9,9E9,9E9,9E9]],work,z10,tPen \WObj:=WObj1;
MoveL [[125,1618.472,568.867],[0.5,-0.5,-0.5,0.5],[-1,-1,-1,0],[9E9,9E9,9E9,9E9,9E9,9E9]],work,z10,tPen \WObj:=WObj1;
MoveL [[125,1618.472,568.867],[0.5,-0.5,-0.5,0.5],[-1,-1,-1,0],[9E9,9E9,9E9,9E9,9E9,9E9]],work,z10,tPen \WObj:=WObj1;
MoveL [[125,1518.472,568.867],[0.5,-0.5,-0.5,0.5],[-1,-1,-1,0],[9E9,9E9,9E9,9E9,9E9,9E9]],work,z10,tPen \WObj:=WObj1;
MoveL [[125,1518.472,568.867],[0.5,-0.5,-0.5,0.5],[-1,-1,-1,0],[9E9,9E9,9E9,9E9,9E9,9E9]],work,z10,tPen \WObj:=WObj1;
MoveL [[125,1418.472,568.867],[0.5,-0.5,-0.5,0.5],[-1,-1,-1,0],[9E9,9E9,9E9,9E9,9E9,9E9]],work,z10,tPen \WObj:=WObj1;
MoveL [[125,1418.472,568.867],[0.5,-0.5,-0.5,0.5],[-1,-1,-1,0],[9E9,9E9,9E9,9E9,9E9,9E9]],work,z10,tPen \WObj:=WObj1;
MoveL [[125,2018.472,666.333],[0.5,-0.5,-0.5,0.5],[-1,-1,-1,0],[9E9,9E9,9E9,9E9,9E9,9E9]],work,z10,tPen \WObj:=WObj1;
MoveL [[125,2018.472,666.333],[0.5,-0.5,-0.5,0.5],[-1,-1,-1,0],[9E9,9E9,9E9,9E9,9E9,9E9]],work,z10,tPen \WObj:=WObj1;
MoveL [[125,1918.472,666.333],[0.5,-0.5,-0.5,0.5],[-1,-1,-1,0],[9E9,9E9,9E9,9E9,9E9,9E9]],work,z10,tPen \WObj:=WObj1;
MoveL [[125,1918.472,666.333],[0.5,-0.5,-0.5,0.5],[-1,-1,-1,0],[9E9,9E9,9E9,9E9,9E9,9E9]],work,z10,tPen \WObj:=WObj1;
MoveL [[125,1818.472,666.333],[0.5,-0.5,-0.5,0.5],[-1,-1,-1,0],[9E9,9E9,9E9,9E9,9E9,9E9]],work,z10,tPen \WObj:=WObj1;
MoveL [[125,1818.472,666.333],[0.5,-0.5,-0.5,0.5],[-1,-1,-1,0],[9E9,9E9,9E9,9E9,9E9,9E9]],work,z10,tPen \WObj:=WObj1;
MoveL [[125,1718.472,666.333],[0.5,-0.5,-0.5,0.5],[-1,-1,-1,0],[9E9,9E9,9E9,9E9,9E9,9E9]],work,z10,tPen \WObj:=WObj1;
MoveL [[125,1718.472,666.333],[0.5,-0.5,-0.5,0.5],[-1,-1,-1,0],[9E9,9E9,9E9,9E9,9E9,9E9]],work,z10,tPen \WObj:=WObj1;
MoveL [[125,1618.472,666.333],[0.5,-0.5,-0.5,0.5],[-1,-1,-1,0],[9E9,9E9,9E9,9E9,9E9,9E9]],work,z10,tPen \WObj:=WObj1;
MoveL [[125,1618.472,666.333],[0.5,-0.5,-0.5,0.5],[-1,-1,-1,0],[9E9,9E9,9E9,9E9,9E9,9E9]],work,z10,tPen \WObj:=WObj1;
MoveL [[125,1518.472,666.333],[0.5,-0.5,-0.5,0.5],[-1,-1,-1,0],[9E9,9E9,9E9,9E9,9E9,9E9]],work,z10,tPen \WObj:=WObj1;
MoveL [[125,1518.472,666.333],[0.5,-0.5,-0.5,0.5],[-1,-1,-1,0],[9E9,9E9,9E9,9E9,9E9,9E9]],work,z10,tPen \WObj:=WObj1;
MoveL [[125,1418.472,666.333],[0.5,-0.5,-0.5,0.5],[-1,-1,-1,0],[9E9,9E9,9E9,9E9,9E9,9E9]],work,z10,tPen \WObj:=WObj1;
MoveL [[125,1418.472,666.333],[0.5,-0.5,-0.5,0.5],[-1,-1,-1,0],[9E9,9E9,9E9,9E9,9E9,9E9]],work,z10,tPen \WObj:=WObj1;
MoveL [[125,2018.472,763.8],[0.5,-0.5,-0.5,0.5],[-1,-1,-1,0],[9E9,9E9,9E9,9E9,9E9,9E9]],work,z10,tPen \WObj:=WObj1;
MoveL [[125,2018.472,763.8],[0.5,-0.5,-0.5,0.5],[-1,-1,-1,0],[9E9,9E9,9E9,9E9,9E9,9E9]],work,z10,tPen \WObj:=WObj1;
MoveL [[125,1918.472,763.8],[0.5,-0.5,-0.5,0.5],[-1,-1,-1,0],[9E9,9E9,9E9,9E9,9E9,9E9]],work,z10,tPen \WObj:=WObj1;
MoveL [[125,1918.472,763.8],[0.5,-0.5,-0.5,0.5],[-1,-1,-1,0],[9E9,9E9,9E9,9E9,9E9,9E9]],work,z10,tPen \WObj:=WObj1;
MoveL [[125,1618.472,471.4],[0.5,-0.5,-0.5,0.5],[-1,-1,-1,0],[9E9,9E9,9E9,9E9,9E9,9E9]],work,z10,tPen \WObj:=WObj1;
MoveL [[125,1618.472,471.4],[0.5,-0.5,-0.5,0.5],[-1,-1,-1,0],[9E9,9E9,9E9,9E9,9E9,9E9]],work,z10,tPen \WObj:=WObj1;
MoveL [[125,1518.472,471.4],[0.5,-0.5,-0.5,0.5],[-1,-1,-1,0],[9E9,9E9,9E9,9E9,9E9,9E9]],work,z10,tPen \WObj:=WObj1;
MoveL [[125,1518.472,471.4],[0.5,-0.5,-0.5,0.5],[-1,-1,-1,0],[9E9,9E9,9E9,9E9,9E9,9E9]],work,z10,tPen \WObj:=WObj1;
MoveL [[125,1418.472,471.4],[0.5,-0.5,-0.5,0.5],[-1,-1,-1,0],[9E9,9E9,9E9,9E9,9E9,9E9]],work,z10,tPen \WObj:=WObj1;
MoveL [[125,1418.472,471.4],[0.5,-0.5,-0.5,0.5],[-1,-1,-1,0],[9E9,9E9,9E9,9E9,9E9,9E9]],work,z10,tPen \WObj:=WObj1;
MoveL [[125,2018.472,568.867],[0.5,-0.5,-0.5,0.5],[-1,-1,-1,0],[9E9,9E9,9E9,9E9,9E9,9E9]],work,z10,tPen \WObj:=WObj1;
MoveL [[125,2018.472,568.867],[0.5,-0.5,-0.5,0.5],[-1,-1,-1,0],[9E9,9E9,9E9,9E9,9E9,9E9]],work,z10,tPen \WObj:=WObj1;
MoveL [[125,1918.472,568.867],[0.5,-0.5,-0.5,0.5],[-1,-1,-1,0],[9E9,9E9,9E9,9E9,9E9,9E9]],work,z10,tPen \WObj:=WObj1;
MoveL [[125,1918.472,568.867],[0.5,-0.5,-0.5,0.5],[-1,-1,-1,0],[9E9,9E9,9E9,9E9,9E9,9E9]],work,z10,tPen \WObj:=WObj1;
MoveL [[125,1818.472,568.867],[0.5,-0.5,-0.5,0.5],[-1,-1,-1,0],[9E9,9E9,9E9,9E9,9E9,9E9]],work,z10,tPen \WObj:=WObj1;
MoveL [[125,1818.472,568.867],[0.5,-0.5,-0.5,0.5],[-1,-1,-1,0],[9E9,9E9,9E9,9E9,9E9,9E9]],work,z10,tPen \WObj:=WObj1;
MoveL [[125,1718.472,568.867],[0.5,-0.5,-0.5,0.5],[-1,-1,-1,0],[9E9,9E9,9E9,9E9,9E9,9E9]],work,z10,tPen \WObj:=WObj1;
MoveL [[125,1718.472,568.867],[0.5,-0.5,-0.5,0.5],[-1,-1,-1,0],[9E9,9E9,9E9,9E9,9E9,9E9]],work,z10,tPen \WObj:=WObj1;
MoveL [[125,1618.472,568.867],[0.5,-0.5,-0.5,0.5],[-1,-1,-1,0],[9E9,9E9,9E9,9E9,9E9,9E9]],work,z10,tPen \WObj:=WObj1;
MoveL [[125,1618.472,568.867],[0.5,-0.5,-0.5,0.5],[-1,-1,-1,0],[9E9,9E9,9E9,9E9,9E9,9E9]],work,z10,tPen \WObj:=WObj1;
MoveL [[125,1518.472,568.867],[0.5,-0.5,-0.5,0.5],[-1,-1,-1,0],[9E9,9E9,9E9,9E9,9E9,9E9]],work,z10,tPen \WObj:=WObj1;
MoveL [[125,1518.472,568.867],[0.5,-0.5,-0.5,0.5],[-1,-1,-1,0],[9E9,9E9,9E9,9E9,9E9,9E9]],work,z10,tPen \WObj:=WObj1;
MoveL [[125,1418.472,568.867],[0.5,-0.5,-0.5,0.5],[-1,-1,-1,0],[9E9,9E9,9E9,9E9,9E9,9E9]],work,z10,tPen \WObj:=WObj1;
MoveL [[125,1418.472,568.867],[0.5,-0.5,-0.5,0.5],[-1,-1,-1,0],[9E9,9E9,9E9,9E9,9E9,9E9]],work,z10,tPen \WObj:=WObj1;
MoveL [[125,2018.472,666.333],[0.5,-0.5,-0.5,0.5],[-1,-1,-1,0],[9E9,9E9,9E9,9E9,9E9,9E9]],work,z10,tPen \WObj:=WObj1;
MoveL [[125,2018.472,666.333],[0.5,-0.5,-0.5,0.5],[-1,-1,-1,0],[9E9,9E9,9E9,9E9,9E9,9E9]],work,z10,tPen \WObj:=WObj1;
MoveL [[125,1918.472,666.333],[0.5,-0.5,-0.5,0.5],[-1,-1,-1,0],[9E9,9E9,9E9,9E9,9E9,9E9]],work,z10,tPen \WObj:=WObj1;
MoveL [[125,1918.472,666.333],[0.5,-0.5,-0.5,0.5],[-1,-1,-1,0],[9E9,9E9,9E9,9E9,9E9,9E9]],work,z10,tPen \WObj:=WObj1;
MoveL [[125,1818.472,666.333],[0.5,-0.5,-0.5,0.5],[-1,-1,-1,0],[9E9,9E9,9E9,9E9,9E9,9E9]],work,z10,tPen \WObj:=WObj1;
MoveL [[125,1818.472,666.333],[0.5,-0.5,-0.5,0.5],[-1,-1,-1,0],[9E9,9E9,9E9,9E9,9E9,9E9]],work,z10,tPen \WObj:=WObj1;
MoveL [[125,1718.472,666.333],[0.5,-0.5,-0.5,0.5],[-1,-1,-1,0],[9E9,9E9,9E9,9E9,9E9,9E9]],work,z10,tPen \WObj:=WObj1;
MoveL [[125,1718.472,666.333],[0.5,-0.5,-0.5,0.5],[-1,-1,-1,0],[9E9,9E9,9E9,9E9,9E9,9E9]],work,z10,tPen \WObj:=WObj1;
MoveL [[125,1618.472,666.333],[0.5,-0.5,-0.5,0.5],[-1,-1,-1,0],[9E9,9E9,9E9,9E9,9E9,9E9]],work,z10,tPen \WObj:=WObj1;
MoveL [[125,1618.472,666.333],[0.5,-0.5,-0.5,0.5],[-1,-1,-1,0],[9E9,9E9,9E9,9E9,9E9,9E9]],work,z10,tPen \WObj:=WObj1;
MoveL [[125,1518.472,666.333],[0.5,-0.5,-0.5,0.5],[-1,-1,-1,0],[9E9,9E9,9E9,9E9,9E9,9E9]],work,z10,tPen \WObj:=WObj1;
MoveL [[125,1518.472,666.333],[0.5,-0.5,-0.5,0.5],[-1,-1,-1,0],[9E9,9E9,9E9,9E9,9E9,9E9]],work,z10,tPen \WObj:=WObj1;
MoveL [[125,1418.472,666.333],[0.5,-0.5,-0.5,0.5],[-1,-1,-1,0],[9E9,9E9,9E9,9E9,9E9,9E9]],work,z10,tPen \WObj:=WObj1;
MoveL [[125,1418.472,666.333],[0.5,-0.5,-0.5,0.5],[-1,-1,-1,0],[9E9,9E9,9E9,9E9,9E9,9E9]],work,z10,tPen \WObj:=WObj1;
MoveL [[125,2018.472,763.8],[0.5,-0.5,-0.5,0.5],[-1,-1,-1,0],[9E9,9E9,9E9,9E9,9E9,9E9]],work,z10,tPen \WObj:=WObj1;
MoveL [[125,2018.472,763.8],[0.5,-0.5,-0.5,0.5],[-1,-1,-1,0],[9E9,9E9,9E9,9E9,9E9,9E9]],work,z10,tPen \WObj:=WObj1;
MoveL [[125,1918.472,763.8],[0.5,-0.5,-0.5,0.5],[-1,-1,-1,0],[9E9,9E9,9E9,9E9,9E9,9E9]],work,z10,tPen \WObj:=WObj1;
MoveL [[125,1918.472,763.8],[0.5,-0.5,-0.5,0.5],[-1,-1,-1,0],[9E9,9E9,9E9,9E9,9E9,9E9]],work,z10,tPen \WObj:=WObj1;
MoveL [[125,1618.472,471.4],[0.5,-0.5,-0.5,0.5],[-1,-1,-1,0],[9E9,9E9,9E9,9E9,9E9,9E9]],work,z10,tPen \WObj:=WObj1;
MoveL [[125,1618.472,471.4],[0.5,-0.5,-0.5,0.5],[-1,-1,-1,0],[9E9,9E9,9E9,9E9,9E9,9E9]],work,z10,tPen \WObj:=WObj1;
MoveL [[125,1518.472,471.4],[0.5,-0.5,-0.5,0.5],[-1,-1,-1,0],[9E9,9E9,9E9,9E9,9E9,9E9]],work,z10,tPen \WObj:=WObj1;
MoveL [[125,1518.472,471.4],[0.5,-0.5,-0.5,0.5],[-1,-1,-1,0],[9E9,9E9,9E9,9E9,9E9,9E9]],work,z10,tPen \WObj:=WObj1;
MoveL [[125,1418.472,471.4],[0.5,-0.5,-0.5,0.5],[-1,-1,-1,0],[9E9,9E9,9E9,9E9,9E9,9E9]],work,z10,tPen \WObj:=WObj1;
MoveL [[125,1418.472,471.4],[0.5,-0.5,-0.5,0.5],[-1,-1,-1,0],[9E9,9E9,9E9,9E9,9E9,9E9]],work,z10,tPen \WObj:=WObj1;
MoveL [[125,2018.472,568.867],[0.5,-0.5,-0.5,0.5],[-1,-1,-1,0],[9E9,9E9,9E9,9E9,9E9,9E9]],work,z10,tPen \WObj:=WObj1;
MoveL [[125,2018.472,568.867],[0.5,-0.5,-0.5,0.5],[-1,-1,-1,0],[9E9,9E9,9E9,9E9,9E9,9E9]],work,z10,tPen \WObj:=WObj1;
MoveL [[125,1918.472,568.867],[0.5,-0.5,-0.5,0.5],[-1,-1,-1,0],[9E9,9E9,9E9,9E9,9E9,9E9]],work,z10,tPen \WObj:=WObj1;
MoveL [[125,1918.472,568.867],[0.5,-0.5,-0.5,0.5],[-1,-1,-1,0],[9E9,9E9,9E9,9E9,9E9,9E9]],work,z10,tPen \WObj:=WObj1;
MoveL [[125,1818.472,568.867],[0.5,-0.5,-0.5,0.5],[-1,-1,-1,0],[9E9,9E9,9E9,9E9,9E9,9E9]],work,z10,tPen \WObj:=WObj1;
MoveL [[125,1818.472,568.867],[0.5,-0.5,-0.5,0.5],[-1,-1,-1,0],[9E9,9E9,9E9,9E9,9E9,9E9]],work,z10,tPen \WObj:=WObj1;
MoveL [[125,1718.472,568.867],[0.5,-0.5,-0.5,0.5],[-1,-1,-1,0],[9E9,9E9,9E9,9E9,9E9,9E9]],work,z10,tPen \WObj:=WObj1;
MoveL [[125,1718.472,568.867],[0.5,-0.5,-0.5,0.5],[-1,-1,-1,0],[9E9,9E9,9E9,9E9,9E9,9E9]],work,z10,tPen \WObj:=WObj1;
MoveL [[125,1618.472,568.867],[0.5,-0.5,-0.5,0.5],[-1,-1,-1,0],[9E9,9E9,9E9,9E9,9E9,9E9]],work,z10,tPen \WObj:=WObj1;
MoveL [[125,1618.472,568.867],[0.5,-0.5,-0.5,0.5],[-1,-1,-1,0],[9E9,9E9,9E9,9E9,9E9,9E9]],work,z10,tPen \WObj:=WObj1;
MoveL [[125,1518.472,568.867],[0.5,-0.5,-0.5,0.5],[-1,-1,-1,0],[9E9,9E9,9E9,9E9,9E9,9E9]],work,z10,tPen \WObj:=WObj1;
MoveL [[125,1518.472,568.867],[0.5,-0.5,-0.5,0.5],[-1,-1,-1,0],[9E9,9E9,9E9,9E9,9E9,9E9]],work,z10,tPen \WObj:=WObj1;
MoveL [[125,1418.472,568.867],[0.5,-0.5,-0.5,0.5],[-1,-1,-1,0],[9E9,9E9,9E9,9E9,9E9,9E9]],work,z10,tPen \WObj:=WObj1;
MoveL [[125,1418.472,568.867],[0.5,-0.5,-0.5,0.5],[-1,-1,-1,0],[9E9,9E9,9E9,9E9,9E9,9E9]],work,z10,tPen \WObj:=WObj1;
MoveL [[125,2018.472,666.333],[0.5,-0.5,-0.5,0.5],[-1,-1,-1,0],[9E9,9E9,9E9,9E9,9E9,9E9]],work,z10,tPen \WObj:=WObj1;
MoveL [[125,2018.472,666.333],[0.5,-0.5,-0.5,0.5],[-1,-1,-1,0],[9E9,9E9,9E9,9E9,9E9,9E9]],work,z10,tPen \WObj:=WObj1;
MoveL [[125,1918.472,666.333],[0.5,-0.5,-0.5,0.5],[-1,-1,-1,0],[9E9,9E9,9E9,9E9,9E9,9E9]],work,z10,tPen \WObj:=WObj1;
MoveL [[125,1918.472,666.333],[0.5,-0.5,-0.5,0.5],[-1,-1,-1,0],[9E9,9E9,9E9,9E9,9E9,9E9]],work,z10,tPen \WObj:=WObj1;
MoveL [[125,1818.472,666.333],[0.5,-0.5,-0.5,0.5],[-1,-1,-1,0],[9E9,9E9,9E9,9E9,9E9,9E9]],work,z10,tPen \WObj:=WObj1;
MoveL [[125,1818.472,666.333],[0.5,-0.5,-0.5,0.5],[-1,-1,-1,0],[9E9,9E9,9E9,9E9,9E9,9E9]],work,z10,tPen \WObj:=WObj1;
MoveL [[125,1718.472,666.333],[0.5,-0.5,-0.5,0.5],[-1,-1,-1,0],[9E9,9E9,9E9,9E9,9E9,9E9]],work,z10,tPen \WObj:=WObj1;
MoveL [[125,1718.472,666.333],[0.5,-0.5,-0.5,0.5],[-1,-1,-1,0],[9E9,9E9,9E9,9E9,9E9,9E9]],work,z10,tPen \WObj:=WObj1;
MoveL [[125,1618.472,666.333],[0.5,-0.5,-0.5,0.5],[-1,-1,-1,0],[9E9,9E9,9E9,9E9,9E9,9E9]],work,z10,tPen \WObj:=WObj1;
MoveL [[125,1618.472,666.333],[0.5,-0.5,-0.5,0.5],[-1,-1,-1,0],[9E9,9E9,9E9,9E9,9E9,9E9]],work,z10,tPen \WObj:=WObj1;
MoveL [[125,1518.472,666.333],[0.5,-0.5,-0.5,0.5],[-1,-1,-1,0],[9E9,9E9,9E9,9E9,9E9,9E9]],work,z10,tPen \WObj:=WObj1;
MoveL [[125,1518.472,666.333],[0.5,-0.5,-0.5,0.5],[-1,-1,-1,0],[9E9,9E9,9E9,9E9,9E9,9E9]],work,z10,tPen \WObj:=WObj1;
MoveL [[125,1418.472,666.333],[0.5,-0.5,-0.5,0.5],[-1,-1,-1,0],[9E9,9E9,9E9,9E9,9E9,9E9]],work,z10,tPen \WObj:=WObj1;
MoveL [[125,1418.472,666.333],[0.5,-0.5,-0.5,0.5],[-1,-1,-1,0],[9E9,9E9,9E9,9E9,9E9,9E9]],work,z10,tPen \WObj:=WObj1;
MoveL [[125,2018.472,763.8],[0.5,-0.5,-0.5,0.5],[-1,-1,-1,0],[9E9,9E9,9E9,9E9,9E9,9E9]],work,z10,tPen \WObj:=WObj1;
MoveL [[125,2018.472,763.8],[0.5,-0.5,-0.5,0.5],[-1,-1,-1,0],[9E9,9E9,9E9,9E9,9E9,9E9]],work,z10,tPen \WObj:=WObj1;
MoveL [[125,1918.472,763.8],[0.5,-0.5,-0.5,0.5],[-1,-1,-1,0],[9E9,9E9,9E9,9E9,9E9,9E9]],work,z10,tPen \WObj:=WObj1;
MoveL [[125,1918.472,763.8],[0.5,-0.5,-0.5,0.5],[-1,-1,-1,0],[9E9,9E9,9E9,9E9,9E9,9E9]],work,z10,tPen \WObj:=WObj1;
MoveL [[125,1618.472,471.4],[0.5,-0.5,-0.5,0.5],[-1,-1,-1,0],[9E9,9E9,9E9,9E9,9E9,9E9]],work,z10,tPen \WObj:=WObj1;
MoveL [[125,1618.472,471.4],[0.5,-0.5,-0.5,0.5],[-1,-1,-1,0],[9E9,9E9,9E9,9E9,9E9,9E9]],work,z10,tPen \WObj:=WObj1;
MoveL [[125,1518.472,471.4],[0.5,-0.5,-0.5,0.5],[-1,-1,-1,0],[9E9,9E9,9E9,9E9,9E9,9E9]],work,z10,tPen \WObj:=WObj1;
MoveL [[125,1518.472,471.4],[0.5,-0.5,-0.5,0.5],[-1,-1,-1,0],[9E9,9E9,9E9,9E9,9E9,9E9]],work,z10,tPen \WObj:=WObj1;
MoveL [[125,1418.472,471.4],[0.5,-0.5,-0.5,0.5],[-1,-1,-1,0],[9E9,9E9,9E9,9E9,9E9,9E9]],work,z10,tPen \WObj:=WObj1;
MoveL [[125,1418.472,471.4],[0.5,-0.5,-0.5,0.5],[-1,-1,-1,0],[9E9,9E9,9E9,9E9,9E9,9E9]],work,z10,tPen \WObj:=WObj1;
MoveL [[125,2018.472,568.867],[0.5,-0.5,-0.5,0.5],[-1,-1,-1,0],[9E9,9E9,9E9,9E9,9E9,9E9]],work,z10,tPen \WObj:=WObj1;
MoveL [[125,2018.472,568.867],[0.5,-0.5,-0.5,0.5],[-1,-1,-1,0],[9E9,9E9,9E9,9E9,9E9,9E9]],work,z10,tPen \WObj:=WObj1;
MoveL [[125,1918.472,568.867],[0.5,-0.5,-0.5,0.5],[-1,-1,-1,0],[9E9,9E9,9E9,9E9,9E9,9E9]],work,z10,tPen \WObj:=WObj1;
MoveL [[125,1918.472,568.867],[0.5,-0.5,-0.5,0.5],[-1,-1,-1,0],[9E9,9E9,9E9,9E9,9E9,9E9]],work,z10,tPen \WObj:=WObj1;
MoveL [[125,1818.472,568.867],[0.5,-0.5,-0.5,0.5],[-1,-1,-1,0],[9E9,9E9,9E9,9E9,9E9,9E9]],work,z10,tPen \WObj:=WObj1;
MoveL [[125,1818.472,568.867],[0.5,-0.5,-0.5,0.5],[-1,-1,-1,0],[9E9,9E9,9E9,9E9,9E9,9E9]],work,z10,tPen \WObj:=WObj1;
MoveL [[125,1718.472,568.867],[0.5,-0.5,-0.5,0.5],[-1,-1,-1,0],[9E9,9E9,9E9,9E9,9E9,9E9]],work,z10,tPen \WObj:=WObj1;
MoveL [[125,1718.472,568.867],[0.5,-0.5,-0.5,0.5],[-1,-1,-1,0],[9E9,9E9,9E9,9E9,9E9,9E9]],work,z10,tPen \WObj:=WObj1;
MoveL [[125,1618.472,568.867],[0.5,-0.5,-0.5,0.5],[-1,-1,-1,0],[9E9,9E9,9E9,9E9,9E9,9E9]],work,z10,tPen \WObj:=WObj1;
MoveL [[125,1618.472,568.867],[0.5,-0.5,-0.5,0.5],[-1,-1,-1,0],[9E9,9E9,9E9,9E9,9E9,9E9]],work,z10,tPen \WObj:=WObj1;
MoveL [[125,1518.472,568.867],[0.5,-0.5,-0.5,0.5],[-1,-1,-1,0],[9E9,9E9,9E9,9E9,9E9,9E9]],work,z10,tPen \WObj:=WObj1;
MoveL [[125,1518.472,568.867],[0.5,-0.5,-0.5,0.5],[-1,-1,-1,0],[9E9,9E9,9E9,9E9,9E9,9E9]],work,z10,tPen \WObj:=WObj1;
MoveL [[125,1418.472,568.867],[0.5,-0.5,-0.5,0.5],[-1,-1,-1,0],[9E9,9E9,9E9,9E9,9E9,9E9]],work,z10,tPen \WObj:=WObj1;
MoveL [[125,1418.472,568.867],[0.5,-0.5,-0.5,0.5],[-1,-1,-1,0],[9E9,9E9,9E9,9E9,9E9,9E9]],work,z10,tPen \WObj:=WObj1;
MoveL [[125,2018.472,666.333],[0.5,-0.5,-0.5,0.5],[-1,-1,-1,0],[9E9,9E9,9E9,9E9,9E9,9E9]],work,z10,tPen \WObj:=WObj1;
MoveL [[125,2018.472,666.333],[0.5,-0.5,-0.5,0.5],[-1,-1,-1,0],[9E9,9E9,9E9,9E9,9E9,9E9]],work,z10,tPen \WObj:=WObj1;
MoveL [[125,1918.472,666.333],[0.5,-0.5,-0.5,0.5],[-1,-1,-1,0],[9E9,9E9,9E9,9E9,9E9,9E9]],work,z10,tPen \WObj:=WObj1;
MoveL [[125,1918.472,666.333],[0.5,-0.5,-0.5,0.5],[-1,-1,-1,0],[9E9,9E9,9E9,9E9,9E9,9E9]],work,z10,tPen \WObj:=WObj1;
MoveL [[125,1818.472,666.333],[0.5,-0.5,-0.5,0.5],[-1,-1,-1,0],[9E9,9E9,9E9,9E9,9E9,9E9]],work,z10,tPen \WObj:=WObj1;
MoveL [[125,1818.472,666.333],[0.5,-0.5,-0.5,0.5],[-1,-1,-1,0],[9E9,9E9,9E9,9E9,9E9,9E9]],work,z10,tPen \WObj:=WObj1;
MoveL [[125,1718.472,666.333],[0.5,-0.5,-0.5,0.5],[-1,-1,-1,0],[9E9,9E9,9E9,9E9,9E9,9E9]],work,z10,tPen \WObj:=WObj1;
MoveL [[125,1718.472,666.333],[0.5,-0.5,-0.5,0.5],[-1,-1,-1,0],[9E9,9E9,9E9,9E9,9E9,9E9]],work,z10,tPen \WObj:=WObj1;
MoveL [[125,1618.472,666.333],[0.5,-0.5,-0.5,0.5],[-1,-1,-1,0],[9E9,9E9,9E9,9E9,9E9,9E9]],work,z10,tPen \WObj:=WObj1;
MoveL [[125,1618.472,666.333],[0.5,-0.5,-0.5,0.5],[-1,-1,-1,0],[9E9,9E9,9E9,9E9,9E9,9E9]],work,z10,tPen \WObj:=WObj1;
MoveL [[125,1518.472,666.333],[0.5,-0.5,-0.5,0.5],[-1,-1,-1,0],[9E9,9E9,9E9,9E9,9E9,9E9]],work,z10,tPen \WObj:=WObj1;
MoveL [[125,1518.472,666.333],[0.5,-0.5,-0.5,0.5],[-1,-1,-1,0],[9E9,9E9,9E9,9E9,9E9,9E9]],work,z10,tPen \WObj:=WObj1;
MoveL [[125,1418.472,666.333],[0.5,-0.5,-0.5,0.5],[-1,-1,-1,0],[9E9,9E9,9E9,9E9,9E9,9E9]],work,z10,tPen \WObj:=WObj1;
MoveL [[125,1418.472,666.333],[0.5,-0.5,-0.5,0.5],[-1,-1,-1,0],[9E9,9E9,9E9,9E9,9E9,9E9]],work,z10,tPen \WObj:=WObj1;
MoveL [[125,2018.472,763.8],[0.5,-0.5,-0.5,0.5],[-1,-1,-1,0],[9E9,9E9,9E9,9E9,9E9,9E9]],work,z10,tPen \WObj:=WObj1;
MoveL [[125,2018.472,763.8],[0.5,-0.5,-0.5,0.5],[-1,-1,-1,0],[9E9,9E9,9E9,9E9,9E9,9E9]],work,z10,tPen \WObj:=WObj1;
MoveL [[125,1918.472,763.8],[0.5,-0.5,-0.5,0.5],[-1,-1,-1,0],[9E9,9E9,9E9,9E9,9E9,9E9]],work,z10,tPen \WObj:=WObj1;
MoveL [[125,1918.472,763.8],[0.5,-0.5,-0.5,0.5],[-1,-1,-1,0],[9E9,9E9,9E9,9E9,9E9,9E9]],work,z10,tPen \WObj:=WObj1;
ENDPROC
ENDMODULE
