;FLAVOR:Marlin
;TIME:8439
;Filament used: 5.06858m
;Layer height: 0.2
;MINX:136.093
;MINY:82.2
;MINZ:0.2
;MAXX:164.104
;MAXY:137.8
;MAXZ:52
;Generated with Cura_SteamEngine 4.3.0
M140 S55
M105
M190 S55
M104 S205
M105
M109 S205
M82 ;absolute extrusion mode
M201 X500.00 Y500.00 Z100.00 E5000.00 ;Setup machine max acceleration
M203 X500.00 Y500.00 Z10.00 E50.00 ;Setup machine max feedrate
M204 P500.00 R1000.00 T500.00 ;Setup Print/Retract/Travel acceleration
M205 X8.00 Y8.00 Z0.40 E5.00 ;Setup Jerk
M220 S100 ;Reset Feedrate
M221 S100 ;Reset Flowrate

G28 ;Home

G92 E0 ;Reset Extruder
G1 Z2.0 F3000 ;Move Z Axis up
G1 X10.1 Y20 Z0.28 F5000.0 ;Move to start position
G1 X10.1 Y200.0 Z0.28 F1500.0 E15 ;Draw the first line
G1 X10.4 Y200.0 Z0.28 F5000.0 ;Move to side a little
G1 X10.4 Y20 Z0.28 F1500.0 E30 ;Draw the second line
G92 E0 ;Reset Extruder
G1 Z2.0 F3000 ;Move Z Axis up

G92 E0
G92 E0
G1 F2700 E-5
;LAYER_COUNT:260
;LAYER:0
M107
G0 F6000 X137.489 Y97.064 Z0.2
;TYPE:SKIRT
G1 F2700 E0
G1 F1200 X137.972 Y96.439 E0.02627
G1 X138.378 Y96.002 E0.04611
G1 X138.495 Y95.885 E0.05161
G1 X139.081 Y95.355 E0.07789
G1 X139.717 Y94.888 E0.10414
G1 X140.397 Y94.487 E0.13039
G1 X141.115 Y94.157 E0.15668
G1 X141.862 Y93.902 E0.18293
G1 X142.631 Y93.723 E0.20919
G1 X143.356 Y93.631 E0.2335
G1 X143.573 Y93.044 E0.25431
G1 X143.921 Y92.335 E0.28058
G1 X144.339 Y91.664 E0.30687
G1 X144.822 Y91.04 E0.33312
G1 X145.227 Y90.603 E0.35294
G1 X145.345 Y90.485 E0.35849
G1 X145.505 Y90.34 E0.36567
G1 X145.505 Y90.117 E0.37309
G1 X145.545 Y89.328 E0.39936
G1 X145.664 Y88.548 E0.42561
G1 X145.862 Y87.783 E0.45189
G1 X146.136 Y87.043 E0.47813
G1 X146.484 Y86.334 E0.5044
G1 X146.902 Y85.663 E0.5307
G1 X147.385 Y85.039 E0.55694
G1 X147.79 Y84.602 E0.57676
G1 X147.907 Y84.485 E0.58226
G1 X148.493 Y83.955 E0.60854
G1 X149.129 Y83.488 E0.63478
G1 X149.809 Y83.087 E0.66104
G1 X150.527 Y82.757 E0.68732
G1 X151.274 Y82.502 E0.71358
G1 X152.043 Y82.323 E0.73984
G1 X152.827 Y82.223 E0.76612
G1 X153.422 Y82.2 E0.78593
G1 X156.187 Y82.2 E0.87789
G1 X156.976 Y82.24 E0.90417
G1 X157.756 Y82.359 E0.93041
G1 X158.521 Y82.557 E0.95669
G1 X159.261 Y82.831 E0.98294
G1 X159.97 Y83.179 E1.00921
G1 X160.641 Y83.597 E1.0355
G1 X161.265 Y84.08 E1.06175
G1 X161.702 Y84.485 E1.08157
G1 X161.819 Y84.602 E1.08707
G1 X162.349 Y85.188 E1.11335
G1 X162.816 Y85.824 E1.13959
G1 X163.217 Y86.504 E1.16585
G1 X163.547 Y87.222 E1.19213
G1 X163.802 Y87.969 E1.21838
G1 X163.981 Y88.738 E1.24464
G1 X164.081 Y89.522 E1.27093
G1 X164.104 Y90.117 E1.29074
G1 X164.104 Y129.883 E2.61336
G1 X164.064 Y130.672 E2.63963
G1 X163.945 Y131.452 E2.66588
G1 X163.747 Y132.217 E2.69216
G1 X163.473 Y132.957 E2.71841
G1 X163.125 Y133.666 E2.74467
G1 X162.707 Y134.337 E2.77097
G1 X162.224 Y134.961 E2.79721
G1 X161.819 Y135.398 E2.81703
G1 X161.702 Y135.515 E2.82253
G1 X161.116 Y136.045 E2.84881
G1 X160.48 Y136.512 E2.87506
G1 X159.8 Y136.913 E2.90131
G1 X159.082 Y137.243 E2.9276
G1 X158.335 Y137.498 E2.95385
G1 X157.566 Y137.677 E2.98011
G1 X156.782 Y137.777 E3.0064
G1 X156.187 Y137.8 E3.0262
G1 X153.422 Y137.8 E3.11817
G1 X152.633 Y137.76 E3.14444
G1 X151.853 Y137.641 E3.17068
G1 X151.088 Y137.443 E3.19697
G1 X150.348 Y137.169 E3.22321
G1 X149.639 Y136.821 E3.24948
G1 X148.968 Y136.403 E3.27578
G1 X148.344 Y135.92 E3.30202
G1 X147.907 Y135.515 E3.32184
G1 X147.79 Y135.398 E3.32734
G1 X147.26 Y134.812 E3.35362
G1 X146.793 Y134.176 E3.37986
G1 X146.392 Y133.496 E3.40612
G1 X146.062 Y132.778 E3.4324
G1 X145.807 Y132.031 E3.45866
G1 X145.628 Y131.262 E3.48492
G1 X145.528 Y130.478 E3.5112
G1 X145.505 Y129.883 E3.53101
G1 X145.505 Y129.663 E3.53833
G1 X145.345 Y129.515 E3.54557
G1 X145.227 Y129.397 E3.55113
G1 X144.697 Y128.811 E3.5774
G1 X144.23 Y128.175 E3.60365
G1 X143.829 Y127.495 E3.62991
G1 X143.499 Y126.777 E3.65619
G1 X143.359 Y126.367 E3.6706
G1 X143.222 Y126.36 E3.67516
G1 X142.442 Y126.241 E3.7014
G1 X141.677 Y126.043 E3.72769
G1 X140.937 Y125.769 E3.75393
G1 X140.228 Y125.421 E3.7802
G1 X139.557 Y125.003 E3.80649
G1 X138.933 Y124.52 E3.83274
G1 X138.496 Y124.115 E3.85256
G1 X138.379 Y123.998 E3.85806
G1 X137.849 Y123.412 E3.88434
G1 X137.382 Y122.776 E3.91058
G1 X136.981 Y122.096 E3.93684
G1 X136.651 Y121.378 E3.96312
G1 X136.396 Y120.631 E3.98937
G1 X136.217 Y119.862 E4.01563
G1 X136.117 Y119.078 E4.04192
G1 X136.094 Y118.483 E4.06173
G1 X136.093 Y101.517 E4.62602
G1 X136.133 Y100.729 E4.65226
G1 X136.252 Y99.948 E4.67854
G1 X136.45 Y99.184 E4.70479
G1 X136.724 Y98.443 E4.73106
G1 X137.072 Y97.734 E4.75733
G1 X137.489 Y97.064 E4.78358
G0 F6000 X137.887 Y97.194
G1 F1200 X138.368 Y96.594 E4.80916
G1 X138.66 Y96.284 E4.82332
G1 X138.777 Y96.167 E4.82883
G1 X139.349 Y95.653 E4.8544
G1 X139.971 Y95.2 E4.88
G1 X140.636 Y94.814 E4.90557
G1 X141.338 Y94.499 E4.93116
G1 X142.069 Y94.259 E4.95675
G1 X142.82 Y94.096 E4.98231
G1 X143.585 Y94.012 E5.00791
G1 X143.656 Y94.01 E5.01027
G1 X143.699 Y93.847 E5.01588
G1 X143.973 Y93.128 E5.04147
G1 X144.32 Y92.442 E5.06704
G1 X144.736 Y91.795 E5.09262
G1 X145.217 Y91.195 E5.1182
G1 X145.509 Y90.885 E5.13236
G1 X145.627 Y90.767 E5.13791
G1 X145.905 Y90.517 E5.15035
G1 X145.905 Y90.117 E5.16365
G1 X145.945 Y89.349 E5.18923
G1 X146.064 Y88.589 E5.21482
G1 X146.262 Y87.846 E5.24039
G1 X146.536 Y87.127 E5.26598
G1 X146.883 Y86.441 E5.29155
G1 X147.299 Y85.794 E5.31714
G1 X147.78 Y85.194 E5.34271
G1 X148.072 Y84.884 E5.35688
G1 X148.189 Y84.767 E5.36238
G1 X148.761 Y84.253 E5.38796
G1 X149.383 Y83.8 E5.41355
G1 X150.048 Y83.414 E5.43913
G1 X150.75 Y83.099 E5.46472
G1 X151.481 Y82.859 E5.49031
G1 X152.232 Y82.696 E5.51587
G1 X152.997 Y82.612 E5.54146
G1 X153.422 Y82.6 E5.55561
G1 X156.187 Y82.6 E5.64757
G1 X156.955 Y82.64 E5.67315
G1 X157.715 Y82.759 E5.69873
G1 X158.458 Y82.957 E5.72431
G1 X159.177 Y83.231 E5.7499
G1 X159.863 Y83.578 E5.77547
G1 X160.51 Y83.994 E5.80105
G1 X161.11 Y84.475 E5.82663
G1 X161.42 Y84.767 E5.84079
G1 X161.537 Y84.884 E5.8463
G1 X162.051 Y85.456 E5.87188
G1 X162.504 Y86.078 E5.89747
G1 X162.89 Y86.743 E5.92304
G1 X163.205 Y87.445 E5.94863
G1 X163.445 Y88.176 E5.97422
G1 X163.608 Y88.927 E5.99978
G1 X163.692 Y89.692 E6.02538
G1 X163.704 Y90.117 E6.03952
G1 X163.704 Y129.883 E7.36214
G1 X163.664 Y130.651 E7.38772
G1 X163.545 Y131.411 E7.41331
G1 X163.347 Y132.154 E7.43888
G1 X163.073 Y132.873 E7.46447
G1 X162.726 Y133.559 E7.49004
G1 X162.31 Y134.206 E7.51563
G1 X161.829 Y134.806 E7.5412
G1 X161.537 Y135.116 E7.55537
G1 X161.42 Y135.233 E7.56087
G1 X160.848 Y135.747 E7.58645
G1 X160.226 Y136.2 E7.61204
G1 X159.561 Y136.586 E7.63762
G1 X158.859 Y136.901 E7.66321
G1 X158.128 Y137.141 E7.6888
G1 X157.377 Y137.304 E7.71436
G1 X156.612 Y137.388 E7.73995
G1 X156.187 Y137.4 E7.7541
G1 X153.422 Y137.4 E7.84606
G1 X152.654 Y137.36 E7.87164
G1 X151.894 Y137.241 E7.89722
G1 X151.151 Y137.043 E7.9228
G1 X150.432 Y136.769 E7.94839
G1 X149.746 Y136.422 E7.97396
G1 X149.099 Y136.006 E7.99954
G1 X148.499 Y135.525 E8.02512
G1 X148.189 Y135.233 E8.03929
G1 X148.072 Y135.116 E8.04479
G1 X147.558 Y134.544 E8.07037
G1 X147.105 Y133.922 E8.09596
G1 X146.719 Y133.257 E8.12153
G1 X146.404 Y132.555 E8.14712
G1 X146.164 Y131.824 E8.17271
G1 X146.001 Y131.073 E8.19827
G1 X145.917 Y130.308 E8.22387
G1 X145.905 Y129.883 E8.23801
G1 X145.905 Y129.495 E8.25092
G1 X145.627 Y129.233 E8.26362
G1 X145.509 Y129.115 E8.26917
G1 X144.995 Y128.543 E8.29475
G1 X144.542 Y127.921 E8.32034
G1 X144.156 Y127.256 E8.34592
G1 X143.841 Y126.554 E8.37151
G1 X143.653 Y125.981 E8.39157
G1 X143.243 Y125.96 E8.40522
G1 X142.483 Y125.841 E8.43081
G1 X141.74 Y125.643 E8.45638
G1 X141.021 Y125.369 E8.48197
G1 X140.335 Y125.022 E8.50754
G1 X139.688 Y124.606 E8.53313
G1 X139.088 Y124.125 E8.5587
G1 X138.778 Y123.833 E8.57287
G1 X138.661 Y123.716 E8.57837
G1 X138.147 Y123.144 E8.60395
G1 X137.694 Y122.522 E8.62954
G1 X137.308 Y121.857 E8.65512
G1 X136.993 Y121.155 E8.68071
G1 X136.753 Y120.424 E8.7063
G1 X136.59 Y119.673 E8.73186
G1 X136.506 Y118.908 E8.75745
G1 X136.494 Y118.483 E8.7716
G1 X136.493 Y101.517 E9.33589
G1 X136.533 Y100.749 E9.36146
G1 X136.652 Y99.989 E9.38705
G1 X136.85 Y99.246 E9.41263
G1 X137.124 Y98.527 E9.43822
G1 X137.471 Y97.841 E9.46379
G1 X137.887 Y97.194 E9.48937
G0 F6000 X138.284 Y97.329
G1 F1200 X138.943 Y96.567 E9.52288
G1 X139.06 Y96.45 E9.52838
G1 X139.617 Y95.95 E9.55328
G1 X140.223 Y95.513 E9.57813
G1 X140.873 Y95.142 E9.60302
G1 X141.559 Y94.843 E9.62791
G1 X142.273 Y94.619 E9.6528
G1 X143.006 Y94.472 E9.67766
G1 X143.964 Y94.403 E9.70961
G1 X144.099 Y93.911 E9.72658
G1 X144.372 Y93.215 E9.75144
G1 X144.719 Y92.552 E9.77633
G1 X145.134 Y91.929 E9.80123
G1 X145.792 Y91.168 E9.83469
G1 X145.91 Y91.05 E9.84024
G1 X146.305 Y90.695 E9.8579
G1 X146.305 Y90.117 E9.87713
G1 X146.345 Y89.37 E9.90201
G1 X146.464 Y88.632 E9.92687
G1 X146.662 Y87.91 E9.95177
G1 X146.935 Y87.214 E9.97664
G1 X147.282 Y86.551 E10.00153
G1 X147.697 Y85.928 E10.02643
G1 X148.355 Y85.167 E10.05989
G1 X148.472 Y85.05 E10.06539
G1 X149.029 Y84.55 E10.09028
G1 X149.635 Y84.113 E10.11513
G1 X150.285 Y83.742 E10.14003
G1 X150.971 Y83.443 E10.16492
G1 X151.685 Y83.219 E10.18981
G1 X152.418 Y83.072 E10.21467
G1 X153.422 Y83 E10.24815
G1 X156.187 Y83 E10.34011
G1 X156.934 Y83.04 E10.36499
G1 X157.672 Y83.159 E10.38986
G1 X158.394 Y83.357 E10.41476
G1 X159.09 Y83.63 E10.43962
G1 X159.753 Y83.977 E10.46451
G1 X160.376 Y84.392 E10.48941
G1 X161.137 Y85.05 E10.52287
G1 X161.254 Y85.167 E10.52837
G1 X161.754 Y85.724 E10.55327
G1 X162.191 Y86.33 E10.57812
G1 X162.562 Y86.98 E10.60301
G1 X162.861 Y87.666 E10.6279
G1 X163.085 Y88.38 E10.65279
G1 X163.232 Y89.113 E10.67766
G1 X163.304 Y90.117 E10.71113
G1 X163.304 Y129.883 E12.03376
G1 X163.264 Y130.63 E12.05864
G1 X163.145 Y131.368 E12.0835
G1 X162.947 Y132.09 E12.1084
G1 X162.674 Y132.786 E12.13327
G1 X162.327 Y133.449 E12.15816
G1 X161.912 Y134.072 E12.18305
G1 X161.254 Y134.833 E12.21651
G1 X161.137 Y134.95 E12.22202
G1 X160.58 Y135.45 E12.24691
G1 X159.974 Y135.887 E12.27176
G1 X159.324 Y136.258 E12.29666
G1 X158.638 Y136.557 E12.32155
G1 X157.924 Y136.781 E12.34643
G1 X157.191 Y136.928 E12.3713
G1 X156.187 Y137 E12.40478
G1 X153.422 Y137 E12.49674
G1 X152.675 Y136.96 E12.52162
G1 X151.937 Y136.841 E12.54649
G1 X151.215 Y136.643 E12.57139
G1 X150.519 Y136.37 E12.59625
G1 X149.856 Y136.023 E12.62114
G1 X149.233 Y135.608 E12.64604
G1 X148.472 Y134.95 E12.6795
G1 X148.355 Y134.833 E12.685
G1 X147.855 Y134.276 E12.7099
G1 X147.418 Y133.67 E12.73475
G1 X147.047 Y133.02 E12.75964
G1 X146.748 Y132.334 E12.78453
G1 X146.524 Y131.62 E12.80942
G1 X146.377 Y130.887 E12.83428
G1 X146.305 Y129.883 E12.86776
G1 X146.305 Y129.292 E12.88742
G1 X145.91 Y128.95 E12.9048
G1 X145.792 Y128.832 E12.91035
G1 X145.292 Y128.275 E12.93524
G1 X144.855 Y127.669 E12.96009
G1 X144.484 Y127.019 E12.98499
G1 X144.185 Y126.333 E13.00988
G1 X143.961 Y125.619 E13.03476
G1 X143.957 Y125.597 E13.03551
G1 X143.264 Y125.56 E13.05859
G1 X142.526 Y125.441 E13.08345
G1 X141.804 Y125.243 E13.10835
G1 X141.108 Y124.97 E13.13322
G1 X140.445 Y124.623 E13.15811
G1 X139.822 Y124.208 E13.18301
G1 X139.061 Y123.55 E13.21647
G1 X138.944 Y123.433 E13.22197
G1 X138.444 Y122.876 E13.24687
G1 X138.007 Y122.27 E13.27172
G1 X137.636 Y121.62 E13.29661
G1 X137.337 Y120.934 E13.3215
G1 X137.113 Y120.22 E13.34639
G1 X136.966 Y119.487 E13.37125
G1 X136.894 Y118.483 E13.40473
G1 X136.893 Y101.517 E13.96902
G1 X136.933 Y100.77 E13.9939
G1 X137.052 Y100.032 E14.01877
G1 X137.25 Y99.31 E14.04367
G1 X137.523 Y98.614 E14.06853
G1 X137.869 Y97.951 E14.09341
G1 X138.284 Y97.329 E14.11828
G0 F6000 X138.681 Y97.467
G1 F1200 X139.226 Y96.85 E14.14566
G1 X139.343 Y96.733 E14.15116
G1 X139.884 Y96.249 E14.1753
G1 X140.475 Y95.826 E14.19948
G1 X141.109 Y95.472 E14.22363
G1 X141.778 Y95.189 E14.24779
G1 X142.474 Y94.981 E14.27195
G1 X143.189 Y94.851 E14.29612
G1 X144.01 Y94.8 E14.32348
G1 X144.28 Y94.8 E14.33246
G1 X144.301 Y94.676 E14.33664
G1 X144.499 Y93.977 E14.36081
G1 X144.772 Y93.304 E14.38496
G1 X145.117 Y92.665 E14.40911
G1 X145.531 Y92.068 E14.43328
G1 X146.075 Y91.451 E14.46064
G1 X146.193 Y91.333 E14.46619
G1 X146.705 Y90.875 E14.48904
G1 X146.705 Y90.117 E14.51425
G1 X146.745 Y89.392 E14.5384
G1 X146.864 Y88.675 E14.56257
G1 X147.062 Y87.976 E14.58673
G1 X147.335 Y87.303 E14.61089
G1 X147.68 Y86.664 E14.63504
G1 X148.094 Y86.067 E14.65921
G1 X148.638 Y85.45 E14.68657
G1 X148.755 Y85.333 E14.69207
G1 X149.296 Y84.849 E14.71621
G1 X149.887 Y84.426 E14.74039
G1 X150.521 Y84.072 E14.76454
G1 X151.19 Y83.789 E14.7887
G1 X151.886 Y83.581 E14.81286
G1 X152.601 Y83.451 E14.83703
G1 X153.422 Y83.4 E14.86439
G1 X156.187 Y83.4 E14.95635
G1 X156.912 Y83.44 E14.9805
G1 X157.629 Y83.559 E15.00468
G1 X158.328 Y83.757 E15.02884
G1 X159.001 Y84.03 E15.05299
G1 X159.64 Y84.375 E15.07715
G1 X160.237 Y84.789 E15.10131
G1 X160.854 Y85.333 E15.12867
G1 X160.971 Y85.45 E15.13417
G1 X161.455 Y85.991 E15.15832
G1 X161.878 Y86.582 E15.18249
G1 X162.232 Y87.216 E15.20664
G1 X162.515 Y87.885 E15.2308
G1 X162.723 Y88.581 E15.25496
G1 X162.853 Y89.296 E15.27913
G1 X162.904 Y90.117 E15.30649
G1 X162.904 Y129.883 E16.62911
G1 X162.864 Y130.608 E16.65326
G1 X162.745 Y131.325 E16.67744
G1 X162.547 Y132.024 E16.7016
G1 X162.274 Y132.697 E16.72576
G1 X161.929 Y133.336 E16.74991
G1 X161.515 Y133.933 E16.77407
G1 X160.971 Y134.55 E16.80143
G1 X160.854 Y134.667 E16.80694
G1 X160.313 Y135.151 E16.83108
G1 X159.722 Y135.574 E16.85525
G1 X159.088 Y135.928 E16.8794
G1 X158.419 Y136.211 E16.90356
G1 X157.723 Y136.419 E16.92773
G1 X157.008 Y136.549 E16.9519
G1 X156.187 Y136.6 E16.97926
G1 X153.422 Y136.6 E17.07122
G1 X152.697 Y136.56 E17.09537
G1 X151.98 Y136.441 E17.11954
G1 X151.281 Y136.243 E17.14371
G1 X150.608 Y135.97 E17.16786
G1 X149.969 Y135.625 E17.19202
G1 X149.372 Y135.211 E17.21618
G1 X148.755 Y134.667 E17.24354
G1 X148.638 Y134.55 E17.24904
G1 X148.154 Y134.009 E17.27319
G1 X147.731 Y133.418 E17.29736
G1 X147.377 Y132.784 E17.32151
G1 X147.094 Y132.115 E17.34567
G1 X146.886 Y131.419 E17.36983
G1 X146.756 Y130.704 E17.394
G1 X146.705 Y129.883 E17.42136
G1 X146.705 Y129.118 E17.4468
G1 X146.193 Y128.667 E17.4695
G1 X146.075 Y128.549 E17.47505
G1 X145.591 Y128.008 E17.49919
G1 X145.168 Y127.417 E17.52336
G1 X144.814 Y126.783 E17.54752
G1 X144.531 Y126.114 E17.57168
G1 X144.323 Y125.418 E17.59584
G1 X144.283 Y125.2 E17.60321
G1 X144.011 Y125.2 E17.61226
G1 X143.286 Y125.16 E17.63641
G1 X142.569 Y125.041 E17.66058
G1 X141.87 Y124.843 E17.68474
G1 X141.197 Y124.57 E17.7089
G1 X140.558 Y124.225 E17.73305
G1 X139.961 Y123.811 E17.75721
G1 X139.344 Y123.267 E17.78457
G1 X139.227 Y123.15 E17.79008
G1 X138.743 Y122.609 E17.81422
G1 X138.32 Y122.018 E17.83839
G1 X137.966 Y121.384 E17.86254
G1 X137.683 Y120.715 E17.8867
G1 X137.475 Y120.019 E17.91087
G1 X137.345 Y119.304 E17.93504
G1 X137.294 Y118.483 E17.9624
G1 X137.293 Y101.517 E18.52669
G1 X137.333 Y100.792 E18.55084
G1 X137.452 Y100.076 E18.57498
G1 X137.65 Y99.377 E18.59914
G1 X137.923 Y98.704 E18.6233
G1 X138.268 Y98.064 E18.64748
G1 X138.681 Y97.467 E18.67162
G0 F6000 X138.666 Y98.182
G1 F1200 X139.078 Y97.611 E18.69504
G1 X139.509 Y97.133 E18.71645
G1 X139.626 Y97.016 E18.72195
G1 X140.151 Y96.547 E18.74537
G1 X140.726 Y96.141 E18.76878
G1 X141.344 Y95.803 E18.79221
G1 X141.995 Y95.536 E18.81561
G1 X142.673 Y95.346 E18.83903
G1 X143.368 Y95.233 E18.86245
G1 X144.01 Y95.2 E18.88383
G1 X144.619 Y95.2 E18.90409
G1 X144.701 Y94.721 E18.92025
G1 X144.899 Y94.046 E18.94365
G1 X145.171 Y93.397 E18.96705
G1 X145.516 Y92.783 E18.99048
G1 X145.927 Y92.212 E19.01387
G1 X146.358 Y91.734 E19.03528
G1 X146.476 Y91.616 E19.04083
G1 X147.001 Y91.147 E19.06425
G1 X147.105 Y91.074 E19.06847
G1 X147.105 Y90.117 E19.1003
G1 X147.145 Y89.414 E19.12372
G1 X147.264 Y88.72 E19.14714
G1 X147.462 Y88.045 E19.17054
G1 X147.734 Y87.396 E19.19394
G1 X148.079 Y86.782 E19.21737
G1 X148.49 Y86.211 E19.24077
G1 X148.921 Y85.733 E19.26217
G1 X149.038 Y85.616 E19.26768
G1 X149.563 Y85.147 E19.29109
G1 X150.138 Y84.741 E19.3145
G1 X150.756 Y84.403 E19.33793
G1 X151.407 Y84.136 E19.36133
G1 X152.085 Y83.946 E19.38475
