;FLAVOR:Marlin
;TIME:17676
;Filament used: 11.9506m
;Layer height: 0.2
;MINX:68.726
;MINY:51.703
;MINZ:0.2
;MAXX:192.159
;MAXY:151
;MAXZ:18
;Generated with Cura_SteamEngine 4.3.0
M140 S50
M105
M190 S50
M104 S200
M105
M109 S200
M82 ;absolute extrusion mode
M201 X500.00 Y500.00 Z100.00 E5000.00 ;Setup machine max acceleration
M203 X500.00 Y500.00 Z10.00 E50.00 ;Setup machine max feedrate
M204 P500.00 R1000.00 T500.00 ;Setup Print/Retract/Travel acceleration
M205 X8.00 Y8.00 Z0.40 E5.00 ;Setup Jerk
M220 S100 ;Reset Feedrate
M221 S100 ;Reset Flowrate

G28 ;Home

G92 E0 ;Reset Extruder
G1 Z2.0 F3000 ;Move Z Axis up
G1 X10.1 Y20 Z0.28 F5000.0 ;Move to start position
G1 X10.1 Y200.0 Z0.28 F1500.0 E15 ;Draw the first line
G1 X10.4 Y200.0 Z0.28 F5000.0 ;Move to side a little
G1 X10.4 Y20 Z0.28 F1500.0 E30 ;Draw the second line
G92 E0 ;Reset Extruder
G1 Z2.0 F3000 ;Move Z Axis up

G92 E0
G92 E0
G1 F2700 E-5
;LAYER_COUNT:90
;LAYER:0
M107
G0 F6000 X71.443 Y55.655 Z0.2
;TYPE:SKIRT
G1 F2700 E0
G1 F1200 X72.076 Y54.963 E0.03119
G1 X72.765 Y54.327 E0.06238
G1 X73.506 Y53.752 E0.09358
G1 X74.293 Y53.242 E0.12477
G1 X75.121 Y52.801 E0.15597
G1 X75.984 Y52.433 E0.18717
G1 X76.874 Y52.139 E0.21835
G1 X77.787 Y51.922 E0.24956
G1 X78.714 Y51.783 E0.28074
G1 X79.649 Y51.724 E0.3119
G1 X80.58 Y51.705 E0.34287
G1 X80.83 Y51.703 E0.35118
G1 X109.212 Y51.77 E1.29518
G1 X109.368 Y51.772 E1.30036
G1 X110.032 Y51.783 E1.32245
G1 X110.968 Y51.838 E1.35364
G1 X111.897 Y51.973 E1.38486
G1 X112.81 Y52.187 E1.41605
G1 X113.701 Y52.477 E1.44722
G1 X114.565 Y52.843 E1.47842
G1 X115.395 Y53.281 E1.50964
G1 X115.86 Y53.568 E1.52781
G1 X116.956 Y54.283 E1.57134
G1 X119.163 Y55.692 E1.65843
G1 X121.324 Y56.985 E1.74218
G1 X123.518 Y58.218 E1.82589
G1 X125.74 Y59.384 E1.90935
G1 X128.013 Y60.495 E1.9935
G1 X130.308 Y61.538 E2.07735
G1 X132.62 Y62.511 E2.16078
G1 X134.983 Y63.429 E2.24509
G1 X137.346 Y64.268 E2.32849
G1 X139.734 Y65.042 E2.41199
G1 X142.13 Y65.744 E2.49503
G1 X144.575 Y66.386 E2.5791
G1 X147.052 Y66.963 E2.6637
G1 X149.537 Y67.468 E2.74804
G1 X151.955 Y67.888 E2.82966
G1 X154.472 Y68.252 E2.91425
G1 X156.994 Y68.544 E2.99869
G1 X159.463 Y68.76 E3.08113
G1 X161.998 Y68.91 E3.16559
G1 X164.527 Y68.987 E3.24974
G1 X166.071 Y69 E3.3011
G1 X180.452 Y69 E3.77941
G1 X180.61 Y69.001 E3.78467
G1 X181.308 Y69.011 E3.80788
G1 X182.244 Y69.065 E3.83907
G1 X183.172 Y69.197 E3.87024
G1 X184.086 Y69.409 E3.90145
G1 X184.978 Y69.698 E3.93264
G1 X185.843 Y70.061 E3.96384
G1 X186.673 Y70.497 E3.99502
G1 X187.464 Y71.002 E4.02623
G1 X188.208 Y71.573 E4.05743
G1 X188.901 Y72.205 E4.08862
G1 X189.538 Y72.893 E4.11981
G1 X190.113 Y73.634 E4.151
G1 X190.624 Y74.42 E4.18218
G1 X191.066 Y75.248 E4.2134
G1 X191.435 Y76.11 E4.24459
G1 X191.73 Y77 E4.27577
G1 X191.948 Y77.912 E4.30696
G1 X192.088 Y78.84 E4.33818
G1 X192.146 Y79.701 E4.36688
G1 X192.155 Y80.021 E4.37752
G1 X192.159 Y80.33 E4.3878
G1 X192.159 Y139.264 E6.34796
G1 X192.158 Y139.4 E6.35248
G1 X192.149 Y140.127 E6.37666
G1 X192.098 Y141.064 E6.40787
G1 X191.966 Y141.992 E6.43905
G1 X191.757 Y142.906 E6.47023
G1 X191.47 Y143.799 E6.50143
G1 X191.108 Y144.665 E6.53265
G1 X190.674 Y145.496 E6.56383
G1 X190.17 Y146.287 E6.59503
G1 X189.601 Y147.032 E6.6262
G1 X188.97 Y147.727 E6.65743
G1 X188.283 Y148.365 E6.68861
G1 X187.544 Y148.942 E6.71979
G1 X186.758 Y149.454 E6.75099
G1 X185.932 Y149.897 E6.78217
G1 X185.07 Y150.269 E6.81339
G1 X184.181 Y150.565 E6.84456
G1 X183.269 Y150.785 E6.87576
G1 X182.342 Y150.926 E6.90695
G1 X181.458 Y150.987 E6.93642
G1 X181.137 Y150.996 E6.9471
G1 X180.829 Y151 E6.95735
G1 X151.866 Y151 E7.92066
G1 X151.708 Y150.999 E7.92591
G1 X151.01 Y150.989 E7.94913
G1 X150.074 Y150.935 E7.98032
G1 X149.146 Y150.803 E8.01149
G1 X148.232 Y150.591 E8.0427
G1 X147.34 Y150.302 E8.07388
G1 X146.475 Y149.939 E8.10509
G1 X145.645 Y149.503 E8.13627
G1 X145.167 Y149.209 E8.15493
G1 X144.147 Y148.545 E8.19541
G1 X144.005 Y148.451 E8.20108
G1 X143.669 Y148.225 E8.21455
G1 X141.555 Y146.886 E8.29778
G1 X139.371 Y145.589 E8.38226
G1 X137.182 Y144.371 E8.46558
G1 X134.941 Y143.205 E8.5496
G1 X132.676 Y142.107 E8.63332
G1 X130.379 Y141.073 E8.7171
G1 X128.073 Y140.112 E8.80019
G1 X125.695 Y139.198 E8.88493
G1 X123.334 Y138.37 E8.96814
G1 X120.922 Y137.598 E9.05237
G1 X118.538 Y136.908 E9.13492
G1 X116.096 Y136.276 E9.21882
G1 X113.626 Y135.71 E9.3031
G1 X111.14 Y135.214 E9.38741
G1 X108.686 Y134.798 E9.4702
G1 X106.192 Y134.446 E9.55397
G1 X103.662 Y134.162 E9.63865
G1 X101.18 Y133.953 E9.72149
G1 X98.691 Y133.816 E9.8044
G1 X95.125 Y133.738 E9.92304
G1 X80.546 Y133.703 E10.40794
G1 X80.414 Y133.702 E10.41233
G1 X79.576 Y133.69 E10.4402
G1 X78.64 Y133.636 E10.47139
G1 X77.712 Y133.504 E10.50256
G1 X76.798 Y133.292 E10.53377
G1 X75.906 Y133.003 E10.56495
G1 X75.041 Y132.64 E10.59616
G1 X74.211 Y132.204 E10.62734
G1 X73.421 Y131.699 E10.65852
G1 X72.676 Y131.128 E10.68974
G1 X71.983 Y130.496 E10.72094
G1 X71.346 Y129.808 E10.75212
G1 X70.771 Y129.067 E10.78332
G1 X70.26 Y128.281 E10.8145
G1 X69.818 Y127.453 E10.84572
G1 X69.449 Y126.591 E10.8769
G1 X69.154 Y125.701 E10.90809
G1 X68.936 Y124.789 E10.93928
G1 X68.796 Y123.861 E10.97049
G1 X68.738 Y122.983 E10.99976
G1 X68.73 Y122.682 E11.00977
G1 X68.726 Y122.365 E11.02032
G1 X68.852 Y67.899 E12.83187
G1 X68.852 Y67.897 E12.83194
G1 X68.863 Y63.345 E12.98334
G1 X68.864 Y63.203 E12.98806
G1 X68.874 Y62.553 E13.00968
G1 X68.929 Y61.616 E13.0409
G1 X69.063 Y60.688 E13.07208
G1 X69.275 Y59.775 E13.10326
G1 X69.565 Y58.883 E13.13446
G1 X69.929 Y58.019 E13.16564
G1 X70.366 Y57.189 E13.19684
G1 X70.872 Y56.399 E13.22804
G1 X71.443 Y55.655 E13.25923
G0 F6000 X71.837 Y55.809
G1 F1200 X72.468 Y55.138 E13.28987
G1 X73.154 Y54.524 E13.32049
G1 X73.89 Y53.972 E13.35109
G1 X74.672 Y53.486 E13.38171
G1 X75.493 Y53.069 E13.41234
G1 X76.347 Y52.726 E13.44295
G1 X77.228 Y52.457 E13.47359
G1 X78.129 Y52.267 E13.50421
G1 X79.042 Y52.155 E13.53481
G1 X79.657 Y52.124 E13.55529
G1 X80.588 Y52.105 E13.58626
G1 X80.829 Y52.103 E13.59428
G1 X109.211 Y52.17 E14.53827
G1 X109.362 Y52.171 E14.54329
G1 X110.026 Y52.182 E14.56538
G1 X110.945 Y52.238 E14.596
G1 X111.855 Y52.372 E14.62659
G1 X112.751 Y52.586 E14.65723
G1 X113.625 Y52.876 E14.68786
G1 X114.47 Y53.241 E14.71848
G1 X115.642 Y53.903 E14.76324
G1 X116.744 Y54.622 E14.80701
G1 X118.949 Y56.029 E14.89401
G1 X121.144 Y57.343 E14.97909
G1 X123.316 Y58.563 E15.06195
G1 X125.572 Y59.747 E15.14669
G1 X127.835 Y60.853 E15.23047
G1 X130.123 Y61.894 E15.31407
G1 X132.469 Y62.881 E15.39873
G1 X134.86 Y63.81 E15.48404
G1 X137.205 Y64.642 E15.5668
G1 X139.614 Y65.423 E15.65103
G1 X142.044 Y66.135 E15.73525
G1 X144.496 Y66.779 E15.81957
G1 X146.946 Y67.349 E15.90323
G1 X149.461 Y67.861 E15.9886
G1 X151.901 Y68.284 E16.07096
G1 X154.44 Y68.652 E16.15629
G1 X156.914 Y68.939 E16.23913
G1 X159.44 Y69.159 E16.32346
G1 X161.996 Y69.31 E16.40863
G1 X164.512 Y69.387 E16.49235
G1 X166.068 Y69.4 E16.5441
G1 X180.452 Y69.4 E17.02252
G1 X180.604 Y69.401 E17.02757
G1 X181.302 Y69.411 E17.05079
G1 X182.221 Y69.464 E17.08141
G1 X183.132 Y69.597 E17.11203
G1 X184.028 Y69.808 E17.14264
G1 X184.902 Y70.096 E17.17325
G1 X185.749 Y70.459 E17.2039
G1 X186.56 Y70.894 E17.23451
G1 X187.33 Y71.398 E17.26512
G1 X188.054 Y71.967 E17.29574
G1 X188.726 Y72.597 E17.32638
G1 X189.341 Y73.282 E17.357
G1 X189.894 Y74.018 E17.38762
G1 X190.381 Y74.799 E17.41823
G1 X190.798 Y75.62 E17.44886
G1 X191.143 Y76.474 E17.47949
G1 X191.412 Y77.354 E17.5101
G1 X191.604 Y78.255 E17.54074
G1 X191.717 Y79.168 E17.57134
G1 X191.746 Y79.712 E17.58946
G1 X191.755 Y80.032 E17.6001
G1 X191.759 Y80.33 E17.61002
G1 X191.759 Y139.264 E19.57017
G1 X191.758 Y139.395 E19.57453
G1 X191.749 Y140.122 E19.59871
G1 X191.698 Y141.041 E19.62932
G1 X191.567 Y141.953 E19.65997
G1 X191.357 Y142.849 E19.69058
G1 X191.071 Y143.724 E19.72119
G1 X190.71 Y144.571 E19.75182
G1 X190.276 Y145.383 E19.78244
G1 X189.774 Y146.155 E19.81307
G1 X189.206 Y146.88 E19.8437
G1 X188.578 Y147.553 E19.87432
G1 X187.894 Y148.169 E19.90493
G1 X187.159 Y148.723 E19.93554
G1 X186.379 Y149.212 E19.96616
G1 X185.559 Y149.631 E19.99679
G1 X184.706 Y149.977 E20.02741
G1 X183.826 Y150.248 E20.05803
G1 X182.926 Y150.441 E20.08865
G1 X182.012 Y150.556 E20.11929
G1 X181.447 Y150.587 E20.13811
G1 X181.126 Y150.596 E20.14879
G1 X180.829 Y150.6 E20.15867
G1 X151.866 Y150.6 E21.12198
G1 X151.714 Y150.599 E21.12704
G1 X151.016 Y150.589 E21.15025
G1 X150.097 Y150.536 E21.18087
G1 X149.186 Y150.403 E21.21149
G1 X148.29 Y150.192 E21.24211
G1 X147.416 Y149.904 E21.27271
G1 X146.569 Y149.541 E21.30336
G1 X145.385 Y148.874 E21.34856
G1 X144.365 Y148.21 E21.38904
G1 X144.229 Y148.119 E21.39449
G1 X143.901 Y147.898 E21.40764
G1 X141.752 Y146.538 E21.49223
G1 X139.591 Y145.254 E21.57583
G1 X137.355 Y144.009 E21.66095
G1 X135.136 Y142.855 E21.74414
G1 X132.836 Y141.74 E21.82916
G1 X130.561 Y140.716 E21.91213
G1 X128.191 Y139.728 E21.99754
G1 X125.824 Y138.819 E22.08187
G1 X123.484 Y137.998 E22.16435
G1 X121.05 Y137.219 E22.24935
G1 X118.636 Y136.52 E22.33294
G1 X116.189 Y135.887 E22.417
G1 X113.68 Y135.313 E22.50261
G1 X111.22 Y134.821 E22.58605
G1 X108.773 Y134.407 E22.66859
G1 X106.222 Y134.046 E22.75429
G1 X103.74 Y133.768 E22.83735
G1 X101.203 Y133.554 E22.92203
G1 X98.692 Y133.416 E23.00568
G1 X95.135 Y133.338 E23.12401
G1 X80.547 Y133.303 E23.60921
G1 X80.42 Y133.302 E23.61344
G1 X79.582 Y133.29 E23.64131
G1 X78.663 Y133.237 E23.67193
G1 X77.752 Y133.104 E23.70255
G1 X76.856 Y132.893 E23.73316
G1 X75.982 Y132.605 E23.76377
G1 X75.136 Y132.242 E23.79439
G1 X74.324 Y131.807 E23.82503
G1 X73.554 Y131.303 E23.85564
G1 X72.83 Y130.734 E23.88626
G1 X72.158 Y130.105 E23.91688
G1 X71.543 Y129.419 E23.94752
G1 X70.99 Y128.683 E23.97814
G1 X70.503 Y127.902 E24.00875
G1 X70.086 Y127.081 E24.03938
G1 X69.741 Y126.227 E24.07001
G1 X69.472 Y125.347 E24.10062
G1 X69.28 Y124.446 E24.13126
G1 X69.167 Y123.533 E24.16186
G1 X69.138 Y122.973 E24.18051
G1 X69.13 Y122.672 E24.19052
G1 X69.126 Y122.365 E24.20074
G1 X69.252 Y67.899 E26.01229
G1 X69.252 Y67.898 E26.01232
G1 X69.263 Y63.346 E26.16372
G1 X69.264 Y63.209 E26.16828
G1 X69.274 Y62.559 E26.1899
G1 X69.328 Y61.64 E26.22052
G1 X69.462 Y60.729 E26.25114
G1 X69.674 Y59.833 E26.28177
G1 X69.963 Y58.959 E26.31239
G1 X70.327 Y58.113 E26.34302
G1 X70.763 Y57.302 E26.37364
G1 X71.268 Y56.532 E26.40427
G1 X71.837 Y55.809 E26.43487
G0 F6000 X72.231 Y55.966
G1 F1200 X72.859 Y55.317 E26.46491
G1 X73.541 Y54.725 E26.49495
G1 X74.273 Y54.197 E26.52496
G1 X75.049 Y53.735 E26.555
G1 X75.863 Y53.343 E26.58505
G1 X76.709 Y53.025 E26.61511
G1 X77.579 Y52.783 E26.64515
G1 X78.467 Y52.619 E26.67518
G1 X79.665 Y52.524 E26.71515
G1 X80.596 Y52.505 E26.74612
G1 X80.828 Y52.503 E26.75384
G1 X109.21 Y52.57 E27.69783
G1 X109.355 Y52.571 E27.70265
G1 X110.019 Y52.582 E27.72474
G1 X110.92 Y52.637 E27.75477
G1 X111.813 Y52.772 E27.7848
G1 X112.691 Y52.985 E27.81485
G1 X113.546 Y53.274 E27.84487
G1 X114.373 Y53.639 E27.87494
G1 X115.423 Y54.238 E27.91514
G1 X116.557 Y54.978 E27.96018
G1 X118.724 Y56.361 E28.04568
G1 X120.949 Y57.693 E28.13193
G1 X123.113 Y58.909 E28.21449
G1 X125.389 Y60.102 E28.29996
G1 X127.673 Y61.219 E28.38453
G1 X129.98 Y62.268 E28.46882
G1 X132.304 Y63.246 E28.55268
G1 X134.718 Y64.184 E28.63882
G1 X137.096 Y65.028 E28.72275
G1 X139.473 Y65.798 E28.80585
G1 X141.945 Y66.523 E28.89153
G1 X144.409 Y67.17 E28.97626
G1 X146.847 Y67.737 E29.05952
G1 X149.384 Y68.254 E29.14563
G1 X151.842 Y68.68 E29.2286
G1 X154.378 Y69.047 E29.31383
G1 X156.901 Y69.339 E29.3983
G1 X159.418 Y69.559 E29.48234
G1 X161.96 Y69.71 E29.56704
G1 X164.496 Y69.787 E29.65142
G1 X166.065 Y69.8 E29.70361
G1 X180.452 Y69.8 E30.18212
G1 X180.598 Y69.801 E30.18698
G1 X181.296 Y69.811 E30.2102
G1 X182.198 Y69.864 E30.24025
G1 X183.091 Y69.996 E30.27027
G1 X183.969 Y70.207 E30.30031
G1 X184.825 Y70.495 E30.33035
G1 X185.652 Y70.857 E30.36037
G1 X186.444 Y71.292 E30.39043
G1 X187.195 Y71.794 E30.42047
G1 X187.898 Y72.361 E30.45051
G1 X188.548 Y72.988 E30.48055
G1 X189.14 Y73.67 E30.51058
G1 X189.67 Y74.401 E30.54062
G1 X190.132 Y75.177 E30.57065
G1 X190.525 Y75.99 E30.60069
G1 X190.843 Y76.835 E30.63072
G1 X191.086 Y77.705 E30.66076
G1 X191.251 Y78.593 E30.6908
G1 X191.346 Y79.723 E30.72852
G1 X191.355 Y80.043 E30.73917
G1 X191.359 Y80.33 E30.74871
G1 X191.359 Y139.264 E32.70886
G1 X191.358 Y139.39 E32.71306
G1 X191.349 Y140.117 E32.73724
G1 X191.298 Y141.019 E32.76729
G1 X191.167 Y141.913 E32.79734
G1 X190.958 Y142.791 E32.82736
G1 X190.672 Y143.648 E32.85741
G1 X190.311 Y144.476 E32.88745
G1 X189.879 Y145.268 E32.91745
G1 X189.378 Y146.02 E32.94751
G1 X188.812 Y146.724 E32.97755
G1 X188.187 Y147.375 E33.00757
G1 X187.506 Y147.969 E33.03762
G1 X186.775 Y148.5 E33.06768
G1 X186.001 Y148.964 E33.09769
G1 X185.188 Y149.358 E33.12774
G1 X184.344 Y149.678 E33.15776
G1 X183.474 Y149.923 E33.18782
G1 X182.587 Y150.089 E33.21784
G1 X181.436 Y150.187 E33.25626
G1 X181.115 Y150.196 E33.26694
G1 X180.829 Y150.2 E33.27645
G1 X151.866 Y150.2 E34.23976
G1 X151.72 Y150.199 E34.24462
G1 X151.022 Y150.189 E34.26784
G1 X150.12 Y150.136 E34.29789
G1 X149.227 Y150.004 E34.32791
G1 X148.349 Y149.793 E34.35795
G1 X147.493 Y149.505 E34.38799
G1 X146.666 Y149.143 E34.41801
G1 X145.603 Y148.538 E34.45869
G1 X144.583 Y147.874 E34.49917
G1 X144.452 Y147.787 E34.50441
G1 X144.116 Y147.561 E34.51787
G1 X141.964 Y146.199 E34.60258
G1 X139.784 Y144.903 E34.68693
G1 X137.554 Y143.663 E34.7718
G1 X135.301 Y142.491 E34.85627
G1 X133.038 Y141.393 E34.93992
G1 X130.7 Y140.341 E35.0252
G1 X128.34 Y139.357 E35.11024
G1 X125.974 Y138.448 E35.19454
G1 X123.59 Y137.612 E35.27857
G1 X121.169 Y136.837 E35.36312
G1 X118.751 Y136.137 E35.44684
G1 X116.265 Y135.494 E35.53225
G1 X113.784 Y134.926 E35.6169
G1 X111.294 Y134.428 E35.70136
G1 X108.824 Y134.01 E35.78468
G1 X106.29 Y133.652 E35.8698
G1 X103.745 Y133.366 E35.95498
G1 X101.222 Y133.154 E36.03919
G1 X98.753 Y133.018 E36.12143
G1 X95.094 Y132.938 E36.24316
G1 X80.548 Y132.903 E36.72696
G1 X80.426 Y132.902 E36.73102
G1 X79.588 Y132.89 E36.75889
G1 X78.686 Y132.837 E36.78895
G1 X77.793 Y132.705 E36.81897
G1 X76.915 Y132.494 E36.84901
G1 X76.059 Y132.206 E36.87904
G1 X75.232 Y131.844 E36.90907
G1 X74.44 Y131.409 E36.93912
G1 X73.689 Y130.907 E36.96917
G1 X72.986 Y130.34 E36.99921
G1 X72.336 Y129.713 E37.02925
G1 X71.744 Y129.031 E37.05928
G1 X71.215 Y128.3 E37.08929
G1 X70.752 Y127.524 E37.11935
G1 X70.359 Y126.711 E37.14938
G1 X70.041 Y125.866 E37.17941
G1 X69.798 Y124.996 E37.20946
G1 X69.633 Y124.108 E37.2395
G1 X69.538 Y122.962 E37.27774
G1 X69.53 Y122.661 E37.28776
G1 X69.526 Y122.366 E37.29757
G1 X69.652 Y67.9 E39.10912
G1 X69.652 Y67.899 E39.10916
G1 X69.663 Y63.347 E39.26056
G1 X69.664 Y63.215 E39.26495
G1 X69.674 Y62.565 E39.28657
G1 X69.728 Y61.664 E39.31659
G1 X69.861 Y60.77 E39.34665
G1 X70.073 Y59.892 E39.37669
G1 X70.362 Y59.037 E39.40671
G1 X70.725 Y58.21 E39.43675
G1 X71.16 Y57.418 E39.4668
G1 X71.663 Y56.669 E39.49681
G1 X72.231 Y55.966 E39.52687
G1 F2700 E34.52687
G0 F6000 X110.024 Y62.112
G0 X110.527 Y62.618
G0 X110.518 Y65.931
G0 X110.012 Y66.434
G0 X95.158 Y79.345
G0 X95.214 Y79.402
G0 X99.427 Y83.698
G0 X99.718 Y83.994
G1 F2700 E39.52687
G1 F1200 X99.976 Y83.764 E39.53837
G1 X100.266 Y83.557 E39.55022
G1 X100.568 Y83.385 E39.56178
G1 X100.898 Y83.237 E39.57381
G1 X101.206 Y83.132 E39.58463
G1 X101.535 Y83.056 E39.59586
G1 X101.855 Y83.015 E39.60659
G1 X102.154 Y83.001 E39.61655
G1 X102.497 Y83.019 E39.62797
G1 X102.834 Y83.068 E39.6393
G1 X103.15 Y83.146 E39.65012
G1 X103.491 Y83.265 E39.66214
G1 X103.812 Y83.416 E39.67393
G1 X104.106 Y83.594 E39.68537
G1 X104.401 Y83.814 E39.69761
G1 X104.661 Y84.053 E39.70935
G1 X104.891 Y84.313 E39.7209
G1 X105.104 Y84.612 E39.73311
G1 X105.277 Y84.913 E39.74465
G1 X105.42 Y85.229 E39.75619
G1 X105.524 Y85.546 E39.76729
G1 X105.604 Y85.887 E39.77894
G1 X105.645 Y86.198 E39.78937
G1 X105.658 Y86.492 E39.79916
G1 X105.639 Y86.848 E39.81102
G1 X105.593 Y87.17 E39.82183
G1 X105.514 Y87.494 E39.83293
G1 X105.397 Y87.821 E39.84448
G1 X105.243 Y88.152 E39.85662
