;FLAVOR:Marlin
;TIME:8553
;Filament used: 4.99839m
;Layer height: 0.2
;MINX:134.45
;MINY:66.7
;MINZ:0.2
;MAXX:165.55
;MAXY:153.3
;MAXZ:28
;Generated with Cura_SteamEngine 4.3.0
M140 S55
M105
M190 S55
M104 S205
M105
M109 S205
M82 ;absolute extrusion mode
M201 X500.00 Y500.00 Z100.00 E5000.00 ;Setup machine max acceleration
M203 X500.00 Y500.00 Z10.00 E50.00 ;Setup machine max feedrate
M204 P500.00 R1000.00 T500.00 ;Setup Print/Retract/Travel acceleration
M205 X8.00 Y8.00 Z0.40 E5.00 ;Setup Jerk
M220 S100 ;Reset Feedrate
M221 S100 ;Reset Flowrate

G28 ;Home

G92 E0 ;Reset Extruder
G1 Z2.0 F3000 ;Move Z Axis up
G1 X10.1 Y20 Z0.28 F5000.0 ;Move to start position
G1 X10.1 Y200.0 Z0.28 F1500.0 E15 ;Draw the first line
G1 X10.4 Y200.0 Z0.28 F5000.0 ;Move to side a little
G1 X10.4 Y20 Z0.28 F1500.0 E30 ;Draw the second line
G92 E0 ;Reset Extruder
G1 Z2.0 F3000 ;Move Z Axis up

G92 E0
G92 E0
G1 F2700 E-5
;LAYER_COUNT:140
;LAYER:0
M107
G0 F6000 X135.429 Y70.861 Z0.2
;TYPE:SKIRT
G1 F2700 E0
G1 F1200 X135.847 Y70.19 E0.02629
G1 X136.33 Y69.566 E0.05254
G1 X136.735 Y69.129 E0.07236
G1 X136.879 Y68.985 E0.07913
G1 X137.465 Y68.455 E0.10541
G1 X138.101 Y67.988 E0.13165
G1 X138.781 Y67.587 E0.15791
G1 X139.499 Y67.257 E0.18419
G1 X140.246 Y67.002 E0.21044
G1 X141.015 Y66.823 E0.23671
G1 X141.799 Y66.723 E0.26299
G1 X142.394 Y66.7 E0.2828
G1 X146.133 Y66.7 E0.40716
G1 X146.922 Y66.74 E0.43343
G1 X147.702 Y66.859 E0.45968
G1 X148.467 Y67.057 E0.48596
G1 X149.207 Y67.331 E0.5122
G1 X149.916 Y67.679 E0.53847
G1 X150.587 Y68.097 E0.56477
G1 X151.211 Y68.58 E0.59101
G1 X151.784 Y69.123 E0.61727
G1 X152.299 Y69.722 E0.64354
G1 X152.75 Y70.37 E0.6698
G1 X153.134 Y71.061 E0.69609
G1 X153.446 Y71.786 E0.72235
G1 X153.683 Y72.539 E0.7486
G1 X153.842 Y73.313 E0.77488
G1 X153.933 Y74.456 E0.81302
G1 X154.011 Y88.2 E1.27015
G1 X157.633 Y88.2 E1.39062
G1 X158.422 Y88.24 E1.4169
G1 X159.202 Y88.359 E1.44314
G1 X159.967 Y88.557 E1.46942
G1 X160.707 Y88.831 E1.49567
G1 X161.416 Y89.179 E1.52194
G1 X162.087 Y89.597 E1.54823
G1 X162.711 Y90.08 E1.57448
G1 X163.284 Y90.623 E1.60073
G1 X163.799 Y91.222 E1.62701
G1 X164.25 Y91.87 E1.65327
G1 X164.634 Y92.561 E1.67956
G1 X164.946 Y93.286 E1.70581
G1 X165.183 Y94.039 E1.73207
G1 X165.342 Y94.813 E1.75835
G1 X165.432 Y95.908 E1.79489
G1 X165.549 Y105.791 E2.12362
G1 X165.519 Y106.58 E2.14988
G1 X165.409 Y107.362 E2.17615
G1 X165.22 Y108.128 E2.20239
G1 X164.954 Y108.872 E2.22867
G1 X164.615 Y109.585 E2.25493
G1 X164.365 Y109.998 E2.27099
G1 X164.663 Y110.504 E2.29052
G1 X164.993 Y111.222 E2.3168
G1 X165.248 Y111.969 E2.34305
G1 X165.427 Y112.738 E2.36931
G1 X165.527 Y113.522 E2.3956
G1 X165.55 Y114.117 E2.41541
G1 X165.55 Y123.883 E2.74022
G1 X165.51 Y124.672 E2.7665
G1 X165.391 Y125.452 E2.79274
G1 X165.193 Y126.217 E2.81902
G1 X164.919 Y126.957 E2.84527
G1 X164.571 Y127.666 E2.87154
G1 X164.153 Y128.337 E2.89783
G1 X163.67 Y128.961 E2.92408
G1 X163.265 Y129.398 E2.9439
G1 X163.148 Y129.515 E2.9494
G1 X162.562 Y130.045 E2.97568
G1 X161.926 Y130.512 E3.00192
G1 X161.246 Y130.913 E3.02818
G1 X160.528 Y131.243 E3.05446
G1 X159.781 Y131.498 E3.08071
G1 X159.012 Y131.677 E3.10697
G1 X158.228 Y131.777 E3.13326
G1 X157.633 Y131.8 E3.15307
G1 X154.05 Y131.8 E3.27224
G1 X154.05 Y145.383 E3.72401
G1 X154.01 Y146.172 E3.75029
G1 X153.891 Y146.952 E3.77653
G1 X153.693 Y147.717 E3.80281
G1 X153.419 Y148.457 E3.82906
G1 X153.071 Y149.166 E3.85533
G1 X152.653 Y149.837 E3.88162
G1 X152.17 Y150.461 E3.90786
G1 X151.765 Y150.898 E3.92768
G1 X151.648 Y151.015 E3.93318
G1 X151.062 Y151.545 E3.95946
G1 X150.426 Y152.012 E3.98571
G1 X149.746 Y152.413 E4.01196
G1 X149.028 Y152.743 E4.03825
G1 X148.281 Y152.998 E4.0645
G1 X147.512 Y153.177 E4.09076
G1 X146.728 Y153.277 E4.11705
G1 X146.133 Y153.3 E4.13685
G1 X142.367 Y153.3 E4.26211
G1 X141.578 Y153.26 E4.28839
G1 X140.798 Y153.141 E4.31463
G1 X140.033 Y152.943 E4.34091
G1 X139.293 Y152.669 E4.36716
G1 X138.584 Y152.321 E4.39343
G1 X137.913 Y151.903 E4.41972
G1 X137.289 Y151.42 E4.44597
G1 X136.852 Y151.015 E4.46578
G1 X136.735 Y150.898 E4.47129
G1 X136.205 Y150.312 E4.49756
G1 X135.738 Y149.676 E4.52381
G1 X135.337 Y148.996 E4.55007
G1 X135.007 Y148.278 E4.57635
G1 X134.752 Y147.531 E4.6026
G1 X134.573 Y146.762 E4.62886
G1 X134.473 Y145.978 E4.65515
G1 X134.45 Y145.383 E4.67495
G1 X134.45 Y74.644 E7.02774
G1 X134.49 Y73.855 E7.05402
G1 X134.609 Y73.075 E7.08026
G1 X134.807 Y72.31 E7.10654
G1 X135.081 Y71.57 E7.13279
G1 X135.429 Y70.861 E7.15906
G0 F6000 X135.828 Y70.968
G1 F1200 X136.244 Y70.321 E7.18464
G1 X136.725 Y69.721 E7.21022
G1 X137.017 Y69.411 E7.22438
G1 X137.161 Y69.267 E7.23116
G1 X137.733 Y68.753 E7.25673
G1 X138.355 Y68.3 E7.28233
G1 X139.02 Y67.914 E7.3079
G1 X139.722 Y67.599 E7.33349
G1 X140.453 Y67.359 E7.35908
G1 X141.204 Y67.196 E7.38464
G1 X141.969 Y67.112 E7.41024
G1 X142.394 Y67.1 E7.42438
G1 X146.133 Y67.1 E7.54874
G1 X146.901 Y67.14 E7.57432
G1 X147.661 Y67.259 E7.5999
G1 X148.404 Y67.457 E7.62548
G1 X149.123 Y67.731 E7.65107
G1 X149.809 Y68.078 E7.67664
G1 X150.456 Y68.494 E7.70222
G1 X151.056 Y68.975 E7.7278
G1 X151.603 Y69.516 E7.75339
G1 X152.091 Y70.111 E7.77898
G1 X152.514 Y70.753 E7.80455
G1 X152.869 Y71.436 E7.83016
G1 X153.15 Y72.151 E7.85571
G1 X153.356 Y72.893 E7.88132
G1 X153.484 Y73.651 E7.90689
G1 X153.533 Y74.458 E7.93378
G1 X153.613 Y88.6 E8.40415
G1 X157.633 Y88.6 E8.53786
G1 X158.401 Y88.64 E8.56344
G1 X159.161 Y88.759 E8.58902
G1 X159.904 Y88.957 E8.6146
G1 X160.623 Y89.231 E8.64019
G1 X161.309 Y89.578 E8.66576
G1 X161.956 Y89.994 E8.69134
G1 X162.556 Y90.475 E8.71692
G1 X163.103 Y91.016 E8.74251
G1 X163.591 Y91.611 E8.7681
G1 X164.014 Y92.253 E8.79367
G1 X164.369 Y92.936 E8.81927
G1 X164.65 Y93.651 E8.84483
G1 X164.856 Y94.393 E8.87044
G1 X164.984 Y95.151 E8.89601
G1 X165.032 Y95.912 E8.92137
G1 X165.149 Y105.795 E9.2501
G1 X165.119 Y106.564 E9.2757
G1 X165.008 Y107.325 E9.30128
G1 X164.819 Y108.071 E9.32687
G1 X164.554 Y108.793 E9.35245
G1 X164.215 Y109.483 E9.37802
G1 X163.892 Y109.999 E9.39827
G1 X163.95 Y110.078 E9.40153
G1 X164.336 Y110.743 E9.4271
G1 X164.651 Y111.445 E9.45269
G1 X164.891 Y112.176 E9.47828
G1 X165.054 Y112.927 E9.50384
G1 X165.138 Y113.692 E9.52944
G1 X165.15 Y114.117 E9.54358
G1 X165.15 Y123.883 E9.8684
G1 X165.11 Y124.651 E9.89398
G1 X164.991 Y125.411 E9.91956
G1 X164.793 Y126.154 E9.94514
G1 X164.519 Y126.873 E9.97073
G1 X164.172 Y127.559 E9.9963
G1 X163.756 Y128.206 E10.02188
G1 X163.275 Y128.806 E10.04746
G1 X162.983 Y129.116 E10.06163
G1 X162.866 Y129.233 E10.06713
G1 X162.294 Y129.747 E10.09271
G1 X161.672 Y130.2 E10.1183
G1 X161.007 Y130.586 E10.14387
G1 X160.305 Y130.901 E10.16946
G1 X159.574 Y131.141 E10.19505
G1 X158.823 Y131.304 E10.22061
G1 X158.058 Y131.388 E10.24621
G1 X157.633 Y131.4 E10.26035
G1 X153.65 Y131.4 E10.39283
G1 X153.65 Y145.383 E10.8579
G1 X153.61 Y146.151 E10.88348
G1 X153.491 Y146.911 E10.90907
G1 X153.293 Y147.654 E10.93464
G1 X153.019 Y148.373 E10.96023
G1 X152.672 Y149.059 E10.9858
G1 X152.256 Y149.706 E11.01139
G1 X151.775 Y150.306 E11.03696
G1 X151.483 Y150.616 E11.05113
G1 X151.366 Y150.733 E11.05663
G1 X150.794 Y151.247 E11.08221
G1 X150.172 Y151.7 E11.1078
G1 X149.507 Y152.086 E11.13338
G1 X148.805 Y152.401 E11.15897
G1 X148.074 Y152.641 E11.18456
G1 X147.323 Y152.804 E11.21012
G1 X146.558 Y152.888 E11.23571
G1 X146.133 Y152.9 E11.24986
G1 X142.367 Y152.9 E11.37511
G1 X141.599 Y152.86 E11.40069
G1 X140.839 Y152.741 E11.42628
G1 X140.096 Y152.543 E11.45185
G1 X139.377 Y152.269 E11.47744
G1 X138.691 Y151.922 E11.50301
G1 X138.044 Y151.506 E11.5286
G1 X137.444 Y151.025 E11.55417
G1 X137.134 Y150.733 E11.56834
G1 X137.017 Y150.616 E11.57384
G1 X136.503 Y150.044 E11.59942
G1 X136.05 Y149.422 E11.62501
G1 X135.664 Y148.757 E11.65059
G1 X135.349 Y148.055 E11.67618
G1 X135.109 Y147.324 E11.70177
G1 X134.946 Y146.573 E11.72733
G1 X134.862 Y145.808 E11.75292
G1 X134.85 Y145.383 E11.76707
G1 X134.85 Y74.644 E14.11985
G1 X134.89 Y73.876 E14.14543
G1 X135.009 Y73.116 E14.17102
G1 X135.207 Y72.373 E14.19659
G1 X135.481 Y71.654 E14.22218
G1 X135.828 Y70.968 E14.24775
G0 F6000 X136.227 Y71.078
G1 F1200 X136.642 Y70.455 E14.27265
G1 X137.3 Y69.694 E14.30611
G1 X137.444 Y69.55 E14.31289
G1 X138.001 Y69.05 E14.33778
G1 X138.607 Y68.613 E14.36263
G1 X139.257 Y68.242 E14.38752
G1 X139.943 Y67.943 E14.41241
G1 X140.657 Y67.719 E14.4373
G1 X141.39 Y67.572 E14.46217
G1 X142.394 Y67.5 E14.49565
G1 X146.133 Y67.5 E14.62001
G1 X146.88 Y67.54 E14.64489
G1 X147.618 Y67.659 E14.66975
G1 X148.34 Y67.857 E14.69465
G1 X149.036 Y68.13 E14.71952
G1 X149.699 Y68.477 E14.74441
G1 X150.322 Y68.892 E14.7693
G1 X150.896 Y69.371 E14.79417
G1 X151.417 Y69.908 E14.81905
G1 X151.876 Y70.498 E14.84392
G1 X152.271 Y71.134 E14.86882
G1 X152.595 Y71.808 E14.89369
G1 X152.845 Y72.513 E14.91857
G1 X153.019 Y73.241 E14.94346
G1 X153.114 Y73.983 E14.96835
G1 X153.133 Y74.46 E14.98422
G1 X153.215 Y89 E15.46783
G1 X157.633 Y89 E15.61478
G1 X158.38 Y89.04 E15.63966
G1 X159.118 Y89.159 E15.66452
G1 X159.84 Y89.357 E15.68942
G1 X160.536 Y89.63 E15.71429
G1 X161.199 Y89.977 E15.73918
G1 X161.822 Y90.392 E15.76407
G1 X162.396 Y90.871 E15.78894
G1 X162.917 Y91.408 E15.81382
G1 X163.376 Y91.998 E15.83869
G1 X163.771 Y92.634 E15.86359
G1 X164.095 Y93.308 E15.88846
G1 X164.345 Y94.013 E15.91334
G1 X164.519 Y94.741 E15.93824
G1 X164.614 Y95.483 E15.96312
G1 X164.633 Y95.917 E15.97756
G1 X164.75 Y105.8 E16.3063
G1 X164.718 Y106.548 E16.3312
G1 X164.608 Y107.287 E16.35605
G1 X164.419 Y108.011 E16.38094
G1 X164.153 Y108.711 E16.40584
G1 X163.815 Y109.378 E16.43071
G1 X163.408 Y110.005 E16.45558
G1 X163.405 Y110.008 E16.45572
G1 X163.637 Y110.33 E16.46892
G1 X164.008 Y110.98 E16.49381
G1 X164.307 Y111.666 E16.5187
G1 X164.531 Y112.38 E16.54359
G1 X164.678 Y113.113 E16.56845
G1 X164.75 Y114.117 E16.60193
G1 X164.75 Y123.883 E16.92675
G1 X164.71 Y124.63 E16.95163
G1 X164.591 Y125.368 E16.97649
G1 X164.393 Y126.09 E17.00139
G1 X164.12 Y126.786 E17.02626
G1 X163.773 Y127.449 E17.05115
G1 X163.358 Y128.072 E17.07605
G1 X162.7 Y128.833 E17.10951
G1 X162.583 Y128.95 E17.11501
G1 X162.026 Y129.45 E17.13991
G1 X161.42 Y129.887 E17.16476
G1 X160.77 Y130.258 E17.18965
G1 X160.084 Y130.557 E17.21454
G1 X159.37 Y130.781 E17.23943
G1 X158.637 Y130.928 E17.26429
G1 X157.633 Y131 E17.29777
G1 X153.25 Y131 E17.44355
G1 X153.25 Y145.383 E17.92193
G1 X153.21 Y146.13 E17.94681
G1 X153.091 Y146.868 E17.97167
G1 X152.893 Y147.59 E17.99658
G1 X152.62 Y148.286 E18.02144
G1 X152.273 Y148.949 E18.04633
G1 X151.858 Y149.572 E18.07123
G1 X151.2 Y150.333 E18.10469
G1 X151.083 Y150.45 E18.11019
G1 X150.526 Y150.95 E18.13509
G1 X149.92 Y151.387 E18.15994
G1 X149.27 Y151.758 E18.18483
G1 X148.584 Y152.057 E18.20972
G1 X147.87 Y152.281 E18.23461
G1 X147.137 Y152.428 E18.25947
G1 X146.133 Y152.5 E18.29295
G1 X142.367 Y152.5 E18.41821
G1 X141.62 Y152.46 E18.44309
G1 X140.882 Y152.341 E18.46795
G1 X140.16 Y152.143 E18.49285
G1 X139.464 Y151.87 E18.51772
G1 X138.801 Y151.523 E18.54261
G1 X138.178 Y151.108 E18.56751
G1 X137.417 Y150.45 E18.60097
G1 X137.3 Y150.333 E18.60647
G1 X136.8 Y149.776 E18.63137
G1 X136.363 Y149.17 E18.65622
G1 X135.992 Y148.52 E18.68111
G1 X135.693 Y147.834 E18.706
G1 X135.469 Y147.12 E18.73089
G1 X135.322 Y146.387 E18.75575
G1 X135.25 Y145.383 E18.78923
G1 X135.25 Y74.644 E21.14202
G1 X135.29 Y73.897 E21.1669
G1 X135.409 Y73.159 E21.19176
G1 X135.607 Y72.437 E21.21666
G1 X135.88 Y71.741 E21.24153
G1 X136.227 Y71.078 E21.26642
G0 F6000 X136.625 Y71.191
G1 F1200 X137.039 Y70.594 E21.29058
G1 X137.583 Y69.977 E21.31794
G1 X137.727 Y69.833 E21.32471
G1 X138.268 Y69.349 E21.34886
G1 X138.859 Y68.926 E21.37303
G1 X139.493 Y68.572 E21.39718
G1 X140.162 Y68.289 E21.42134
G1 X140.858 Y68.081 E21.4455
G1 X141.573 Y67.951 E21.46967
G1 X142.394 Y67.9 E21.49703
G1 X146.133 Y67.9 E21.62139
G1 X146.858 Y67.94 E21.64554
G1 X147.575 Y68.059 E21.66972
G1 X148.274 Y68.257 E21.69388
G1 X148.947 Y68.53 E21.71804
G1 X149.586 Y68.875 E21.74219
G1 X150.183 Y69.289 E21.76635
G1 X150.731 Y69.765 E21.7905
G1 X151.224 Y70.299 E21.81467
G1 X151.654 Y70.884 E21.83882
G1 X152.018 Y71.513 E21.86299
G1 X152.311 Y72.178 E21.88716
G1 X152.529 Y72.871 E21.91132
G1 X152.669 Y73.583 E21.93545
G1 X152.733 Y74.463 E21.9648
G1 X152.817 Y89.4 E22.46161
G1 X157.633 Y89.4 E22.6218
G1 X158.358 Y89.44 E22.64595
G1 X159.075 Y89.559 E22.67012
G1 X159.774 Y89.757 E22.69428
G1 X160.447 Y90.03 E22.71844
G1 X161.086 Y90.375 E22.74259
G1 X161.683 Y90.789 E22.76676
G1 X162.231 Y91.265 E22.7909
G1 X162.724 Y91.799 E22.81507
G1 X163.154 Y92.384 E22.83922
G1 X163.518 Y93.013 E22.86339
G1 X163.811 Y93.678 E22.88756
G1 X164.029 Y94.371 E22.91172
G1 X164.169 Y95.083 E22.93586
G1 X164.233 Y95.922 E22.96384
G1 X164.35 Y105.805 E23.29258
G1 X164.318 Y106.531 E23.31675
G1 X164.207 Y107.248 E23.34088
G1 X164.018 Y107.95 E23.36506
G1 X163.753 Y108.626 E23.38921
G1 X163.415 Y109.269 E23.41337
G1 X163.009 Y109.871 E23.43752
G1 X162.903 Y109.993 E23.44289
G1 X163.324 Y110.582 E23.46697
G1 X163.678 Y111.216 E23.49113
G1 X163.961 Y111.885 E23.51529
G1 X164.169 Y112.581 E23.53945
G1 X164.299 Y113.296 E23.56362
G1 X164.35 Y114.117 E23.59098
G1 X164.35 Y123.883 E23.9158
G1 X164.31 Y124.608 E23.93995
G1 X164.191 Y125.325 E23.96412
G1 X163.993 Y126.024 E23.98828
G1 X163.72 Y126.697 E24.01244
G1 X163.375 Y127.336 E24.03659
G1 X162.961 Y127.933 E24.06076
G1 X162.417 Y128.55 E24.08811
G1 X162.3 Y128.667 E24.09362
G1 X161.759 Y129.151 E24.11776
G1 X161.168 Y129.574 E24.14193
G1 X160.534 Y129.928 E24.16609
G1 X159.865 Y130.211 E24.19025
G1 X159.169 Y130.419 E24.21441
G1 X158.454 Y130.549 E24.23858
G1 X157.633 Y130.6 E24.26594
G1 X152.85 Y130.6 E24.42502
G1 X152.85 Y145.383 E24.9167
G1 X152.81 Y146.108 E24.94085
G1 X152.691 Y146.825 E24.96503
G1 X152.493 Y147.524 E24.98919
G1 X152.22 Y148.197 E25.01335
G1 X151.875 Y148.836 E25.0375
G1 X151.461 Y149.433 E25.06166
G1 X150.917 Y150.05 E25.08902
G1 X150.8 Y150.167 E25.09453
G1 X150.259 Y150.651 E25.11867
G1 X149.668 Y151.074 E25.14284
G1 X149.034 Y151.428 E25.16699
G1 X148.365 Y151.711 E25.19115
G1 X147.669 Y151.919 E25.21531
G1 X146.954 Y152.049 E25.23949
G1 X146.133 Y152.1 E25.26684
G1 X142.367 Y152.1 E25.3921
G1 X141.642 Y152.06 E25.41625
G1 X140.925 Y151.941 E25.44043
G1 X140.226 Y151.743 E25.46459
G1 X139.553 Y151.47 E25.48875
G1 X138.914 Y151.125 E25.5129
G1 X138.317 Y150.711 E25.53706
G1 X137.7 Y150.167 E25.56442
G1 X137.583 Y150.05 E25.56992
G1 X137.099 Y149.509 E25.59407
G1 X136.676 Y148.918 E25.61824
G1 X136.322 Y148.284 E25.64239
G1 X136.039 Y147.615 E25.66655
G1 X135.831 Y146.919 E25.69071
G1 X135.701 Y146.204 E25.71488
G1 X135.65 Y145.383 E25.74224
G1 X135.65 Y74.644 E28.09503
G1 X135.69 Y73.919 E28.11918
G1 X135.809 Y73.202 E28.14336
G1 X136.007 Y72.503 E28.16752
G1 X136.28 Y71.83 E28.19167
G1 X136.625 Y71.191 E28.21583
G0 F6000 X136.679 Y71.923
G1 F1200 X137.024 Y71.309 E28.23925
G1 X137.435 Y70.738 E28.26265
G1 X137.866 Y70.26 E28.28406
G1 X138.01 Y70.116 E28.29083
G1 X138.535 Y69.647 E28.31425
G1 X139.11 Y69.241 E28.33766
G1 X139.728 Y68.903 E28.36109
G1 X140.379 Y68.636 E28.38449
G1 X141.057 Y68.446 E28.40791
G1 X141.752 Y68.333 E28.43133
G1 X142.394 Y68.3 E28.45271
G1 X146.133 Y68.3 E28.57707
G1 X146.836 Y68.34 E28.60049
G1 X147.53 Y68.459 E28.62391
G1 X148.205 Y68.657 E28.6473
G1 X148.854 Y68.929 E28.67071
G1 X149.468 Y69.274 E28.69413
G1 X150.039 Y69.685 E28.71753
G1 X150.56 Y70.159 E28.74096
G1 X151.024 Y70.689 E28.76439
G1 X151.424 Y71.268 E28.7878
G1 X151.756 Y71.889 E28.81122
G1 X152.016 Y72.543 E28.83462
G1 X152.2 Y73.223 E28.85805
G1 X152.306 Y73.919 E28.88147
G1 X152.333 Y74.465 E28.89965
G1 X152.42 Y89.8 E29.40971
G1 X157.633 Y89.8 E29.58309
G1 X158.336 Y89.84 E29.60651
G1 X159.03 Y89.959 E29.62993
G1 X159.705 Y90.157 E29.65333
G1 X160.354 Y90.429 E29.67673
G1 X160.968 Y90.774 E29.70016
G1 X161.539 Y91.185 E29.72356
G1 X162.06 Y91.659 E29.74698
G1 X162.524 Y92.189 E29.77041
G1 X162.924 Y92.768 E29.79382
G1 X163.256 Y93.389 E29.81724
G1 X163.516 Y94.043 E29.84065
G1 X163.7 Y94.723 E29.86408
G1 X163.806 Y95.419 E29.88749
