;FLAVOR:Marlin
;TIME:8073
;Filament used: 4.76021m
;Layer height: 0.2
;MINX:135.95
;MINY:82.2
;MINZ:0.2
;MAXX:164.05
;MAXY:137.8
;MAXZ:52
;Generated with Cura_SteamEngine 4.3.0
M140 S55
M105
M190 S55
M104 S205
M105
M109 S205
M82 ;absolute extrusion mode
M201 X500.00 Y500.00 Z100.00 E5000.00 ;Setup machine max acceleration
M203 X500.00 Y500.00 Z10.00 E50.00 ;Setup machine max feedrate
M204 P500.00 R1000.00 T500.00 ;Setup Print/Retract/Travel acceleration
M205 X8.00 Y8.00 Z0.40 E5.00 ;Setup Jerk
M220 S100 ;Reset Feedrate
M221 S100 ;Reset Flowrate

G28 ;Home

G92 E0 ;Reset Extruder
G1 Z2.0 F3000 ;Move Z Axis up
G1 X10.1 Y20 Z0.28 F5000.0 ;Move to start position
G1 X10.1 Y200.0 Z0.28 F1500.0 E15 ;Draw the first line
G1 X10.4 Y200.0 Z0.28 F5000.0 ;Move to side a little
G1 X10.4 Y20 Z0.28 F1500.0 E30 ;Draw the second line
G92 E0 ;Reset Extruder
G1 Z2.0 F3000 ;Move Z Axis up

G92 E0
G92 E0
G1 F2700 E-5
;LAYER_COUNT:260
;LAYER:0
M107
G0 F6000 X137.347 Y96.913 Z0.2
;TYPE:SKIRT
G1 F2700 E0
G1 F1200 X137.83 Y96.289 E0.02625
G1 X138.235 Y95.852 E0.04606
G1 X138.352 Y95.735 E0.05157
G1 X138.938 Y95.205 E0.07785
G1 X139.574 Y94.738 E0.10409
G1 X140.254 Y94.337 E0.13035
G1 X140.972 Y94.007 E0.15663
G1 X141.719 Y93.752 E0.18288
G1 X142.488 Y93.573 E0.20914
G1 X143.272 Y93.473 E0.23543
G1 X143.867 Y93.45 E0.25523
G1 X145.45 Y93.45 E0.30788
G1 X145.45 Y90.117 E0.41874
G1 X145.49 Y89.328 E0.44502
G1 X145.609 Y88.548 E0.47126
G1 X145.807 Y87.783 E0.49754
G1 X146.081 Y87.043 E0.52379
G1 X146.429 Y86.334 E0.55006
G1 X146.847 Y85.663 E0.57635
G1 X147.33 Y85.039 E0.60259
G1 X147.735 Y84.602 E0.62241
G1 X147.852 Y84.485 E0.62792
G1 X148.438 Y83.955 E0.65419
G1 X149.074 Y83.488 E0.68044
G1 X149.754 Y83.087 E0.70669
G1 X150.472 Y82.757 E0.73298
G1 X151.219 Y82.502 E0.75923
G1 X151.988 Y82.323 E0.78549
G1 X152.772 Y82.223 E0.81178
G1 X153.367 Y82.2 E0.83158
G1 X156.133 Y82.2 E0.92358
G1 X156.922 Y82.24 E0.94986
G1 X157.702 Y82.359 E0.9761
G1 X158.467 Y82.557 E1.00238
G1 X159.207 Y82.831 E1.02863
G1 X159.916 Y83.179 E1.0549
G1 X160.587 Y83.597 E1.08119
G1 X161.211 Y84.08 E1.10744
G1 X161.648 Y84.485 E1.12725
G1 X161.765 Y84.602 E1.13276
G1 X162.295 Y85.188 E1.15903
G1 X162.762 Y85.824 E1.18528
G1 X163.163 Y86.504 E1.21154
G1 X163.493 Y87.222 E1.23782
G1 X163.748 Y87.969 E1.26407
G1 X163.927 Y88.738 E1.29033
G1 X164.027 Y89.522 E1.31662
G1 X164.05 Y90.117 E1.33642
G1 X164.05 Y129.883 E2.65905
G1 X164.01 Y130.672 E2.68532
G1 X163.891 Y131.452 E2.71156
G1 X163.693 Y132.217 E2.73785
G1 X163.419 Y132.957 E2.76409
G1 X163.071 Y133.666 E2.79036
G1 X162.653 Y134.337 E2.81666
G1 X162.17 Y134.961 E2.8429
G1 X161.765 Y135.398 E2.86272
G1 X161.648 Y135.515 E2.86822
G1 X161.062 Y136.045 E2.8945
G1 X160.426 Y136.512 E2.92074
G1 X159.746 Y136.913 E2.947
G1 X159.028 Y137.243 E2.97328
G1 X158.281 Y137.498 E2.99954
G1 X157.512 Y137.677 E3.0258
G1 X156.728 Y137.777 E3.05208
G1 X156.133 Y137.8 E3.07189
G1 X153.367 Y137.8 E3.16389
G1 X152.578 Y137.76 E3.19016
G1 X151.798 Y137.641 E3.21641
G1 X151.033 Y137.443 E3.24269
G1 X150.293 Y137.169 E3.26893
G1 X149.584 Y136.821 E3.2952
G1 X148.913 Y136.403 E3.3215
G1 X148.289 Y135.92 E3.34774
G1 X147.852 Y135.515 E3.36756
G1 X147.735 Y135.398 E3.37306
G1 X147.205 Y134.812 E3.39934
G1 X146.738 Y134.176 E3.42558
G1 X146.337 Y133.496 E3.45184
G1 X146.007 Y132.778 E3.47812
G1 X145.752 Y132.031 E3.50438
G1 X145.573 Y131.262 E3.53064
G1 X145.473 Y130.478 E3.55692
G1 X145.45 Y129.883 E3.57673
G1 X145.45 Y126.55 E3.68758
G1 X143.867 Y126.55 E3.74024
G1 X143.078 Y126.51 E3.76651
G1 X142.298 Y126.391 E3.79275
G1 X141.533 Y126.193 E3.81904
G1 X140.793 Y125.919 E3.84528
G1 X140.084 Y125.571 E3.87155
G1 X139.413 Y125.153 E3.89785
G1 X138.789 Y124.67 E3.92409
G1 X138.352 Y124.265 E3.94391
G1 X138.235 Y124.148 E3.94941
G1 X137.705 Y123.562 E3.97569
G1 X137.238 Y122.926 E4.00193
G1 X136.837 Y122.246 E4.02819
G1 X136.507 Y121.528 E4.05447
G1 X136.252 Y120.781 E4.08073
G1 X136.073 Y120.012 E4.10699
G1 X135.973 Y119.228 E4.13327
G1 X135.95 Y118.633 E4.15308
G1 X135.95 Y101.367 E4.72735
G1 X135.99 Y100.578 E4.75362
G1 X136.109 Y99.798 E4.77987
G1 X136.307 Y99.033 E4.80615
G1 X136.581 Y98.293 E4.83239
G1 X136.929 Y97.584 E4.85866
G1 X137.347 Y96.913 E4.88496
G0 F6000 X137.744 Y97.044
G1 F1200 X138.225 Y96.444 E4.91053
G1 X138.517 Y96.134 E4.9247
G1 X138.634 Y96.017 E4.9302
G1 X139.206 Y95.503 E4.95578
G1 X139.828 Y95.05 E4.98137
G1 X140.493 Y94.664 E5.00695
G1 X141.195 Y94.349 E5.03254
G1 X141.926 Y94.109 E5.05813
G1 X142.677 Y93.946 E5.08369
G1 X143.442 Y93.862 E5.10928
G1 X143.867 Y93.85 E5.12343
G1 X145.85 Y93.85 E5.18938
G1 X145.85 Y90.117 E5.31354
G1 X145.89 Y89.349 E5.33912
G1 X146.009 Y88.589 E5.36471
G1 X146.207 Y87.846 E5.39028
G1 X146.481 Y87.127 E5.41587
G1 X146.828 Y86.441 E5.44144
G1 X147.244 Y85.794 E5.46702
G1 X147.725 Y85.194 E5.4926
G1 X148.017 Y84.884 E5.50677
G1 X148.134 Y84.767 E5.51227
G1 X148.706 Y84.253 E5.53785
G1 X149.328 Y83.8 E5.56344
G1 X149.993 Y83.414 E5.58901
G1 X150.695 Y83.099 E5.61461
G1 X151.426 Y82.859 E5.6402
G1 X152.177 Y82.696 E5.66576
G1 X152.942 Y82.612 E5.69135
G1 X153.367 Y82.6 E5.70549
G1 X156.133 Y82.6 E5.79749
G1 X156.901 Y82.64 E5.82307
G1 X157.661 Y82.759 E5.84865
G1 X158.404 Y82.957 E5.87423
G1 X159.123 Y83.231 E5.89982
G1 X159.809 Y83.578 E5.92539
G1 X160.456 Y83.994 E5.95097
G1 X161.056 Y84.475 E5.97655
G1 X161.366 Y84.767 E5.99072
G1 X161.483 Y84.884 E5.99622
G1 X161.997 Y85.456 E6.0218
G1 X162.45 Y86.078 E6.04739
G1 X162.836 Y86.743 E6.07296
G1 X163.151 Y87.445 E6.09855
G1 X163.391 Y88.176 E6.12414
G1 X163.554 Y88.927 E6.1497
G1 X163.638 Y89.692 E6.1753
G1 X163.65 Y90.117 E6.18944
G1 X163.65 Y129.883 E7.51207
G1 X163.61 Y130.651 E7.53764
G1 X163.491 Y131.411 E7.56323
G1 X163.293 Y132.154 E7.5888
G1 X163.019 Y132.873 E7.6144
G1 X162.672 Y133.559 E7.63997
G1 X162.256 Y134.206 E7.66555
G1 X161.775 Y134.806 E7.69113
G1 X161.483 Y135.116 E7.70529
G1 X161.366 Y135.233 E7.71079
G1 X160.794 Y135.747 E7.73637
G1 X160.172 Y136.2 E7.76196
G1 X159.507 Y136.586 E7.78754
G1 X158.805 Y136.901 E7.81313
G1 X158.074 Y137.141 E7.83872
G1 X157.323 Y137.304 E7.86428
G1 X156.558 Y137.388 E7.88988
G1 X156.133 Y137.4 E7.90402
G1 X153.367 Y137.4 E7.99602
G1 X152.599 Y137.36 E8.02159
G1 X151.839 Y137.241 E8.04718
G1 X151.096 Y137.043 E8.07275
G1 X150.377 Y136.769 E8.09835
G1 X149.691 Y136.422 E8.12391
G1 X149.044 Y136.006 E8.1495
G1 X148.444 Y135.525 E8.17508
G1 X148.134 Y135.233 E8.18924
G1 X148.017 Y135.116 E8.19474
G1 X147.503 Y134.544 E8.22032
G1 X147.05 Y133.922 E8.24591
G1 X146.664 Y133.257 E8.27149
G1 X146.349 Y132.555 E8.29708
G1 X146.109 Y131.824 E8.32267
G1 X145.946 Y131.073 E8.34823
G1 X145.862 Y130.308 E8.37383
G1 X145.85 Y129.883 E8.38797
G1 X145.85 Y126.15 E8.51213
G1 X143.867 Y126.15 E8.57808
G1 X143.099 Y126.11 E8.60366
G1 X142.339 Y125.991 E8.62925
G1 X141.596 Y125.793 E8.65482
G1 X140.877 Y125.519 E8.68041
G1 X140.191 Y125.172 E8.70598
G1 X139.544 Y124.756 E8.73157
G1 X138.944 Y124.275 E8.75714
G1 X138.634 Y123.983 E8.77131
G1 X138.517 Y123.866 E8.77681
G1 X138.003 Y123.294 E8.80239
G1 X137.55 Y122.672 E8.82798
G1 X137.164 Y122.007 E8.85355
G1 X136.849 Y121.305 E8.87915
G1 X136.609 Y120.574 E8.90474
G1 X136.446 Y119.823 E8.9303
G1 X136.362 Y119.058 E8.95589
G1 X136.35 Y118.633 E8.97003
G1 X136.35 Y101.367 E9.5443
G1 X136.39 Y100.599 E9.56988
G1 X136.509 Y99.839 E9.59547
G1 X136.707 Y99.096 E9.62104
G1 X136.981 Y98.377 E9.64663
G1 X137.328 Y97.691 E9.6722
G1 X137.744 Y97.044 E9.69779
G0 F6000 X138.142 Y97.178
G1 F1200 X138.8 Y96.417 E9.73125
G1 X138.917 Y96.3 E9.73675
G1 X139.474 Y95.8 E9.76165
G1 X140.08 Y95.363 E9.7865
G1 X140.73 Y94.992 E9.81139
G1 X141.416 Y94.693 E9.83628
G1 X142.13 Y94.469 E9.86117
G1 X142.863 Y94.322 E9.88603
G1 X143.867 Y94.25 E9.91951
G1 X146.133 Y94.25 E9.99488
G1 X146.25 Y94.256 E9.99878
G1 X146.25 Y90.117 E10.13644
G1 X146.29 Y89.37 E10.16132
G1 X146.409 Y88.632 E10.18618
G1 X146.607 Y87.91 E10.21108
G1 X146.88 Y87.214 E10.23595
G1 X147.227 Y86.551 E10.26084
G1 X147.642 Y85.928 E10.28574
G1 X148.3 Y85.167 E10.3192
G1 X148.417 Y85.05 E10.3247
G1 X148.974 Y84.55 E10.34959
G1 X149.58 Y84.113 E10.37444
G1 X150.23 Y83.742 E10.39934
G1 X150.916 Y83.443 E10.42423
G1 X151.63 Y83.219 E10.44912
G1 X152.363 Y83.072 E10.47398
G1 X153.367 Y83 E10.50746
G1 X156.133 Y83 E10.59946
G1 X156.88 Y83.04 E10.62434
G1 X157.618 Y83.159 E10.6492
G1 X158.34 Y83.357 E10.6741
G1 X159.036 Y83.63 E10.69897
G1 X159.699 Y83.977 E10.72386
G1 X160.322 Y84.392 E10.74875
G1 X161.083 Y85.05 E10.78222
G1 X161.2 Y85.167 E10.78772
G1 X161.7 Y85.724 E10.81261
G1 X162.137 Y86.33 E10.83746
G1 X162.508 Y86.98 E10.86236
G1 X162.807 Y87.666 E10.88725
G1 X163.031 Y88.38 E10.91213
G1 X163.178 Y89.113 E10.937
G1 X163.25 Y90.117 E10.97048
G1 X163.25 Y129.883 E12.2931
G1 X163.21 Y130.63 E12.31798
G1 X163.091 Y131.368 E12.34285
G1 X162.893 Y132.09 E12.36775
G1 X162.62 Y132.786 E12.39261
G1 X162.273 Y133.449 E12.4175
G1 X161.858 Y134.072 E12.4424
G1 X161.2 Y134.833 E12.47586
G1 X161.083 Y134.95 E12.48136
G1 X160.526 Y135.45 E12.50626
G1 X159.92 Y135.887 E12.53111
G1 X159.27 Y136.258 E12.556
G1 X158.584 Y136.557 E12.58089
G1 X157.87 Y136.781 E12.60578
G1 X157.137 Y136.928 E12.63064
G1 X156.133 Y137 E12.66412
G1 X153.367 Y137 E12.75612
G1 X152.62 Y136.96 E12.781
G1 X151.882 Y136.841 E12.80586
G1 X151.16 Y136.643 E12.83076
G1 X150.464 Y136.37 E12.85563
G1 X149.801 Y136.023 E12.88052
G1 X149.178 Y135.608 E12.90542
G1 X148.417 Y134.95 E12.93888
G1 X148.3 Y134.833 E12.94438
G1 X147.8 Y134.276 E12.96928
G1 X147.363 Y133.67 E12.99413
G1 X146.992 Y133.02 E13.01902
G1 X146.693 Y132.334 E13.04391
G1 X146.469 Y131.62 E13.0688
G1 X146.322 Y130.887 E13.09366
G1 X146.25 Y129.883 E13.12714
G1 X146.25 Y125.742 E13.26487
G1 X146.133 Y125.75 E13.26877
G1 X143.867 Y125.75 E13.34414
G1 X143.12 Y125.71 E13.36902
G1 X142.382 Y125.591 E13.39388
G1 X141.66 Y125.393 E13.41878
G1 X140.964 Y125.12 E13.44365
G1 X140.301 Y124.773 E13.46854
G1 X139.678 Y124.358 E13.49344
G1 X138.917 Y123.7 E13.5269
G1 X138.8 Y123.583 E13.5324
G1 X138.3 Y123.026 E13.5573
G1 X137.863 Y122.42 E13.58214
G1 X137.492 Y121.77 E13.60704
G1 X137.193 Y121.084 E13.63193
G1 X136.969 Y120.37 E13.65682
G1 X136.822 Y119.637 E13.68168
G1 X136.75 Y118.633 E13.71516
G1 X136.75 Y101.367 E14.28943
G1 X136.79 Y100.62 E14.31431
G1 X136.909 Y99.882 E14.33917
G1 X137.107 Y99.16 E14.36407
G1 X137.38 Y98.464 E14.38894
G1 X137.727 Y97.801 E14.41383
G1 X138.142 Y97.178 E14.43873
G0 F6000 X138.539 Y97.317
G1 F1200 X139.083 Y96.7 E14.46609
G1 X139.2 Y96.583 E14.47159
G1 X139.741 Y96.099 E14.49573
G1 X140.332 Y95.676 E14.51991
G1 X140.966 Y95.322 E14.54406
G1 X141.635 Y95.039 E14.56822
G1 X142.331 Y94.831 E14.59238
G1 X143.046 Y94.701 E14.61655
G1 X143.867 Y94.65 E14.64391
G1 X146.133 Y94.65 E14.71927
G1 X146.65 Y94.679 E14.7365
G1 X146.65 Y90.117 E14.88823
G1 X146.69 Y89.392 E14.91238
G1 X146.809 Y88.675 E14.93655
G1 X147.007 Y87.976 E14.96072
G1 X147.28 Y87.303 E14.98487
G1 X147.625 Y86.664 E15.00903
G1 X148.039 Y86.067 E15.03319
G1 X148.583 Y85.45 E15.06055
G1 X148.7 Y85.333 E15.06605
G1 X149.241 Y84.849 E15.0902
G1 X149.832 Y84.426 E15.11437
G1 X150.466 Y84.072 E15.13852
G1 X151.135 Y83.789 E15.16268
G1 X151.831 Y83.581 E15.18684
G1 X152.546 Y83.451 E15.21101
G1 X153.367 Y83.4 E15.23837
G1 X156.133 Y83.4 E15.33037
G1 X156.858 Y83.44 E15.35452
G1 X157.575 Y83.559 E15.37869
G1 X158.274 Y83.757 E15.40286
G1 X158.947 Y84.03 E15.42701
G1 X159.586 Y84.375 E15.45116
G1 X160.183 Y84.789 E15.47533
G1 X160.8 Y85.333 E15.50269
G1 X160.917 Y85.45 E15.50819
G1 X161.401 Y85.991 E15.53233
G1 X161.824 Y86.582 E15.55651
G1 X162.178 Y87.216 E15.58066
G1 X162.461 Y87.885 E15.60482
G1 X162.669 Y88.581 E15.62898
G1 X162.799 Y89.296 E15.65315
G1 X162.85 Y90.117 E15.68051
G1 X162.85 Y129.883 E17.00313
G1 X162.81 Y130.608 E17.02728
G1 X162.691 Y131.325 E17.05146
G1 X162.493 Y132.024 E17.07562
G1 X162.22 Y132.697 E17.09977
G1 X161.875 Y133.336 E17.12393
G1 X161.461 Y133.933 E17.14809
G1 X160.917 Y134.55 E17.17545
G1 X160.8 Y134.667 E17.18095
G1 X160.259 Y135.151 E17.2051
G1 X159.668 Y135.574 E17.22927
G1 X159.034 Y135.928 E17.25342
G1 X158.365 Y136.211 E17.27758
G1 X157.669 Y136.419 E17.30174
G1 X156.954 Y136.549 E17.32591
G1 X156.133 Y136.6 E17.35327
G1 X153.367 Y136.6 E17.44527
G1 X152.642 Y136.56 E17.46942
G1 X151.925 Y136.441 E17.49359
G1 X151.226 Y136.243 E17.51776
G1 X150.553 Y135.97 E17.54191
G1 X149.914 Y135.625 E17.56607
G1 X149.317 Y135.211 E17.59023
G1 X148.7 Y134.667 E17.61759
G1 X148.583 Y134.55 E17.62309
G1 X148.099 Y134.009 E17.64724
G1 X147.676 Y133.418 E17.67141
G1 X147.322 Y132.784 E17.69556
G1 X147.039 Y132.115 E17.71972
G1 X146.831 Y131.419 E17.74388
G1 X146.701 Y130.704 E17.76805
G1 X146.65 Y129.883 E17.79541
G1 X146.65 Y125.318 E17.94724
G1 X146.133 Y125.35 E17.96447
G1 X143.867 Y125.35 E18.03984
G1 X143.142 Y125.31 E18.06399
G1 X142.425 Y125.191 E18.08816
G1 X141.726 Y124.993 E18.11233
G1 X141.053 Y124.72 E18.13648
G1 X140.414 Y124.375 E18.16063
G1 X139.817 Y123.961 E18.1848
G1 X139.2 Y123.417 E18.21216
G1 X139.083 Y123.3 E18.21766
G1 X138.599 Y122.759 E18.2418
G1 X138.176 Y122.168 E18.26598
G1 X137.822 Y121.534 E18.29013
G1 X137.539 Y120.865 E18.31429
G1 X137.331 Y120.169 E18.33845
G1 X137.201 Y119.454 E18.36262
G1 X137.15 Y118.633 E18.38998
G1 X137.15 Y101.367 E18.96425
G1 X137.19 Y100.642 E18.9884
G1 X137.309 Y99.925 E19.01257
G1 X137.507 Y99.226 E19.03674
G1 X137.78 Y98.553 E19.06089
G1 X138.125 Y97.914 E19.08504
G1 X138.539 Y97.317 E19.10921
G0 F6000 X138.524 Y98.032
G1 F1200 X138.935 Y97.461 E19.13261
G1 X139.366 Y96.983 E19.15401
G1 X139.483 Y96.866 E19.15952
G1 X140.008 Y96.397 E19.18293
G1 X140.583 Y95.991 E19.20634
G1 X141.201 Y95.653 E19.22977
G1 X141.852 Y95.386 E19.25317
G1 X142.53 Y95.196 E19.27659
G1 X143.225 Y95.083 E19.30001
G1 X143.867 Y95.05 E19.32139
G1 X146.133 Y95.05 E19.39676
G1 X146.836 Y95.09 E19.42018
G1 X147.05 Y95.127 E19.4274
G1 X147.05 Y90.117 E19.59404
G1 X147.09 Y89.414 E19.61746
G1 X147.209 Y88.72 E19.64088
G1 X147.407 Y88.045 E19.66427
G1 X147.679 Y87.396 E19.68768
G1 X148.024 Y86.782 E19.7111
G1 X148.435 Y86.211 E19.7345
G1 X148.866 Y85.733 E19.75591
G1 X148.983 Y85.616 E19.76141
G1 X149.508 Y85.147 E19.78483
G1 X150.083 Y84.741 E19.80824
G1 X150.701 Y84.403 E19.83167
G1 X151.352 Y84.136 E19.85507
G1 X152.03 Y83.946 E19.87849
G1 X152.725 Y83.833 E19.90191
G1 X153.367 Y83.8 E19.92329
G1 X156.133 Y83.8 E20.01529
G1 X156.836 Y83.84 E20.03871
G1 X157.53 Y83.959 E20.06213
G1 X158.205 Y84.157 E20.08552
G1 X158.854 Y84.429 E20.10893
G1 X159.468 Y84.774 E20.13235
G1 X160.039 Y85.185 E20.15575
G1 X160.517 Y85.616 E20.17716
G1 X160.634 Y85.733 E20.18266
G1 X161.103 Y86.258 E20.20608
G1 X161.509 Y86.833 E20.22949
G1 X161.847 Y87.451 E20.25292
G1 X162.114 Y88.102 E20.27632
G1 X162.304 Y88.78 E20.29974
G1 X162.417 Y89.475 E20.32316
G1 X162.45 Y90.117 E20.34454
G1 X162.45 Y129.883 E21.66716
G1 X162.41 Y130.586 E21.69058
G1 X162.291 Y131.28 E21.714
G1 X162.093 Y131.955 E21.7374
G1 X161.821 Y132.604 E21.7608
G1 X161.476 Y133.218 E21.78423
G1 X161.065 Y133.789 E21.80763
G1 X160.634 Y134.267 E21.82903
G1 X160.517 Y134.384 E21.83454
G1 X159.992 Y134.853 E21.85795
G1 X159.417 Y135.259 E21.88136
G1 X158.799 Y135.597 E21.90479
G1 X158.148 Y135.864 E21.92819
G1 X157.47 Y136.054 E21.95161
G1 X156.775 Y136.167 E21.97503
G1 X156.133 Y136.2 E21.99641
G1 X153.367 Y136.2 E22.08841
G1 X152.664 Y136.16 E22.11183
G1 X151.97 Y136.041 E22.13525
G1 X151.295 Y135.843 E22.15865
G1 X150.646 Y135.571 E22.18205
G1 X150.032 Y135.226 E22.20548
G1 X149.461 Y134.815 E22.22888
G1 X148.983 Y134.384 E22.25028
G1 X148.866 Y134.267 E22.25579
G1 X148.397 Y133.742 E22.2792
G1 X147.991 Y133.167 E22.30261
G1 X147.653 Y132.549 E22.32604
G1 X147.386 Y131.898 E22.34944
G1 X147.196 Y131.22 E22.37286
G1 X147.083 Y130.525 E22.39628
G1 X147.05 Y129.883 E22.41766
G1 X147.05 Y124.872 E22.58433
G1 X146.775 Y124.917 E22.5936
G1 X146.133 Y124.95 E22.61498
G1 X143.867 Y124.95 E22.69035
G1 X143.164 Y124.91 E22.71377
G1 X142.47 Y124.791 E22.73718
G1 X141.795 Y124.593 E22.76058
G1 X141.146 Y124.321 E22.78399
