;FLAVOR:Marlin
;TIME:8987
;Filament used: 5.29269m
;Layer height: 0.2
;MINX:134.275
;MINY:66.7
;MINZ:0.2
;MAXX:165.725
;MAXY:153.3
;MAXZ:28
;Generated with Cura_SteamEngine 4.3.0
M140 S55
M105
M190 S55
M104 S205
M105
M109 S205
M82 ;absolute extrusion mode
M201 X500.00 Y500.00 Z100.00 E5000.00 ;Setup machine max acceleration
M203 X500.00 Y500.00 Z10.00 E50.00 ;Setup machine max feedrate
M204 P500.00 R1000.00 T500.00 ;Setup Print/Retract/Travel acceleration
M205 X8.00 Y8.00 Z0.40 E5.00 ;Setup Jerk
M220 S100 ;Reset Feedrate
M221 S100 ;Reset Flowrate

G28 ;Home

G92 E0 ;Reset Extruder
G1 Z2.0 F3000 ;Move Z Axis up
G1 X10.1 Y20 Z0.28 F5000.0 ;Move to start position
G1 X10.1 Y200.0 Z0.28 F1500.0 E15 ;Draw the first line
G1 X10.4 Y200.0 Z0.28 F5000.0 ;Move to side a little
G1 X10.4 Y20 Z0.28 F1500.0 E30 ;Draw the second line
G92 E0 ;Reset Extruder
G1 Z2.0 F3000 ;Move Z Axis up

G92 E0
G92 E0
G1 F2700 E-5
;LAYER_COUNT:140
;LAYER:0
M107
G0 F6000 X135.254 Y70.835 Z0.2
;TYPE:SKIRT
G1 F2700 E0
G1 F1200 X135.672 Y70.164 E0.02629
G1 X136.155 Y69.54 E0.05254
G1 X136.56 Y69.103 E0.07236
G1 X136.678 Y68.985 E0.07791
G1 X137.264 Y68.455 E0.10419
G1 X137.9 Y67.988 E0.13043
G1 X138.58 Y67.587 E0.15669
G1 X139.298 Y67.257 E0.18297
G1 X140.045 Y67.002 E0.20922
G1 X140.814 Y66.823 E0.23548
G1 X141.598 Y66.723 E0.26177
G1 X142.193 Y66.7 E0.28157
G1 X146.158 Y66.7 E0.41345
G1 X146.947 Y66.74 E0.43973
G1 X147.727 Y66.859 E0.46597
G1 X148.492 Y67.057 E0.49225
G1 X149.232 Y67.331 E0.5185
G1 X149.941 Y67.679 E0.54477
G1 X150.612 Y68.097 E0.57106
G1 X151.236 Y68.58 E0.59731
G1 X151.809 Y69.123 E0.62356
G1 X152.324 Y69.722 E0.64984
G1 X152.775 Y70.37 E0.67609
G1 X153.159 Y71.061 E0.70239
G1 X153.471 Y71.786 E0.72864
G1 X153.708 Y72.539 E0.75489
G1 X153.867 Y73.313 E0.78118
G1 X153.958 Y74.456 E0.81931
G1 X154.036 Y88.2 E1.27645
G1 X157.808 Y88.2 E1.4019
G1 X158.597 Y88.24 E1.42818
G1 X159.377 Y88.359 E1.45442
G1 X160.142 Y88.557 E1.48071
G1 X160.882 Y88.831 E1.50695
G1 X161.591 Y89.179 E1.53322
G1 X162.262 Y89.597 E1.55951
G1 X162.886 Y90.08 E1.58576
G1 X163.459 Y90.623 E1.61202
G1 X163.974 Y91.222 E1.63829
G1 X164.425 Y91.87 E1.66455
G1 X164.809 Y92.561 E1.69084
G1 X165.121 Y93.286 E1.71709
G1 X165.358 Y94.039 E1.74335
G1 X165.517 Y94.813 E1.76963
G1 X165.607 Y95.909 E1.80621
G1 X165.724 Y105.942 E2.13993
G1 X165.694 Y106.731 E2.16619
G1 X165.583 Y107.513 E2.19246
G1 X165.394 Y108.28 E2.21873
G1 X165.129 Y109.024 E2.245
G1 X164.79 Y109.737 E2.27126
G1 X164.63 Y110.001 E2.28153
G1 X164.838 Y110.354 E2.29515
G1 X165.168 Y111.072 E2.32144
G1 X165.423 Y111.819 E2.34769
G1 X165.602 Y112.588 E2.37395
G1 X165.702 Y113.372 E2.40024
G1 X165.725 Y113.967 E2.42004
G1 X165.725 Y123.883 E2.74985
G1 X165.685 Y124.672 E2.77613
G1 X165.566 Y125.452 E2.80237
G1 X165.368 Y126.217 E2.82865
G1 X165.094 Y126.957 E2.8549
G1 X164.746 Y127.666 E2.88117
G1 X164.328 Y128.337 E2.90746
G1 X163.845 Y128.961 E2.9337
G1 X163.44 Y129.398 E2.95352
G1 X163.323 Y129.515 E2.95902
G1 X162.737 Y130.045 E2.9853
G1 X162.101 Y130.512 E3.01155
G1 X161.421 Y130.913 E3.0378
G1 X160.703 Y131.243 E3.06409
G1 X159.956 Y131.498 E3.09034
G1 X159.187 Y131.677 E3.1166
G1 X158.403 Y131.777 E3.14289
G1 X157.808 Y131.8 E3.16269
G1 X154.075 Y131.8 E3.28685
G1 X154.075 Y145.383 E3.73862
G1 X154.035 Y146.172 E3.7649
G1 X153.916 Y146.952 E3.79114
G1 X153.718 Y147.717 E3.81743
G1 X153.444 Y148.457 E3.84367
G1 X153.096 Y149.166 E3.86994
G1 X152.678 Y149.837 E3.89623
G1 X152.195 Y150.461 E3.92248
G1 X151.79 Y150.898 E3.9423
G1 X151.673 Y151.015 E3.9478
G1 X151.087 Y151.545 E3.97408
G1 X150.451 Y152.012 E4.00032
G1 X149.771 Y152.413 E4.02658
G1 X149.053 Y152.743 E4.05286
G1 X148.306 Y152.998 E4.07911
G1 X147.537 Y153.177 E4.10538
G1 X146.753 Y153.277 E4.13166
G1 X146.158 Y153.3 E4.15147
G1 X142.192 Y153.3 E4.28338
G1 X141.403 Y153.26 E4.30965
G1 X140.623 Y153.141 E4.3359
G1 X139.858 Y152.943 E4.36218
G1 X139.118 Y152.669 E4.38842
G1 X138.409 Y152.321 E4.41469
G1 X137.738 Y151.903 E4.44099
G1 X137.114 Y151.42 E4.46723
G1 X136.677 Y151.015 E4.48705
G1 X136.56 Y150.898 E4.49255
G1 X136.03 Y150.312 E4.51883
G1 X135.563 Y149.676 E4.54508
G1 X135.162 Y148.996 E4.57133
G1 X134.832 Y148.278 E4.59761
G1 X134.577 Y147.531 E4.62387
G1 X134.398 Y146.762 E4.65013
G1 X134.298 Y145.978 E4.67642
G1 X134.275 Y145.383 E4.69622
G1 X134.275 Y74.618 E7.04987
G1 X134.315 Y73.829 E7.07615
G1 X134.434 Y73.049 E7.10239
G1 X134.632 Y72.284 E7.12867
G1 X134.906 Y71.544 E7.15492
G1 X135.254 Y70.835 E7.18119
G0 F6000 X135.653 Y70.942
G1 F1200 X136.069 Y70.295 E7.20677
G1 X136.55 Y69.695 E7.23235
G1 X136.842 Y69.385 E7.24651
G1 X136.96 Y69.267 E7.25206
G1 X137.532 Y68.753 E7.27764
G1 X138.154 Y68.3 E7.30324
G1 X138.819 Y67.914 E7.32881
G1 X139.521 Y67.599 E7.3544
G1 X140.252 Y67.359 E7.37999
G1 X141.003 Y67.196 E7.40555
G1 X141.768 Y67.112 E7.43115
G1 X142.193 Y67.1 E7.44529
G1 X146.158 Y67.1 E7.57717
G1 X146.926 Y67.14 E7.60274
G1 X147.686 Y67.259 E7.62833
G1 X148.429 Y67.457 E7.6539
G1 X149.148 Y67.731 E7.6795
G1 X149.834 Y68.078 E7.70506
G1 X150.481 Y68.494 E7.73065
G1 X151.081 Y68.975 E7.75623
G1 X151.628 Y69.516 E7.78181
G1 X152.116 Y70.111 E7.80741
G1 X152.539 Y70.753 E7.83298
G1 X152.894 Y71.436 E7.85858
G1 X153.175 Y72.151 E7.88413
G1 X153.381 Y72.893 E7.90975
G1 X153.509 Y73.651 E7.93531
G1 X153.558 Y74.458 E7.9622
G1 X153.638 Y88.6 E8.43258
G1 X157.808 Y88.6 E8.57127
G1 X158.576 Y88.64 E8.59685
G1 X159.336 Y88.759 E8.62244
G1 X160.079 Y88.957 E8.64801
G1 X160.798 Y89.231 E8.6736
G1 X161.484 Y89.578 E8.69917
G1 X162.131 Y89.994 E8.72475
G1 X162.731 Y90.475 E8.75033
G1 X163.278 Y91.016 E8.77592
G1 X163.766 Y91.611 E8.80151
G1 X164.189 Y92.253 E8.82709
G1 X164.544 Y92.936 E8.85269
G1 X164.825 Y93.651 E8.87824
G1 X165.031 Y94.393 E8.90385
G1 X165.159 Y95.151 E8.92942
G1 X165.207 Y95.914 E8.95485
G1 X165.324 Y105.947 E9.28857
G1 X165.293 Y106.715 E9.31413
G1 X165.183 Y107.476 E9.33971
G1 X164.994 Y108.222 E9.3653
G1 X164.728 Y108.944 E9.3909
G1 X164.39 Y109.634 E9.41645
G1 X164.164 Y109.995 E9.43062
G1 X164.511 Y110.593 E9.45361
G1 X164.826 Y111.295 E9.4792
G1 X165.066 Y112.026 E9.50479
G1 X165.229 Y112.777 E9.53035
G1 X165.313 Y113.542 E9.55595
G1 X165.325 Y113.967 E9.57009
G1 X165.325 Y123.883 E9.8999
G1 X165.285 Y124.651 E9.92548
G1 X165.166 Y125.411 E9.95106
G1 X164.968 Y126.154 E9.97664
G1 X164.694 Y126.873 E10.00223
G1 X164.347 Y127.559 E10.0278
G1 X163.931 Y128.206 E10.05338
G1 X163.45 Y128.806 E10.07896
G1 X163.158 Y129.116 E10.09312
G1 X163.041 Y129.233 E10.09863
G1 X162.469 Y129.747 E10.1242
G1 X161.847 Y130.2 E10.1498
G1 X161.182 Y130.586 E10.17537
G1 X160.48 Y130.901 E10.20096
G1 X159.749 Y131.141 E10.22655
G1 X158.998 Y131.304 E10.25211
G1 X158.233 Y131.388 E10.27771
G1 X157.808 Y131.4 E10.29185
G1 X153.675 Y131.4 E10.42932
G1 X153.675 Y145.383 E10.89439
G1 X153.635 Y146.151 E10.91997
G1 X153.516 Y146.911 E10.94556
G1 X153.318 Y147.654 E10.97113
G1 X153.044 Y148.373 E10.99672
G1 X152.697 Y149.059 E11.02229
G1 X152.281 Y149.706 E11.04788
G1 X151.8 Y150.306 E11.07345
G1 X151.508 Y150.616 E11.08762
G1 X151.391 Y150.733 E11.09312
G1 X150.819 Y151.247 E11.1187
G1 X150.197 Y151.7 E11.14429
G1 X149.532 Y152.086 E11.16986
G1 X148.83 Y152.401 E11.19546
G1 X148.099 Y152.641 E11.22105
G1 X147.348 Y152.804 E11.24661
G1 X146.583 Y152.888 E11.2722
G1 X146.158 Y152.9 E11.28634
G1 X142.192 Y152.9 E11.41825
G1 X141.424 Y152.86 E11.44383
G1 X140.664 Y152.741 E11.46942
G1 X139.921 Y152.543 E11.49499
G1 X139.202 Y152.269 E11.52058
G1 X138.516 Y151.922 E11.54615
G1 X137.869 Y151.506 E11.57174
G1 X137.269 Y151.025 E11.59731
G1 X136.959 Y150.733 E11.61148
G1 X136.842 Y150.616 E11.61698
G1 X136.328 Y150.044 E11.64256
G1 X135.875 Y149.422 E11.66815
G1 X135.489 Y148.757 E11.69373
G1 X135.174 Y148.055 E11.71932
G1 X134.934 Y147.324 E11.74491
G1 X134.771 Y146.573 E11.77047
G1 X134.687 Y145.808 E11.79606
G1 X134.675 Y145.383 E11.81021
G1 X134.675 Y74.618 E14.16386
G1 X134.715 Y73.85 E14.18944
G1 X134.834 Y73.09 E14.21502
G1 X135.032 Y72.347 E14.2406
G1 X135.306 Y71.628 E14.26619
G1 X135.653 Y70.942 E14.29176
G0 F6000 X136.052 Y71.052
G1 F1200 X136.467 Y70.429 E14.31666
G1 X137.125 Y69.668 E14.35012
G1 X137.243 Y69.55 E14.35567
G1 X137.8 Y69.05 E14.38056
G1 X138.406 Y68.613 E14.40541
G1 X139.056 Y68.242 E14.43031
G1 X139.742 Y67.943 E14.45519
G1 X140.456 Y67.719 E14.48008
G1 X141.189 Y67.572 E14.50495
G1 X142.193 Y67.5 E14.53843
G1 X146.158 Y67.5 E14.6703
G1 X146.905 Y67.54 E14.69518
G1 X147.643 Y67.659 E14.72005
G1 X148.365 Y67.857 E14.74495
G1 X149.061 Y68.13 E14.76981
G1 X149.724 Y68.477 E14.7947
G1 X150.347 Y68.892 E14.8196
G1 X150.921 Y69.371 E14.84447
G1 X151.442 Y69.908 E14.86935
G1 X151.901 Y70.498 E14.89421
G1 X152.296 Y71.134 E14.91912
G1 X152.62 Y71.808 E14.94399
G1 X152.87 Y72.513 E14.96887
G1 X153.044 Y73.241 E14.99376
G1 X153.139 Y73.983 E15.01864
G1 X153.158 Y74.46 E15.03452
G1 X153.24 Y89 E15.51813
G1 X157.808 Y89 E15.67006
G1 X158.555 Y89.04 E15.69494
G1 X159.293 Y89.159 E15.71981
G1 X160.015 Y89.357 E15.74471
G1 X160.711 Y89.63 E15.76957
G1 X161.374 Y89.977 E15.79446
G1 X161.997 Y90.392 E15.81936
G1 X162.571 Y90.871 E15.84423
G1 X163.092 Y91.408 E15.86911
G1 X163.551 Y91.998 E15.89397
G1 X163.946 Y92.634 E15.91888
G1 X164.27 Y93.308 E15.94375
G1 X164.52 Y94.013 E15.96863
G1 X164.694 Y94.741 E15.99352
G1 X164.789 Y95.483 E16.0184
G1 X164.808 Y95.918 E16.03289
G1 X164.925 Y105.951 E16.36661
G1 X164.893 Y106.699 E16.39151
G1 X164.782 Y107.439 E16.4164
G1 X164.593 Y108.162 E16.44125
G1 X164.328 Y108.862 E16.46615
G1 X163.99 Y109.529 E16.49102
G1 X163.683 Y110.001 E16.50974
G1 X163.812 Y110.18 E16.51708
G1 X164.183 Y110.83 E16.54197
G1 X164.482 Y111.516 E16.56686
G1 X164.706 Y112.23 E16.59175
G1 X164.853 Y112.963 E16.61662
G1 X164.925 Y113.967 E16.6501
G1 X164.925 Y123.883 E16.9799
G1 X164.885 Y124.63 E17.00479
G1 X164.766 Y125.368 E17.02965
G1 X164.568 Y126.09 E17.05455
G1 X164.295 Y126.786 E17.07942
G1 X163.948 Y127.449 E17.1043
G1 X163.533 Y128.072 E17.1292
G1 X162.875 Y128.833 E17.16266
G1 X162.758 Y128.95 E17.16817
G1 X162.201 Y129.45 E17.19306
G1 X161.595 Y129.887 E17.21791
G1 X160.945 Y130.258 E17.2428
G1 X160.259 Y130.557 E17.26769
G1 X159.545 Y130.781 E17.29258
G1 X158.812 Y130.928 E17.31745
G1 X157.808 Y131 E17.35093
G1 X153.275 Y131 E17.50169
G1 X153.275 Y145.383 E17.98007
G1 X153.235 Y146.13 E18.00496
G1 X153.116 Y146.868 E18.02982
G1 X152.918 Y147.59 E18.05472
G1 X152.645 Y148.286 E18.07959
G1 X152.298 Y148.949 E18.10447
G1 X151.883 Y149.572 E18.12937
G1 X151.225 Y150.333 E18.16283
G1 X151.108 Y150.45 E18.16834
G1 X150.551 Y150.95 E18.19323
G1 X149.945 Y151.387 E18.21808
G1 X149.295 Y151.758 E18.24297
G1 X148.609 Y152.057 E18.26786
G1 X147.895 Y152.281 E18.29275
G1 X147.162 Y152.428 E18.31762
G1 X146.158 Y152.5 E18.3511
G1 X142.192 Y152.5 E18.48301
G1 X141.445 Y152.46 E18.50789
G1 X140.707 Y152.341 E18.53275
G1 X139.985 Y152.143 E18.55765
G1 X139.289 Y151.87 E18.58252
G1 X138.626 Y151.523 E18.60741
G1 X138.003 Y151.108 E18.6323
G1 X137.242 Y150.45 E18.66576
G1 X137.125 Y150.333 E18.67127
G1 X136.625 Y149.776 E18.69616
G1 X136.188 Y149.17 E18.72101
G1 X135.817 Y148.52 E18.7459
G1 X135.518 Y147.834 E18.77079
G1 X135.294 Y147.12 E18.79568
G1 X135.147 Y146.387 E18.82055
G1 X135.075 Y145.383 E18.85403
G1 X135.075 Y74.618 E21.20768
G1 X135.115 Y73.871 E21.23256
G1 X135.234 Y73.133 E21.25742
G1 X135.432 Y72.411 E21.28232
G1 X135.705 Y71.715 E21.30719
G1 X136.052 Y71.052 E21.33208
G0 F6000 X136.45 Y71.165
G1 F1200 X136.864 Y70.568 E21.35624
G1 X137.408 Y69.951 E21.3836
G1 X137.526 Y69.833 E21.38915
G1 X138.067 Y69.349 E21.4133
G1 X138.658 Y68.926 E21.43747
G1 X139.292 Y68.572 E21.46162
G1 X139.961 Y68.289 E21.48578
G1 X140.657 Y68.081 E21.50994
G1 X141.372 Y67.951 E21.53411
G1 X142.193 Y67.9 E21.56147
G1 X146.158 Y67.9 E21.69335
G1 X146.883 Y67.94 E21.7175
G1 X147.6 Y68.059 E21.74167
G1 X148.299 Y68.257 E21.76583
G1 X148.972 Y68.53 E21.78999
G1 X149.611 Y68.875 E21.81414
G1 X150.208 Y69.289 E21.83831
G1 X150.756 Y69.765 E21.86245
G1 X151.249 Y70.299 E21.88662
G1 X151.679 Y70.884 E21.91077
G1 X152.043 Y71.513 E21.93494
G1 X152.336 Y72.178 E21.95911
G1 X152.554 Y72.871 E21.98327
G1 X152.694 Y73.583 E22.00741
G1 X152.758 Y74.463 E22.03675
G1 X152.842 Y89.4 E22.53357
G1 X157.808 Y89.4 E22.69874
G1 X158.533 Y89.44 E22.72289
G1 X159.25 Y89.559 E22.74706
G1 X159.949 Y89.757 E22.77123
G1 X160.622 Y90.03 E22.79538
G1 X161.261 Y90.375 E22.81954
G1 X161.858 Y90.789 E22.8437
G1 X162.406 Y91.265 E22.86784
G1 X162.899 Y91.799 E22.89201
G1 X163.329 Y92.384 E22.91616
G1 X163.693 Y93.013 E22.94033
G1 X163.986 Y93.678 E22.9645
G1 X164.204 Y94.371 E22.98867
G1 X164.344 Y95.083 E23.0128
G1 X164.408 Y95.923 E23.04082
G1 X164.525 Y105.956 E23.37454
G1 X164.493 Y106.682 E23.39871
G1 X164.382 Y107.4 E23.42288
G1 X164.193 Y108.101 E23.44702
G1 X163.928 Y108.777 E23.47117
G1 X163.59 Y109.42 E23.49533
G1 X163.194 Y110.006 E23.51886
G1 X163.499 Y110.432 E23.53628
G1 X163.853 Y111.066 E23.56044
G1 X164.136 Y111.735 E23.5846
G1 X164.344 Y112.431 E23.60876
G1 X164.474 Y113.146 E23.63293
G1 X164.525 Y113.967 E23.66029
G1 X164.525 Y123.883 E23.99009
G1 X164.485 Y124.608 E24.01424
G1 X164.366 Y125.325 E24.03842
G1 X164.168 Y126.024 E24.06258
G1 X163.895 Y126.697 E24.08674
G1 X163.55 Y127.336 E24.11089
G1 X163.136 Y127.933 E24.13505
G1 X162.592 Y128.55 E24.16241
G1 X162.475 Y128.667 E24.16792
G1 X161.934 Y129.151 E24.19206
G1 X161.343 Y129.574 E24.21623
G1 X160.709 Y129.928 E24.24038
G1 X160.04 Y130.211 E24.26454
G1 X159.344 Y130.419 E24.2887
G1 X158.629 Y130.549 E24.31288
G1 X157.808 Y130.6 E24.34023
G1 X152.875 Y130.6 E24.50431
G1 X152.875 Y145.383 E24.99599
G1 X152.835 Y146.108 E25.02014
G1 X152.716 Y146.825 E25.04432
G1 X152.518 Y147.524 E25.06848
G1 X152.245 Y148.197 E25.09263
G1 X151.9 Y148.836 E25.11679
G1 X151.486 Y149.433 E25.14095
G1 X150.942 Y150.05 E25.16831
G1 X150.825 Y150.167 E25.17381
G1 X150.284 Y150.651 E25.19796
G1 X149.693 Y151.074 E25.22213
G1 X149.059 Y151.428 E25.24628
G1 X148.39 Y151.711 E25.27044
G1 X147.694 Y151.919 E25.2946
G1 X146.979 Y152.049 E25.31877
G1 X146.158 Y152.1 E25.34613
G1 X142.192 Y152.1 E25.47804
G1 X141.467 Y152.06 E25.50219
G1 X140.75 Y151.941 E25.52637
G1 X140.051 Y151.743 E25.55053
G1 X139.378 Y151.47 E25.57468
G1 X138.739 Y151.125 E25.59884
G1 X138.142 Y150.711 E25.623
G1 X137.525 Y150.167 E25.65036
G1 X137.408 Y150.05 E25.65586
G1 X136.924 Y149.509 E25.68001
G1 X136.501 Y148.918 E25.70418
G1 X136.147 Y148.284 E25.72833
G1 X135.864 Y147.615 E25.75249
G1 X135.656 Y146.919 E25.77665
G1 X135.526 Y146.204 E25.80082
G1 X135.475 Y145.383 E25.82818
G1 X135.475 Y74.618 E28.18184
G1 X135.515 Y73.893 E28.20599
G1 X135.634 Y73.176 E28.23016
G1 X135.832 Y72.477 E28.25432
G1 X136.105 Y71.804 E28.27848
G1 X136.45 Y71.165 E28.30263
G0 F6000 X136.504 Y71.897
G1 F1200 X136.849 Y71.283 E28.32606
G1 X137.26 Y70.712 E28.34946
G1 X137.691 Y70.234 E28.37086
G1 X137.809 Y70.116 E28.37641
G1 X138.334 Y69.647 E28.39983
G1 X138.909 Y69.241 E28.42324
G1 X139.527 Y68.903 E28.44667
G1 X140.178 Y68.636 E28.47007
G1 X140.856 Y68.446 E28.49349
G1 X141.551 Y68.333 E28.51691
G1 X142.193 Y68.3 E28.53829
G1 X146.158 Y68.3 E28.67017
G1 X146.861 Y68.34 E28.69359
G1 X147.555 Y68.459 E28.71701
G1 X148.23 Y68.657 E28.7404
G1 X148.879 Y68.929 E28.76381
G1 X149.493 Y69.274 E28.78723
G1 X150.064 Y69.685 E28.81063
G1 X150.585 Y70.159 E28.83406
G1 X151.049 Y70.689 E28.85749
G1 X151.449 Y71.268 E28.88089
G1 X151.781 Y71.889 E28.90431
G1 X152.041 Y72.543 E28.92772
G1 X152.225 Y73.223 E28.95115
G1 X152.331 Y73.919 E28.97457
G1 X152.358 Y74.465 E28.99275
G1 X152.445 Y89.8 E29.5028
G1 X157.808 Y89.8 E29.68118
G1 X158.511 Y89.84 E29.7046
G1 X159.205 Y89.959 E29.72802
G1 X159.88 Y90.157 E29.75141
G1 X160.529 Y90.429 E29.77482
G1 X161.143 Y90.774 E29.79824
G1 X161.714 Y91.185 E29.82164
G1 X162.235 Y91.659 E29.84507
G1 X162.699 Y92.189 E29.8685
G1 X163.099 Y92.768 E29.8919
G1 X163.431 Y93.389 E29.91533
G1 X163.691 Y94.043 E29.93873
G1 X163.875 Y94.723 E29.96216
G1 X163.981 Y95.419 E29.98558
G1 X164.008 Y95.928 E30.00253
