;FLAVOR:Marlin
;TIME:12058
;Filament used: 7.22213m
;Layer height: 0.2
;MINX:134.955
;MINY:69.7
;MINZ:0.2
;MAXX:180.394
;MAXY:150.3
;MAXZ:42
;Generated with Cura_SteamEngine 4.3.0
M140 S55
M105
M190 S55
M104 S205
M105
M109 S205
M82 ;absolute extrusion mode
M201 X500.00 Y500.00 Z100.00 E5000.00 ;Setup machine max acceleration
M203 X500.00 Y500.00 Z10.00 E50.00 ;Setup machine max feedrate
M204 P500.00 R1000.00 T500.00 ;Setup Print/Retract/Travel acceleration
M205 X8.00 Y8.00 Z0.40 E5.00 ;Setup Jerk
M220 S100 ;Reset Feedrate
M221 S100 ;Reset Flowrate

G28 ;Home

G92 E0 ;Reset Extruder
G1 Z2.0 F3000 ;Move Z Axis up
G1 X10.1 Y20 Z0.28 F5000.0 ;Move to start position
G1 X10.1 Y200.0 Z0.28 F1500.0 E15 ;Draw the first line
G1 X10.4 Y200.0 Z0.28 F5000.0 ;Move to side a little
G1 X10.4 Y20 Z0.28 F1500.0 E30 ;Draw the second line
G92 E0 ;Reset Extruder
G1 Z2.0 F3000 ;Move Z Axis up

G92 E0
G92 E0
G1 F2700 E-5
;LAYER_COUNT:210
;LAYER:0
M107
G0 F6000 X136.352 Y91.663 Z0.2
;TYPE:SKIRT
G1 F2700 E0
G1 F1200 X136.835 Y91.039 E0.02625
G1 X137.24 Y90.602 E0.04606
G1 X137.357 Y90.485 E0.05157
G1 X137.943 Y89.955 E0.07785
G1 X138.579 Y89.488 E0.10409
G1 X139.259 Y89.087 E0.13035
G1 X139.977 Y88.757 E0.15663
G1 X140.724 Y88.502 E0.18288
G1 X141.493 Y88.323 E0.20914
G1 X142.277 Y88.223 E0.23543
G1 X142.872 Y88.2 E0.25523
G1 X146.453 Y88.2 E0.37434
G1 X146.453 Y77.617 E0.72633
G1 X146.493 Y76.828 E0.75261
G1 X146.612 Y76.048 E0.77885
G1 X146.81 Y75.283 E0.80513
G1 X147.084 Y74.543 E0.83138
G1 X147.432 Y73.834 E0.85765
G1 X147.85 Y73.163 E0.88394
G1 X148.333 Y72.539 E0.91018
G1 X148.738 Y72.102 E0.93
G1 X148.855 Y71.985 E0.9355
G1 X149.441 Y71.455 E0.96178
G1 X150.077 Y70.988 E0.98803
G1 X150.757 Y70.587 E1.01428
G1 X151.475 Y70.257 E1.04057
G1 X152.222 Y70.002 E1.06682
G1 X152.991 Y69.823 E1.09308
G1 X153.775 Y69.723 E1.11937
G1 X154.37 Y69.7 E1.13917
G1 X157.137 Y69.7 E1.2312
G1 X157.926 Y69.74 E1.25748
G1 X158.706 Y69.859 E1.28372
G1 X159.471 Y70.057 E1.31
G1 X160.211 Y70.331 E1.33625
G1 X160.92 Y70.679 E1.36252
G1 X161.591 Y71.097 E1.38881
G1 X162.215 Y71.58 E1.41506
G1 X162.652 Y71.985 E1.43488
G1 X162.769 Y72.102 E1.44038
G1 X163.299 Y72.688 E1.46666
G1 X163.766 Y73.324 E1.4929
G1 X164.167 Y74.004 E1.51916
G1 X164.497 Y74.722 E1.54544
G1 X164.752 Y75.469 E1.57169
G1 X164.931 Y76.238 E1.59795
G1 X165.031 Y77.022 E1.62424
G1 X165.054 Y77.617 E1.64405
G1 X165.054 Y90.006 E2.05611
G1 X165.297 Y90.018 E2.0642
G1 X166.077 Y90.137 E2.09044
G1 X166.842 Y90.335 E2.11672
G1 X167.582 Y90.609 E2.14297
G1 X168.291 Y90.957 E2.16924
G1 X168.962 Y91.375 E2.19553
G1 X169.586 Y91.858 E2.22178
G1 X170.023 Y92.263 E2.24159
G1 X170.14 Y92.38 E2.2471
G1 X170.67 Y92.966 E2.27338
G1 X171.137 Y93.602 E2.29962
G1 X171.538 Y94.282 E2.32588
G1 X171.868 Y95 E2.35216
G1 X172.123 Y95.747 E2.37841
G1 X172.178 Y95.982 E2.38644
G1 X172.396 Y95.98 E2.39369
G1 X173.185 Y96.014 E2.41996
G1 X173.967 Y96.128 E2.44624
G1 X174.733 Y96.32 E2.47251
G1 X175.475 Y96.588 E2.49875
G1 X176.187 Y96.93 E2.52502
G1 X176.861 Y97.343 E2.55131
G1 X177.489 Y97.821 E2.57756
G1 X178.066 Y98.36 E2.60382
G1 X178.585 Y98.955 E2.63008
G1 X179.041 Y99.6 E2.65635
G1 X179.43 Y100.287 E2.68261
G1 X179.748 Y101.01 E2.70888
G1 X179.99 Y101.762 E2.73516
G1 X180.156 Y102.534 E2.76142
G1 X180.255 Y103.66 E2.79902
G1 X180.393 Y112.614 E3.09686
G1 X180.394 Y112.735 E3.10089
G1 X180.393 Y121.628 E3.39667
G1 X180.353 Y122.417 E3.42295
G1 X180.233 Y123.197 E3.44919
G1 X180.035 Y123.962 E3.47548
G1 X179.761 Y124.702 E3.50172
G1 X179.414 Y125.411 E3.52798
G1 X178.996 Y126.081 E3.55424
G1 X178.513 Y126.706 E3.58051
G1 X178.108 Y127.142 E3.60031
G1 X177.957 Y127.293 E3.60741
G1 X177.371 Y127.823 E3.63369
G1 X176.735 Y128.29 E3.65993
G1 X176.055 Y128.691 E3.68619
G1 X175.337 Y129.021 E3.71247
G1 X174.59 Y129.276 E3.73872
G1 X173.821 Y129.455 E3.76498
G1 X173.037 Y129.555 E3.79127
G1 X172.442 Y129.578 E3.81108
G1 X172.177 Y129.578 E3.81989
G1 X172.069 Y129.995 E3.83422
G1 X171.795 Y130.735 E3.86046
G1 X171.447 Y131.444 E3.88673
G1 X171.03 Y132.114 E3.91298
G1 X170.547 Y132.739 E3.93925
G1 X170.141 Y133.176 E3.95909
G1 X170.024 Y133.293 E3.96459
G1 X169.438 Y133.823 E3.99087
G1 X168.802 Y134.29 E4.01712
G1 X168.122 Y134.691 E4.04337
G1 X167.404 Y135.021 E4.06966
G1 X166.657 Y135.276 E4.09591
G1 X165.888 Y135.455 E4.12217
G1 X165.104 Y135.555 E4.14846
G1 X165.054 Y135.557 E4.15012
G1 X165.054 Y142.383 E4.37715
G1 X165.014 Y143.172 E4.40343
G1 X164.895 Y143.952 E4.42967
G1 X164.697 Y144.717 E4.45596
G1 X164.423 Y145.457 E4.4822
G1 X164.075 Y146.166 E4.50847
G1 X163.657 Y146.837 E4.53476
G1 X163.174 Y147.461 E4.56101
G1 X162.769 Y147.898 E4.58083
G1 X162.652 Y148.015 E4.58633
G1 X162.066 Y148.545 E4.61261
G1 X161.43 Y149.012 E4.63885
G1 X160.75 Y149.413 E4.66511
G1 X160.032 Y149.743 E4.69139
G1 X159.285 Y149.998 E4.71765
G1 X158.516 Y150.177 E4.74391
G1 X157.732 Y150.277 E4.77019
G1 X157.137 Y150.3 E4.79
G1 X154.371 Y150.3 E4.882
G1 X153.582 Y150.26 E4.90827
G1 X152.802 Y150.141 E4.93451
G1 X152.037 Y149.943 E4.9608
G1 X151.297 Y149.669 E4.98704
G1 X150.588 Y149.321 E5.01331
G1 X149.917 Y148.903 E5.0396
G1 X149.293 Y148.42 E5.06585
G1 X148.856 Y148.015 E5.08567
G1 X148.739 Y147.898 E5.09117
G1 X148.209 Y147.312 E5.11745
G1 X147.742 Y146.676 E5.14369
G1 X147.341 Y145.996 E5.16995
G1 X147.011 Y145.278 E5.19623
G1 X146.756 Y144.531 E5.22249
G1 X146.577 Y143.762 E5.24875
G1 X146.477 Y142.978 E5.27503
G1 X146.454 Y142.393 E5.29451
G1 X146.449 Y138.501 E5.42395
G1 X146.449 Y138.473 E5.42489
G1 X146.454 Y136.355 E5.49533
G1 X146.454 Y131.8 E5.64683
G1 X142.872 Y131.8 E5.76597
G1 X142.083 Y131.76 E5.79224
G1 X141.303 Y131.641 E5.81849
G1 X140.538 Y131.443 E5.84477
G1 X139.798 Y131.169 E5.87102
G1 X139.089 Y130.821 E5.89728
G1 X138.418 Y130.403 E5.92358
G1 X137.794 Y129.92 E5.94982
G1 X137.357 Y129.515 E5.96964
G1 X137.24 Y129.398 E5.97514
G1 X136.71 Y128.812 E6.00142
G1 X136.243 Y128.176 E6.02767
G1 X135.842 Y127.496 E6.05392
G1 X135.512 Y126.778 E6.08021
G1 X135.257 Y126.031 E6.10646
G1 X135.078 Y125.262 E6.13272
G1 X134.978 Y124.478 E6.15901
G1 X134.955 Y123.883 E6.17881
G1 X134.955 Y114.117 E6.50363
G1 X134.995 Y113.328 E6.52991
G1 X135.114 Y112.548 E6.55615
G1 X135.312 Y111.783 E6.58243
G1 X135.586 Y111.043 E6.60868
G1 X135.934 Y110.334 E6.63495
G1 X136.141 Y110.002 E6.64796
G1 X135.842 Y109.496 E6.66751
G1 X135.512 Y108.778 E6.69379
G1 X135.257 Y108.031 E6.72004
G1 X135.078 Y107.262 E6.7463
G1 X134.978 Y106.478 E6.77259
G1 X134.955 Y105.883 E6.79239
G1 X134.955 Y96.117 E7.11721
G1 X134.995 Y95.328 E7.14349
G1 X135.114 Y94.548 E7.16973
G1 X135.312 Y93.783 E7.19601
G1 X135.586 Y93.043 E7.22226
G1 X135.934 Y92.334 E7.24853
G1 X136.352 Y91.663 E7.27482
G0 F6000 X136.749 Y91.794
G1 F1200 X137.23 Y91.194 E7.3004
G1 X137.522 Y90.884 E7.31456
G1 X137.639 Y90.767 E7.32007
G1 X138.211 Y90.253 E7.34564
G1 X138.833 Y89.8 E7.37124
G1 X139.498 Y89.414 E7.39681
G1 X140.2 Y89.099 E7.4224
G1 X140.931 Y88.859 E7.44799
G1 X141.682 Y88.696 E7.47355
G1 X142.447 Y88.612 E7.49915
G1 X142.872 Y88.6 E7.51329
G1 X146.853 Y88.6 E7.6457
G1 X146.853 Y77.617 E8.011
G1 X146.893 Y76.849 E8.03657
G1 X147.012 Y76.089 E8.06216
G1 X147.21 Y75.346 E8.08773
G1 X147.484 Y74.627 E8.11333
G1 X147.831 Y73.941 E8.1389
G1 X148.247 Y73.294 E8.16448
G1 X148.728 Y72.694 E8.19006
G1 X149.02 Y72.384 E8.20422
G1 X149.137 Y72.267 E8.20972
G1 X149.709 Y71.753 E8.2353
G1 X150.331 Y71.3 E8.26089
G1 X150.996 Y70.914 E8.28647
G1 X151.698 Y70.599 E8.31206
G1 X152.429 Y70.359 E8.33765
G1 X153.18 Y70.196 E8.36321
G1 X153.945 Y70.112 E8.38881
G1 X154.37 Y70.1 E8.40295
G1 X157.137 Y70.1 E8.49498
G1 X157.905 Y70.14 E8.52056
G1 X158.665 Y70.259 E8.54614
G1 X159.408 Y70.457 E8.57172
G1 X160.127 Y70.731 E8.59731
G1 X160.813 Y71.078 E8.62288
G1 X161.46 Y71.494 E8.64846
G1 X162.06 Y71.975 E8.67404
G1 X162.37 Y72.267 E8.6882
G1 X162.487 Y72.384 E8.69371
G1 X163.001 Y72.956 E8.71928
G1 X163.454 Y73.578 E8.74488
G1 X163.84 Y74.243 E8.77045
G1 X164.155 Y74.945 E8.79604
G1 X164.395 Y75.676 E8.82163
G1 X164.558 Y76.427 E8.84719
G1 X164.642 Y77.192 E8.87279
G1 X164.654 Y77.617 E8.88693
G1 X164.654 Y90.386 E9.31163
G1 X165.276 Y90.418 E9.33234
G1 X166.036 Y90.537 E9.35793
G1 X166.779 Y90.735 E9.38351
G1 X167.498 Y91.009 E9.4091
G1 X168.184 Y91.356 E9.43467
G1 X168.831 Y91.772 E9.46025
G1 X169.431 Y92.253 E9.48583
G1 X169.741 Y92.545 E9.49999
G1 X169.858 Y92.662 E9.50549
G1 X170.372 Y93.234 E9.53107
G1 X170.825 Y93.856 E9.55666
G1 X171.211 Y94.521 E9.58224
G1 X171.526 Y95.223 E9.60783
G1 X171.766 Y95.954 E9.63342
G1 X171.859 Y96.384 E9.64805
G1 X172.399 Y96.38 E9.66601
G1 X173.168 Y96.414 E9.69162
G1 X173.928 Y96.528 E9.71718
G1 X174.673 Y96.72 E9.74276
G1 X175.394 Y96.988 E9.76835
G1 X176.083 Y97.33 E9.79393
G1 X176.733 Y97.741 E9.81951
G1 X177.337 Y98.218 E9.84511
G1 X177.888 Y98.755 E9.8707
G1 X178.38 Y99.346 E9.89628
G1 X178.808 Y99.984 E9.92183
G1 X179.168 Y100.664 E9.94742
G1 X179.455 Y101.378 E9.97301
G1 X179.667 Y102.117 E9.99858
G1 X179.8 Y102.875 E10.02418
G1 X179.855 Y103.666 E10.05055
G1 X179.993 Y112.62 E10.3484
G1 X179.994 Y112.735 E10.35222
G1 X179.993 Y121.628 E10.64801
G1 X179.953 Y122.396 E10.67359
G1 X179.833 Y123.156 E10.69918
G1 X179.636 Y123.899 E10.72474
G1 X179.362 Y124.618 E10.75033
G1 X179.015 Y125.304 E10.7759
G1 X178.598 Y125.951 E10.80151
G1 X178.117 Y126.551 E10.82708
G1 X177.826 Y126.86 E10.8412
G1 X177.675 Y127.011 E10.8483
G1 X177.103 Y127.525 E10.87388
G1 X176.481 Y127.978 E10.89947
G1 X175.816 Y128.364 E10.92505
G1 X175.114 Y128.679 E10.95064
G1 X174.383 Y128.919 E10.97623
G1 X173.632 Y129.082 E11.00179
G1 X172.867 Y129.166 E11.02739
G1 X172.442 Y129.178 E11.04153
G1 X171.869 Y129.178 E11.06058
G1 X171.867 Y129.189 E11.06096
G1 X171.669 Y129.932 E11.08653
G1 X171.395 Y130.651 E11.11212
G1 X171.048 Y131.337 E11.13769
G1 X170.632 Y131.984 E11.16328
G1 X170.151 Y132.584 E11.18885
G1 X169.859 Y132.894 E11.20302
G1 X169.742 Y133.011 E11.20852
G1 X169.17 Y133.525 E11.2341
G1 X168.548 Y133.978 E11.25969
G1 X167.883 Y134.364 E11.28526
G1 X167.181 Y134.679 E11.31086
G1 X166.45 Y134.919 E11.33645
G1 X165.699 Y135.082 E11.36201
G1 X164.934 Y135.166 E11.3876
G1 X164.654 Y135.174 E11.39692
G1 X164.654 Y142.383 E11.63669
G1 X164.614 Y143.151 E11.66227
G1 X164.495 Y143.911 E11.68786
G1 X164.297 Y144.654 E11.71343
G1 X164.023 Y145.373 E11.73902
G1 X163.676 Y146.059 E11.76459
G1 X163.26 Y146.706 E11.79018
G1 X162.779 Y147.306 E11.81575
G1 X162.487 Y147.616 E11.82992
G1 X162.37 Y147.733 E11.83542
G1 X161.798 Y148.247 E11.861
G1 X161.176 Y148.7 E11.88659
G1 X160.511 Y149.086 E11.91216
G1 X159.809 Y149.401 E11.93776
G1 X159.078 Y149.641 E11.96335
G1 X158.327 Y149.804 E11.98891
G1 X157.562 Y149.888 E12.0145
G1 X157.137 Y149.9 E12.02864
G1 X154.371 Y149.9 E12.12064
G1 X153.603 Y149.86 E12.14622
G1 X152.843 Y149.741 E12.17181
G1 X152.1 Y149.543 E12.19738
G1 X151.381 Y149.269 E12.22297
G1 X150.695 Y148.922 E12.24854
G1 X150.048 Y148.506 E12.27413
G1 X149.448 Y148.025 E12.2997
G1 X149.138 Y147.733 E12.31387
G1 X149.021 Y147.616 E12.31937
G1 X148.507 Y147.044 E12.34495
G1 X148.054 Y146.422 E12.37054
G1 X147.668 Y145.757 E12.39611
G1 X147.353 Y145.055 E12.42171
G1 X147.113 Y144.324 E12.4473
G1 X146.95 Y143.573 E12.47286
G1 X146.866 Y142.808 E12.49845
G1 X146.854 Y142.393 E12.51226
G1 X146.849 Y138.501 E12.64171
G1 X146.849 Y138.474 E12.64261
G1 X146.854 Y136.356 E12.71305
G1 X146.854 Y131.4 E12.87789
G1 X142.872 Y131.4 E13.01033
G1 X142.104 Y131.36 E13.03591
G1 X141.344 Y131.241 E13.0615
G1 X140.601 Y131.043 E13.08707
G1 X139.882 Y130.769 E13.11266
G1 X139.196 Y130.422 E13.13823
G1 X138.549 Y130.006 E13.16382
G1 X137.949 Y129.525 E13.18939
G1 X137.639 Y129.233 E13.20356
G1 X137.522 Y129.116 E13.20906
G1 X137.008 Y128.544 E13.23464
G1 X136.555 Y127.922 E13.26023
G1 X136.169 Y127.257 E13.2858
G1 X135.854 Y126.555 E13.3114
G1 X135.614 Y125.824 E13.33699
G1 X135.451 Y125.073 E13.36255
G1 X135.367 Y124.308 E13.38814
G1 X135.355 Y123.883 E13.40228
G1 X135.355 Y114.117 E13.7271
G1 X135.395 Y113.349 E13.75268
G1 X135.514 Y112.589 E13.77827
G1 X135.712 Y111.846 E13.80384
G1 X135.986 Y111.127 E13.82943
G1 X136.333 Y110.441 E13.855
G1 X136.614 Y110.003 E13.87231
G1 X136.555 Y109.922 E13.87564
G1 X136.169 Y109.257 E13.90122
G1 X135.854 Y108.555 E13.92681
G1 X135.614 Y107.824 E13.9524
G1 X135.451 Y107.073 E13.97796
G1 X135.367 Y106.308 E14.00356
G1 X135.355 Y105.883 E14.0177
G1 X135.355 Y96.117 E14.34252
G1 X135.395 Y95.349 E14.36809
G1 X135.514 Y94.589 E14.39368
G1 X135.712 Y93.846 E14.41925
G1 X135.986 Y93.127 E14.44485
G1 X136.333 Y92.441 E14.47042
G1 X136.749 Y91.794 E14.496
G0 F6000 X137.147 Y91.928
G1 F1200 X137.805 Y91.167 E14.52946
G1 X137.922 Y91.05 E14.53496
G1 X138.479 Y90.55 E14.55986
G1 X139.085 Y90.113 E14.58471
G1 X139.735 Y89.742 E14.6096
G1 X140.421 Y89.443 E14.63449
G1 X141.135 Y89.219 E14.65938
G1 X141.868 Y89.072 E14.68424
G1 X142.872 Y89 E14.71772
G1 X147.253 Y89 E14.86344
G1 X147.253 Y77.617 E15.24204
G1 X147.293 Y76.87 E15.26692
G1 X147.412 Y76.132 E15.29178
G1 X147.61 Y75.41 E15.31668
G1 X147.883 Y74.714 E15.34155
G1 X148.23 Y74.051 E15.36644
G1 X148.645 Y73.428 E15.39133
G1 X149.303 Y72.667 E15.42479
G1 X149.42 Y72.55 E15.4303
G1 X149.977 Y72.05 E15.45519
G1 X150.583 Y71.613 E15.48004
G1 X151.233 Y71.242 E15.50493
G1 X151.919 Y70.943 E15.52982
G1 X152.633 Y70.719 E15.55471
G1 X153.366 Y70.572 E15.57958
G1 X154.37 Y70.5 E15.61306
G1 X157.137 Y70.5 E15.70509
G1 X157.884 Y70.54 E15.72997
G1 X158.622 Y70.659 E15.75483
G1 X159.344 Y70.857 E15.77973
G1 X160.04 Y71.13 E15.8046
G1 X160.703 Y71.477 E15.82949
G1 X161.326 Y71.892 E15.85439
G1 X162.087 Y72.55 E15.88785
G1 X162.204 Y72.667 E15.89335
G1 X162.704 Y73.224 E15.91824
G1 X163.141 Y73.83 E15.94309
G1 X163.512 Y74.48 E15.96799
G1 X163.811 Y75.166 E15.99288
G1 X164.035 Y75.88 E16.01776
G1 X164.182 Y76.613 E16.04263
G1 X164.254 Y77.617 E16.07611
G1 X164.254 Y90.778 E16.51385
G1 X164.508 Y90.778 E16.52229
G1 X165.255 Y90.818 E16.54717
G1 X165.993 Y90.937 E16.57204
G1 X166.715 Y91.135 E16.59694
G1 X167.411 Y91.408 E16.6218
G1 X168.074 Y91.755 E16.64669
G1 X168.697 Y92.17 E16.67159
G1 X169.458 Y92.828 E16.70505
G1 X169.575 Y92.945 E16.71055
G1 X170.075 Y93.502 E16.73545
G1 X170.512 Y94.108 E16.7603
G1 X170.883 Y94.758 E16.78519
G1 X171.182 Y95.444 E16.81008
G1 X171.406 Y96.158 E16.83497
G1 X171.532 Y96.787 E16.85631
G1 X172.402 Y96.78 E16.88524
G1 X173.15 Y96.814 E16.91015
G1 X173.889 Y96.928 E16.93502
G1 X174.612 Y97.12 E16.9599
G1 X175.31 Y97.388 E16.98477
G1 X175.976 Y97.73 E17.00967
G1 X176.602 Y98.14 E17.03456
G1 X177.18 Y98.614 E17.05942
G1 X177.704 Y99.148 E17.0843
G1 X178.169 Y99.734 E17.10918
G1 X178.568 Y100.367 E17.13407
G1 X178.897 Y101.039 E17.15896
G1 X179.153 Y101.742 E17.18384
G1 X179.332 Y102.468 E17.20871
G1 X179.433 Y103.209 E17.23358
G1 X179.455 Y103.672 E17.249
G1 X179.593 Y112.626 E17.54685
G1 X179.594 Y112.735 E17.55047
G1 X179.593 Y121.628 E17.84626
G1 X179.553 Y122.375 E17.87114
G1 X179.433 Y123.113 E17.89601
G1 X179.236 Y123.835 E17.9209
G1 X178.962 Y124.531 E17.94578
G1 X178.616 Y125.194 E17.97065
G1 X178.201 Y125.816 E17.99552
G1 X177.543 Y126.577 E18.02898
G1 X177.392 Y126.728 E18.03608
G1 X176.835 Y127.228 E18.06098
G1 X176.229 Y127.665 E18.08583
G1 X175.579 Y128.036 E18.11072
G1 X174.893 Y128.335 E18.13561
G1 X174.179 Y128.559 E18.1605
G1 X173.446 Y128.706 E18.18536
G1 X172.442 Y128.778 E18.21884
G1 X171.526 Y128.778 E18.24931
G1 X171.467 Y129.146 E18.2617
G1 X171.269 Y129.868 E18.2866
G1 X170.996 Y130.564 E18.31147
G1 X170.649 Y131.227 E18.33636
G1 X170.235 Y131.85 E18.36124
G1 X169.576 Y132.611 E18.39472
G1 X169.459 Y132.728 E18.40022
G1 X168.902 Y133.228 E18.42512
G1 X168.296 Y133.665 E18.44997
G1 X167.646 Y134.036 E18.47486
G1 X166.96 Y134.335 E18.49975
G1 X166.246 Y134.559 E18.52464
G1 X165.513 Y134.706 E18.54951
G1 X164.509 Y134.778 E18.58298
G1 X164.254 Y134.778 E18.59147
G1 X164.254 Y142.383 E18.84441
G1 X164.214 Y143.13 E18.86929
G1 X164.095 Y143.868 E18.89415
G1 X163.897 Y144.59 E18.91905
G1 X163.624 Y145.286 E18.94392
G1 X163.277 Y145.949 E18.96881
