;FLAVOR:Marlin
;TIME:18064
;Filament used: 11.5296m
;Layer height: 0.2
;MINX:136.093
;MINY:94.161
;MINZ:0.2
;MAXX:195.094
;MAXY:137.792
;MAXZ:80
;Generated with Cura_SteamEngine 4.3.0
M140 S55
M105
M190 S55
M104 S205
M105
M109 S205
M82 ;absolute extrusion mode
M201 X500.00 Y500.00 Z100.00 E5000.00 ;Setup machine max acceleration
M203 X500.00 Y500.00 Z10.00 E50.00 ;Setup machine max feedrate
M204 P500.00 R1000.00 T500.00 ;Setup Print/Retract/Travel acceleration
M205 X8.00 Y8.00 Z0.40 E5.00 ;Setup Jerk
M220 S100 ;Reset Feedrate
M221 S100 ;Reset Flowrate

G28 ;Home

G92 E0 ;Reset Extruder
G1 Z2.0 F3000 ;Move Z Axis up
G1 X10.1 Y20 Z0.28 F5000.0 ;Move to start position
G1 X10.1 Y200.0 Z0.28 F1500.0 E15 ;Draw the first line
G1 X10.4 Y200.0 Z0.28 F5000.0 ;Move to side a little
G1 X10.4 Y20 Z0.28 F1500.0 E30 ;Draw the second line
G92 E0 ;Reset Extruder
G1 Z2.0 F3000 ;Move Z Axis up

G92 E0
G92 E0
G1 F2700 E-5
;LAYER_COUNT:400
;LAYER:0
M107
G0 F6000 X137.923 Y105.112 Z0.2
;TYPE:SKIRT
G1 F2700 E0
G1 F1200 X138.331 Y104.664 E0.02015
G1 X138.447 Y104.546 E0.02566
G1 X139.028 Y104.012 E0.0519
G1 X139.66 Y103.539 E0.07816
G1 X140.337 Y103.132 E0.10443
G1 X141.052 Y102.796 E0.13071
G1 X141.797 Y102.534 E0.15697
G1 X142.565 Y102.349 E0.18325
G1 X143.092 Y102.277 E0.20094
G1 X143.092 Y102.128 E0.2059
G1 X143.132 Y101.339 E0.23217
G1 X143.251 Y100.559 E0.25841
G1 X143.449 Y99.794 E0.2847
G1 X143.723 Y99.054 E0.31094
G1 X144.071 Y98.345 E0.33721
G1 X144.489 Y97.674 E0.36351
G1 X144.972 Y97.05 E0.38975
G1 X145.353 Y96.636 E0.40846
G1 X145.469 Y96.519 E0.41394
G1 X146.053 Y95.987 E0.44022
G1 X146.687 Y95.517 E0.46647
G1 X147.366 Y95.114 E0.49273
G1 X148.082 Y94.781 E0.51899
G1 X148.828 Y94.522 E0.54526
G1 X149.596 Y94.34 E0.57151
G1 X150.379 Y94.236 E0.59778
G1 X150.949 Y94.211 E0.61676
G1 X153.44 Y94.192 E0.69961
G1 X163.775 Y94.192 E1.04335
G1 X164.564 Y94.232 E1.06963
G1 X165.344 Y94.351 E1.09587
G1 X165.534 Y94.4 E1.1024
G1 X166.033 Y94.284 E1.11944
G1 X166.817 Y94.184 E1.14573
G1 X167.412 Y94.161 E1.16553
G1 X180.177 Y94.161 E1.5901
G1 X180.966 Y94.201 E1.61637
G1 X181.746 Y94.32 E1.64262
G1 X182.511 Y94.518 E1.6689
G1 X183.251 Y94.792 E1.69514
G1 X183.96 Y95.14 E1.72141
G1 X184.631 Y95.558 E1.74771
G1 X185.255 Y96.041 E1.77395
G1 X185.692 Y96.446 E1.79377
G1 X185.809 Y96.563 E1.79927
G1 X186.339 Y97.149 E1.82555
G1 X186.806 Y97.785 E1.85179
G1 X187.207 Y98.465 E1.87805
G1 X187.537 Y99.183 E1.90433
G1 X187.792 Y99.93 E1.93059
G1 X187.971 Y100.699 E1.95685
G1 X188.071 Y101.483 E1.98313
G1 X188.094 Y102.077 E2.00291
G1 X188.094 Y102.223 E2.00776
G1 X188.729 Y102.32 E2.02913
G1 X189.494 Y102.518 E2.05541
G1 X190.234 Y102.792 E2.08166
G1 X190.943 Y103.14 E2.10792
G1 X191.614 Y103.558 E2.13422
G1 X192.238 Y104.041 E2.16046
G1 X192.652 Y104.422 E2.17918
G1 X192.769 Y104.538 E2.18466
G1 X193.301 Y105.122 E2.21093
G1 X193.771 Y105.756 E2.23718
G1 X194.174 Y106.435 E2.26344
G1 X194.507 Y107.151 E2.28971
G1 X194.766 Y107.897 E2.31597
G1 X194.948 Y108.665 E2.34222
G1 X195.052 Y109.448 E2.36849
G1 X195.077 Y110.002 E2.38694
G1 X195.094 Y111.768 E2.44568
G1 X195.061 Y112.557 E2.47194
G1 X194.949 Y113.339 E2.49822
G1 X194.759 Y114.105 E2.52447
G1 X194.492 Y114.848 E2.55073
G1 X194.151 Y115.561 E2.57701
G1 X193.74 Y116.235 E2.60327
G1 X193.263 Y116.864 E2.62953
G1 X192.809 Y117.358 E2.65184
G1 X192.691 Y117.476 E2.65739
G1 X192.105 Y118.006 E2.68367
G1 X191.469 Y118.473 E2.70992
G1 X190.789 Y118.874 E2.73617
G1 X190.071 Y119.204 E2.76245
G1 X189.324 Y119.459 E2.78871
G1 X188.555 Y119.638 E2.81497
G1 X187.771 Y119.738 E2.84126
G1 X187.176 Y119.761 E2.86106
G1 X178.095 Y119.761 E3.1631
G1 X178.095 Y129.821 E3.49769
G1 X178.055 Y130.61 E3.52397
G1 X177.936 Y131.39 E3.55021
G1 X177.738 Y132.155 E3.57649
G1 X177.464 Y132.895 E3.60274
G1 X177.116 Y133.604 E3.62901
G1 X176.698 Y134.275 E3.6553
G1 X176.215 Y134.899 E3.68155
G1 X175.834 Y135.313 E3.70026
G1 X175.718 Y135.43 E3.70574
G1 X175.134 Y135.962 E3.73202
G1 X174.5 Y136.432 E3.75827
G1 X173.821 Y136.835 E3.78453
G1 X173.105 Y137.168 E3.81079
G1 X172.359 Y137.427 E3.83706
G1 X171.591 Y137.609 E3.86331
G1 X170.808 Y137.713 E3.88958
G1 X170.244 Y137.738 E3.90836
G1 X167.477 Y137.761 E4.00039
G1 X166.688 Y137.727 E4.02666
G1 X165.906 Y137.614 E4.05294
G1 X165.657 Y137.552 E4.06147
G1 X165.154 Y137.669 E4.07865
G1 X164.37 Y137.769 E4.10493
G1 X163.775 Y137.792 E4.12474
G1 X161.008 Y137.792 E4.21677
G1 X160.219 Y137.752 E4.24305
G1 X159.439 Y137.633 E4.26929
G1 X158.674 Y137.435 E4.29557
G1 X157.934 Y137.161 E4.32182
G1 X157.225 Y136.813 E4.34809
G1 X156.554 Y136.395 E4.37438
G1 X155.93 Y135.912 E4.40062
G1 X155.493 Y135.507 E4.42044
G1 X155.376 Y135.39 E4.42594
G1 X154.846 Y134.804 E4.45222
G1 X154.379 Y134.168 E4.47847
G1 X153.978 Y133.488 E4.50472
G1 X153.648 Y132.77 E4.53101
G1 X153.393 Y132.023 E4.55726
G1 X153.214 Y131.254 E4.58352
G1 X153.114 Y130.47 E4.60981
G1 X153.091 Y129.875 E4.62961
G1 X153.092 Y119.792 E4.96497
G1 X144.027 Y119.792 E5.26648
G1 X143.238 Y119.752 E5.29275
G1 X142.458 Y119.633 E5.319
G1 X141.693 Y119.435 E5.34528
G1 X140.953 Y119.161 E5.37152
G1 X140.244 Y118.813 E5.39779
G1 X139.573 Y118.395 E5.42409
G1 X138.949 Y117.912 E5.45033
G1 X138.535 Y117.531 E5.46905
G1 X138.418 Y117.415 E5.47453
G1 X137.886 Y116.831 E5.5008
G1 X137.416 Y116.197 E5.52705
G1 X137.013 Y115.518 E5.55331
G1 X136.68 Y114.802 E5.57958
G1 X136.421 Y114.056 E5.60584
G1 X136.239 Y113.288 E5.63209
G1 X136.135 Y112.505 E5.65836
G1 X136.11 Y111.952 E5.67677
G1 X136.093 Y110.208 E5.73478
G1 X136.126 Y109.419 E5.76105
G1 X136.238 Y108.637 E5.78732
G1 X136.428 Y107.871 E5.81357
G1 X136.695 Y107.128 E5.83983
G1 X137.035 Y106.415 E5.8661
G1 X137.446 Y105.741 E5.89236
G1 X137.923 Y105.112 E5.91862
G0 F6000 X138.321 Y105.263
G1 F1200 X138.616 Y104.944 E5.93307
G1 X138.732 Y104.826 E5.93857
G1 X139.299 Y104.307 E5.96414
G1 X139.917 Y103.849 E5.98972
G1 X140.579 Y103.457 E6.01531
G1 X141.278 Y103.136 E6.04089
G1 X142.007 Y102.89 E6.06648
G1 X142.757 Y102.721 E6.09205
G1 X143.492 Y102.633 E6.11668
G1 X143.492 Y102.128 E6.13347
G1 X143.532 Y101.36 E6.15905
G1 X143.651 Y100.6 E6.18464
G1 X143.849 Y99.857 E6.21021
G1 X144.123 Y99.138 E6.2358
G1 X144.47 Y98.452 E6.26137
G1 X144.886 Y97.805 E6.28695
G1 X145.367 Y97.205 E6.31253
G1 X145.637 Y96.918 E6.32564
G1 X145.753 Y96.801 E6.33112
G1 X146.322 Y96.284 E6.35669
G1 X146.942 Y95.828 E6.38229
G1 X147.606 Y95.439 E6.40788
G1 X148.306 Y95.122 E6.43344
G1 X149.036 Y94.879 E6.45903
G1 X149.787 Y94.712 E6.48462
G1 X150.551 Y94.625 E6.51019
G1 X150.952 Y94.611 E6.52354
G1 X153.443 Y94.592 E6.60639
G1 X163.775 Y94.592 E6.95004
G1 X164.543 Y94.632 E6.97561
G1 X165.303 Y94.751 E7.0012
G1 X165.521 Y94.809 E7.0087
G1 X166.222 Y94.657 E7.03256
G1 X166.987 Y94.573 E7.05816
G1 X167.412 Y94.561 E7.0723
G1 X180.177 Y94.561 E7.49686
G1 X180.945 Y94.601 E7.52244
G1 X181.705 Y94.72 E7.54803
G1 X182.448 Y94.918 E7.5736
G1 X183.167 Y95.192 E7.59919
G1 X183.853 Y95.539 E7.62476
G1 X184.5 Y95.955 E7.65035
G1 X185.1 Y96.436 E7.67592
G1 X185.41 Y96.728 E7.69009
G1 X185.527 Y96.845 E7.69559
G1 X186.041 Y97.417 E7.72117
G1 X186.494 Y98.039 E7.74676
G1 X186.88 Y98.704 E7.77234
G1 X187.195 Y99.406 E7.79793
G1 X187.435 Y100.137 E7.82352
G1 X187.598 Y100.888 E7.84908
G1 X187.682 Y101.653 E7.87467
G1 X187.694 Y102.077 E7.88878
G1 X187.694 Y102.589 E7.90581
G1 X187.928 Y102.601 E7.9136
G1 X188.688 Y102.72 E7.93919
G1 X189.431 Y102.918 E7.96477
G1 X190.15 Y103.192 E7.99036
G1 X190.836 Y103.539 E8.01593
G1 X191.483 Y103.955 E8.04151
G1 X192.083 Y104.436 E8.06709
G1 X192.37 Y104.706 E8.08019
G1 X192.487 Y104.822 E8.08567
G1 X193.004 Y105.391 E8.11124
G1 X193.46 Y106.011 E8.13684
G1 X193.849 Y106.675 E8.16244
G1 X194.166 Y107.375 E8.18799
G1 X194.409 Y108.105 E8.21358
G1 X194.576 Y108.856 E8.23917
G1 X194.663 Y109.62 E8.26475
G1 X194.677 Y110.006 E8.27759
G1 X194.694 Y111.772 E8.33633
G1 X194.661 Y112.54 E8.3619
G1 X194.549 Y113.301 E8.38749
G1 X194.358 Y114.046 E8.41307
G1 X194.091 Y114.768 E8.43867
G1 X193.751 Y115.457 E8.46422
G1 X193.341 Y116.108 E8.48981
G1 X192.866 Y116.713 E8.5154
G1 X192.527 Y117.076 E8.53192
G1 X192.409 Y117.194 E8.53747
G1 X191.837 Y117.708 E8.56304
G1 X191.215 Y118.161 E8.58864
G1 X190.55 Y118.547 E8.61421
G1 X189.848 Y118.862 E8.6398
G1 X189.117 Y119.102 E8.66539
G1 X188.366 Y119.265 E8.69095
G1 X187.601 Y119.349 E8.71655
G1 X187.176 Y119.361 E8.73069
G1 X177.695 Y119.361 E9.04603
G1 X177.695 Y129.821 E9.39393
G1 X177.655 Y130.589 E9.41951
G1 X177.536 Y131.349 E9.44509
G1 X177.338 Y132.092 E9.47067
G1 X177.064 Y132.811 E9.49626
G1 X176.717 Y133.497 E9.52183
G1 X176.301 Y134.144 E9.54741
G1 X175.82 Y134.744 E9.57299
G1 X175.55 Y135.031 E9.5861
G1 X175.434 Y135.148 E9.59158
G1 X174.865 Y135.665 E9.61715
G1 X174.245 Y136.121 E9.64274
G1 X173.581 Y136.51 E9.66834
G1 X172.881 Y136.827 E9.6939
G1 X172.151 Y137.07 E9.71949
G1 X171.4 Y137.237 E9.74508
G1 X170.636 Y137.324 E9.77065
G1 X170.241 Y137.338 E9.7838
G1 X167.474 Y137.361 E9.87583
G1 X166.705 Y137.327 E9.90143
G1 X165.944 Y137.214 E9.92702
G1 X165.669 Y137.143 E9.93647
G1 X164.965 Y137.296 E9.96043
G1 X164.2 Y137.38 E9.98603
G1 X163.775 Y137.392 E10.00017
G1 X161.008 Y137.392 E10.0922
G1 X160.24 Y137.352 E10.11778
G1 X159.48 Y137.233 E10.14336
G1 X158.737 Y137.035 E10.16894
G1 X158.018 Y136.761 E10.19453
G1 X157.332 Y136.414 E10.2201
G1 X156.685 Y135.998 E10.24568
G1 X156.085 Y135.517 E10.27126
G1 X155.775 Y135.225 E10.28542
G1 X155.658 Y135.108 E10.29093
G1 X155.144 Y134.536 E10.3165
G1 X154.691 Y133.914 E10.3421
G1 X154.305 Y133.249 E10.36767
G1 X153.99 Y132.547 E10.39326
G1 X153.75 Y131.816 E10.41885
G1 X153.587 Y131.065 E10.44441
G1 X153.503 Y130.3 E10.47001
G1 X153.491 Y129.875 E10.48415
G1 X153.492 Y119.392 E10.83282
G1 X144.027 Y119.392 E11.14762
G1 X143.259 Y119.352 E11.1732
G1 X142.499 Y119.233 E11.19879
G1 X141.756 Y119.035 E11.22436
G1 X141.037 Y118.761 E11.24996
G1 X140.351 Y118.414 E11.27552
G1 X139.704 Y117.998 E11.30111
G1 X139.104 Y117.517 E11.32669
G1 X138.817 Y117.247 E11.33979
G1 X138.7 Y117.131 E11.34527
G1 X138.183 Y116.562 E11.37084
G1 X137.727 Y115.942 E11.39644
G1 X137.338 Y115.278 E11.42203
G1 X137.021 Y114.578 E11.44759
G1 X136.778 Y113.848 E11.47318
G1 X136.611 Y113.097 E11.49877
G1 X136.524 Y112.333 E11.52435
G1 X136.51 Y111.948 E11.53716
G1 X136.493 Y110.204 E11.59517
G1 X136.526 Y109.436 E11.62074
G1 X136.638 Y108.675 E11.64632
G1 X136.828 Y107.93 E11.67189
G1 X137.095 Y107.208 E11.69749
G1 X137.435 Y106.518 E11.72308
G1 X137.845 Y105.868 E11.74864
G1 X138.321 Y105.263 E11.77424
G0 F6000 X138.244 Y105.998
G1 F1200 X138.901 Y105.225 E11.80799
G1 X139.017 Y105.107 E11.81349
G1 X139.569 Y104.602 E11.83837
G1 X140.172 Y104.159 E11.86326
G1 X140.819 Y103.783 E11.88815
G1 X141.502 Y103.478 E11.91303
G1 X142.214 Y103.248 E11.93791
G1 X142.946 Y103.095 E11.96279
G1 X143.892 Y103.018 E11.99435
G1 X143.892 Y102.128 E12.02395
G1 X143.932 Y101.381 E12.04884
G1 X144.051 Y100.643 E12.0737
G1 X144.249 Y99.921 E12.0986
G1 X144.522 Y99.225 E12.12347
G1 X144.869 Y98.562 E12.14835
G1 X145.284 Y97.939 E12.17325
G1 X145.921 Y97.2 E12.2057
G1 X146.037 Y97.083 E12.21118
G1 X146.591 Y96.58 E12.23607
G1 X147.196 Y96.14 E12.26095
G1 X147.844 Y95.767 E12.28582
G1 X148.529 Y95.465 E12.31072
G1 X149.242 Y95.238 E12.33561
G1 X149.974 Y95.088 E12.36046
G1 X150.955 Y95.011 E12.39319
G1 X153.446 Y94.992 E12.47604
G1 X163.775 Y94.992 E12.81958
G1 X164.522 Y95.032 E12.84447
G1 X165.26 Y95.151 E12.86933
G1 X165.531 Y95.225 E12.87867
G1 X165.675 Y95.18 E12.88369
G1 X166.408 Y95.033 E12.90855
G1 X167.412 Y94.961 E12.94203
G1 X180.177 Y94.961 E13.3666
G1 X180.924 Y95.001 E13.39148
G1 X181.662 Y95.12 E13.41634
G1 X182.384 Y95.318 E13.44124
G1 X183.08 Y95.591 E13.46611
G1 X183.743 Y95.938 E13.491
G1 X184.366 Y96.353 E13.5159
G1 X185.127 Y97.011 E13.54936
G1 X185.244 Y97.128 E13.55486
G1 X185.744 Y97.685 E13.57976
G1 X186.181 Y98.291 E13.6046
G1 X186.552 Y98.941 E13.6295
G1 X186.851 Y99.627 E13.65439
G1 X187.075 Y100.341 E13.67928
G1 X187.222 Y101.074 E13.70414
G1 X187.294 Y102.077 E13.73759
G1 X187.294 Y102.968 E13.76722
G1 X187.907 Y103.001 E13.78764
G1 X188.645 Y103.12 E13.8125
G1 X189.367 Y103.318 E13.8374
G1 X190.063 Y103.591 E13.86227
G1 X190.726 Y103.938 E13.88716
G1 X191.349 Y104.353 E13.91206
G1 X192.088 Y104.99 E13.94451
G1 X192.205 Y105.106 E13.94999
G1 X192.708 Y105.66 E13.97487
G1 X193.148 Y106.265 E13.99976
G1 X193.521 Y106.913 E14.02462
G1 X193.823 Y107.598 E14.04952
G1 X194.05 Y108.311 E14.07441
G1 X194.2 Y109.043 E14.09926
G1 X194.277 Y110.01 E14.13153
G1 X194.294 Y111.776 E14.19027
G1 X194.261 Y112.523 E14.21514
G1 X194.149 Y113.263 E14.24003
G1 X193.958 Y113.986 E14.2649
G1 X193.691 Y114.685 E14.28979
G1 X193.351 Y115.351 E14.31466
G1 X192.942 Y115.978 E14.33956
G1 X192.244 Y116.793 E14.37525
G1 X192.126 Y116.911 E14.3808
G1 X191.569 Y117.411 E14.40569
G1 X190.963 Y117.848 E14.43054
G1 X190.313 Y118.219 E14.45544
G1 X189.627 Y118.518 E14.48032
G1 X188.913 Y118.742 E14.50521
G1 X188.18 Y118.889 E14.53008
G1 X187.176 Y118.961 E14.56356
G1 X177.295 Y118.961 E14.8922
G1 X177.295 Y129.821 E15.25341
G1 X177.255 Y130.568 E15.27829
G1 X177.136 Y131.306 E15.30315
G1 X176.938 Y132.028 E15.32805
G1 X176.665 Y132.724 E15.35292
G1 X176.318 Y133.387 E15.37781
G1 X175.903 Y134.01 E15.4027
G1 X175.266 Y134.749 E15.43515
G1 X175.15 Y134.866 E15.44063
G1 X174.596 Y135.369 E15.46552
G1 X173.991 Y135.809 E15.4904
G1 X173.343 Y136.182 E15.51527
G1 X172.658 Y136.484 E15.54017
G1 X171.945 Y136.711 E15.56506
G1 X171.213 Y136.861 E15.58991
G1 X170.237 Y136.938 E15.62247
G1 X167.47 Y136.961 E15.71451
G1 X166.723 Y136.927 E15.73938
G1 X165.983 Y136.814 E15.76428
G1 X165.657 Y136.727 E15.7755
G1 X165.512 Y136.773 E15.78056
G1 X164.779 Y136.92 E15.80542
G1 X163.775 Y136.992 E15.8389
G1 X161.008 Y136.992 E15.93093
G1 X160.261 Y136.952 E15.95581
G1 X159.523 Y136.833 E15.98068
G1 X158.801 Y136.635 E16.00558
G1 X158.105 Y136.362 E16.03044
G1 X157.442 Y136.015 E16.05533
G1 X156.819 Y135.6 E16.08023
G1 X156.058 Y134.942 E16.11369
G1 X155.941 Y134.825 E16.11919
G1 X155.441 Y134.268 E16.14409
G1 X155.004 Y133.662 E16.16894
G1 X154.633 Y133.012 E16.19383
G1 X154.334 Y132.326 E16.21872
G1 X154.11 Y131.612 E16.24361
G1 X153.963 Y130.879 E16.26847
G1 X153.891 Y129.875 E16.30195
G1 X153.892 Y118.992 E16.66392
G1 X144.027 Y118.992 E16.99203
G1 X143.28 Y118.952 E17.01692
G1 X142.542 Y118.833 E17.04178
G1 X141.82 Y118.635 E17.06668
G1 X141.124 Y118.362 E17.09154
G1 X140.461 Y118.015 E17.11643
G1 X139.838 Y117.6 E17.14133
G1 X139.099 Y116.963 E17.17378
G1 X138.982 Y116.847 E17.17926
G1 X138.479 Y116.293 E17.20415
G1 X138.039 Y115.688 E17.22903
G1 X137.666 Y115.04 E17.2539
G1 X137.364 Y114.355 E17.2788
G1 X137.137 Y113.642 E17.30369
G1 X136.987 Y112.91 E17.32854
G1 X136.91 Y111.944 E17.36077
G1 X136.893 Y110.2 E17.41878
G1 X136.926 Y109.453 E17.44365
G1 X137.038 Y108.713 E17.46854
G1 X137.229 Y107.99 E17.49341
G1 X137.495 Y107.291 E17.51829
G1 X137.835 Y106.624 E17.54319
G1 X138.244 Y105.998 E17.56806
G0 F6000 X138.643 Y106.133
G1 F1200 X139.186 Y105.505 E17.59567
G1 X139.302 Y105.387 E17.60117
G1 X139.839 Y104.898 E17.62533
G1 X140.427 Y104.471 E17.6495
G1 X141.058 Y104.111 E17.67366
G1 X141.724 Y103.822 E17.69781
G1 X142.418 Y103.609 E17.72196
G1 X143.132 Y103.473 E17.74613
G1 X143.943 Y103.414 E17.77318
G1 X144.292 Y103.41 E17.78478
G1 X144.292 Y102.128 E17.82742
G1 X144.332 Y101.403 E17.85157
G1 X144.451 Y100.686 E17.87575
G1 X144.649 Y99.987 E17.89991
G1 X144.922 Y99.314 E17.92407
G1 X145.267 Y98.675 E17.94822
G1 X145.681 Y98.078 E17.97238
G1 X146.205 Y97.481 E17.9988
G1 X146.321 Y97.364 E18.00428
G1 X146.86 Y96.877 E18.02844
G1 X147.449 Y96.453 E18.05258
G1 X148.082 Y96.095 E18.07677
G1 X148.75 Y95.809 E18.10094
G1 X149.445 Y95.599 E18.12509
G1 X150.159 Y95.466 E18.14924
G1 X150.958 Y95.411 E18.17588
G1 X153.449 Y95.392 E18.25873
G1 X163.775 Y95.392 E18.60218
G1 X164.5 Y95.432 E18.62633
G1 X165.217 Y95.551 E18.6505
G1 X165.54 Y95.642 E18.66166
G1 X165.876 Y95.542 E18.67332
G1 X166.591 Y95.412 E18.69749
G1 X167.412 Y95.361 E18.72485
