; generated by PrusaSlicer 2.3.1+win64 on 2021-04-30 at 09:46:17 UTC


;
;

;
;
; 

; external perimeters extrusion width = 0.45mm
; perimeters extrusion width = 0.45mm
; infill extrusion width = 0.45mm
; solid infill extrusion width = 0.45mm
; top infill extrusion width = 0.40mm
; first layer extrusion width = 0.42mm

M73 P0 R78
M201 X1250 Y1250 Z400 E5000 ; sets maximum accelerations, mm/sec^2
M203 X180 Y180 Z12 E80 ; sets maximum feedrates, mm/sec
M204 P1250 R1250 T1250 ; sets acceleration (P, T) and retract acceleration (R), mm/sec^2
M205 X8.00 Y8.00 Z2.00 E10.00 ; sets the jerk limits, mm/sec
M205 S0 T0 ; sets the minimum extruding and travel feed rate, mm/sec
M107
;TYPE:Custom
G90 ; use absolute coordinates
M83 ; extruder relative mode
M104 S170 ; set extruder temp for bed leveling
M140 S60 ; set bed temp
M109 R170 ; wait for bed leveling temp
M190 S60 ; wait for bed temp
G28 ; home all without mesh bed level
G29 ; mesh bed leveling 
M104 S215 ; set extruder temp
G92 E0.0
G1 Y-2.0 X179 F2400
M73 P0 R77
G1 Z3 F720
M109 S215 ; wait for extruder temp

; intro line
G1 X170 F1000
G1 Z0.2 F720
G1 X110.0 E8.0 F900
G1 X40.0 E10.0 F700
G92 E0.0

M221 S95 ; set flow
G21 ; set units to millimeters
G90 ; use absolute coordinates
M83 ; use relative distances for extrusion
M900 K0.2 ; Filament gcode LA 1.5
; ; Filament gcode LA 1.0
;LAYER_CHANGE
;Z:0.2
;HEIGHT:0.2
;BEFORE_LAYER_CHANGE
G92 E0.0
;0.2


G1 E-3.20000 F4200.000
G1 Z0.200 F9000.000
;AFTER_LAYER_CHANGE
;0.2
G1 Z0.400
G1 X78.323 Y68.545
G1 Z0.200
G1 E3.20000 F2400.000
M204 S800
;TYPE:Skirt
;WIDTH:0.42
G1 F1200.000
G1 X78.660 Y67.995 E0.02024
G1 X79.133 Y67.555 E0.02024
G1 X79.707 Y67.259 E0.02024
G1 X80.339 Y67.128 E0.02024
G1 X99.504 Y67.123 E0.60090
G1 X100.388 Y67.295 E0.02825
G1 X101.142 Y67.781 E0.02813
G1 X101.662 Y68.513 E0.02813
G1 X101.874 Y69.385 E0.02813
G1 X101.877 Y110.511 E1.28950
G1 X101.677 Y111.455 E0.03024
G1 X101.335 Y112.011 E0.02048
G1 X100.854 Y112.454 E0.02048
G1 X100.272 Y112.748 E0.02048
G1 X99.631 Y112.873 E0.02048
G1 X80.477 Y112.877 E0.60054
G1 X79.545 Y112.677 E0.02989
G1 X78.977 Y112.325 E0.02095
G1 X78.529 Y111.829 E0.02095
G1 X78.236 Y111.225 E0.02107
G1 X78.124 Y110.566 E0.02095
G1 X78.123 Y69.489 E1.28795
G1 X78.311 Y68.604 E0.02836
M204 S1250
G1 E-2.24000 F4200.000
;WIPE_START
G1 F7200.000
G1 X78.660 Y67.995 E-0.38923
G1 X79.133 Y67.555 E-0.35773
G1 X79.398 Y67.419 E-0.16504
;WIPE_END
G1 E-0.04800 F4200.000
G1 Z0.400 F9000.000
G1 X101.013 Y64.999
G1 Z0.200
G1 E3.20000 F2400.000
M204 S800
G1 F1200.000
G1 X99.986 Y64.790 E0.03286
G1 X79.946 Y64.792 E0.62836
G1 X78.756 Y65.088 E0.03842
G1 X77.717 Y65.662 E0.03723
G1 X76.814 Y66.530 E0.03927
G1 X76.142 Y67.618 E0.04012
G1 X75.787 Y68.989 E0.04440
G1 X75.787 Y111.010 E1.31752
G1 X76.088 Y112.245 E0.03986
G1 X76.634 Y113.244 E0.03570
G1 X77.530 Y114.186 E0.04078
G1 X78.618 Y114.858 E0.04011
G1 X79.989 Y115.213 E0.04440
G1 X100.010 Y115.213 E0.62773
G1 X101.245 Y114.912 E0.03986
G1 X102.244 Y114.366 E0.03570
G1 X103.186 Y113.470 E0.04078
G1 X103.858 Y112.382 E0.04011
G1 X104.213 Y111.011 E0.04440
G1 X104.213 Y105.079 E0.18599
G1 X103.724 Y103.367 E0.05581
G1 X103.226 Y102.591 E0.02892
G1 X102.612 Y101.923 E0.02846
G1 X102.065 Y101.644 E0.01925
M204 S1250
G1 X101.688 Y101.451 F9000.000
M204 S800
G1 F1200.000
G1 X91.253 Y96.119 E0.36742
G1 X89.801 Y95.791 E0.04667
G1 X88.213 Y95.786 E0.04978
G1 X88.213 Y84.214 E0.36283
G1 X89.801 Y84.209 E0.04978
G1 X91.248 Y83.883 E0.04652
G1 X101.686 Y78.636 E0.36630
M204 S1250
G1 X102.063 Y78.446 F9000.000
M204 S800
G1 F1200.000
G1 X102.216 Y78.370 E0.00534
G1 X103.211 Y77.426 E0.04299
G1 X103.892 Y76.244 E0.04279
G1 X104.214 Y74.904 E0.04321
G1 X104.171 Y68.689 E0.19488
G1 X103.784 Y67.454 E0.04059
G1 X103.057 Y66.384 E0.04056
G1 X101.936 Y65.423 E0.04627
G1 X101.013 Y64.999 E0.03186
M204 S1250
G1 E-2.24000 F4200.000
;WIPE_START
G1 F7200.000
G1 X101.936 Y65.423 E-0.56308
G1 X102.414 Y65.833 E-0.34892
;WIPE_END
G1 E-0.04800 F4200.000
G1 Z0.400 F9000.000
G1 X102.063 Y78.005
G1 Z0.200
G1 E3.20000 F2400.000
M204 S800
G1 F1200.000
G1 X102.899 Y77.213 E0.03611
G1 X103.533 Y76.127 E0.03942
G1 X103.837 Y74.883 E0.04016
G1 X103.795 Y68.721 E0.19322
G1 X103.433 Y67.595 E0.03706
G1 X102.792 Y66.654 E0.03571
G1 X101.712 Y65.728 E0.04462
G1 X100.878 Y65.352 E0.02868
G1 X99.967 Y65.167 E0.02914
G1 X80.014 Y65.164 E0.62562
M204 S1250
M204 S800
G1 X78.871 Y65.448 E0.03692
G1 X77.961 Y65.951 E0.03262
G1 X77.093 Y66.785 E0.03772
G1 X76.478 Y67.791 E0.03697
G1 X76.164 Y69.013 E0.03957
G1 X76.164 Y110.986 E1.31605
G1 X76.448 Y112.129 E0.03691
G1 X76.951 Y113.039 E0.03262
G1 X77.785 Y113.907 E0.03772
G1 X78.791 Y114.522 E0.03697
G1 X80.013 Y114.836 E0.03957
G1 X99.986 Y114.836 E0.62625
G1 X101.129 Y114.552 E0.03691
G1 X102.039 Y114.049 E0.03262
G1 X102.907 Y113.215 E0.03772
G1 X103.522 Y112.209 E0.03697
G1 X103.836 Y110.987 E0.03957
G1 X103.836 Y105.105 E0.18442
G1 X103.391 Y103.547 E0.05081
G1 X102.937 Y102.834 E0.02651
G1 X102.357 Y102.203 E0.02687
G1 X102.065 Y102.054 E0.01027
M204 S1250
G1 X101.688 Y101.862 F9000.000
M204 S800
G1 F1200.000
G1 X91.104 Y96.466 E0.37251
G1 X89.740 Y96.164 E0.04378
G1 X87.836 Y96.164 E0.05970
G1 X87.836 Y83.836 E0.38651
G1 X89.740 Y83.836 E0.05970
G1 X91.100 Y83.536 E0.04367
G1 X101.686 Y78.214 E0.37150
M204 S1250
G1 X101.686 Y77.792 F9000.000
M204 S800
G1 F1200.000
G1 X90.952 Y83.188 E0.37670
G1 X89.720 Y83.459 E0.03956
G1 X87.459 Y83.459 E0.07088
G1 X87.459 Y96.541 E0.41016
G1 X89.720 Y96.541 E0.07088
G1 X90.954 Y96.813 E0.03963
G1 X101.688 Y102.273 E0.37759
M204 S1250
G1 X102.065 Y102.465 F9000.000
M204 S800
G1 F1200.000
G1 X102.103 Y102.484 E0.00134
G1 X102.628 Y103.051 E0.02424
G1 X103.059 Y103.727 E0.02511
G1 X103.459 Y105.131 E0.04580
G1 X103.459 Y110.962 E0.18283
G1 X103.165 Y112.085 E0.03640
G1 X102.600 Y112.995 E0.03358
G1 X101.797 Y113.759 E0.03474
G1 X101.012 Y114.193 E0.02813
G1 X99.962 Y114.459 E0.03396
G1 X80.038 Y114.459 E0.62473
G1 X78.915 Y114.165 E0.03640
G1 X78.005 Y113.600 E0.03358
G1 X77.241 Y112.797 E0.03474
G1 X76.807 Y112.012 E0.02813
G1 X76.541 Y110.962 E0.03396
G1 X76.541 Y69.038 E1.31452
M73 P1 R77
G1 X76.835 Y67.915 E0.03640
G1 X77.400 Y67.005 E0.03358
G1 X78.203 Y66.241 E0.03474
G1 X78.988 Y65.807 E0.02813
G1 X80.038 Y65.541 E0.03397
G1 X99.949 Y65.544 E0.62428
M204 S1250
M204 S800
G1 X100.746 Y65.705 E0.02549
G1 X101.488 Y66.033 E0.02545
G1 X102.528 Y66.924 E0.04295
G1 X103.084 Y67.739 E0.03093
G1 X103.418 Y68.753 E0.03348
G1 X103.459 Y74.861 E0.19152
G1 X103.174 Y76.010 E0.03710
G1 X102.618 Y76.960 E0.03450
G1 X102.063 Y77.493 E0.02414
M204 S1250
G1 X101.686 Y77.344 F9000.000
M204 S800
G1 F1200.000
G1 X101.631 Y77.397 E0.00239
G1 X90.804 Y82.840 E0.37997
G1 X89.700 Y83.082 E0.03544
G1 X87.082 Y83.082 E0.08207
G1 X87.082 Y96.918 E0.43380
G1 X89.700 Y96.918 E0.08207
G1 X90.805 Y97.160 E0.03548
G1 X101.688 Y102.683 E0.38265
M204 S1250
G1 X102.065 Y102.998 F9000.000
M204 S800
G1 F1200.000
G1 X102.339 Y103.295 E0.01267
G1 X102.726 Y103.905 E0.02264
G1 X103.082 Y105.158 E0.04084
G1 X103.082 Y110.937 E0.18122
G1 X102.808 Y111.960 E0.03320
G1 X102.321 Y112.740 E0.02882
G1 X101.591 Y113.443 E0.03179
G1 X100.893 Y113.835 E0.02510
G1 X99.938 Y114.082 E0.03093
G1 X80.063 Y114.082 E0.62317
G1 X79.040 Y113.808 E0.03320
G1 X78.260 Y113.321 E0.02882
G1 X77.557 Y112.591 E0.03179
G1 X77.165 Y111.893 E0.02510
G1 X76.918 Y110.938 E0.03093
G1 X76.918 Y69.063 E1.31296
G1 X77.192 Y68.040 E0.03320
G1 X77.679 Y67.260 E0.02882
G1 X78.409 Y66.557 E0.03179
G1 X79.107 Y66.165 E0.02510
G1 X80.062 Y65.918 E0.03094
M204 S1250
M204 S800
G1 X99.929 Y65.921 E0.62290
G1 X100.648 Y66.070 E0.02304
G1 X101.308 Y66.365 E0.02266
G1 X102.262 Y67.192 E0.03957
G1 X102.756 Y67.926 E0.02776
G1 X103.050 Y68.841 E0.03011
G1 X103.082 Y74.839 E0.18808
G1 X102.815 Y75.889 E0.03399
G1 X102.307 Y76.745 E0.03120
G1 X102.063 Y76.981 E0.01063
M204 S1250
G1 X101.686 Y76.827 F9000.000
M204 S800
G1 F1200.000
G1 X101.435 Y77.074 E0.01105
G1 X90.656 Y82.493 E0.37827
G1 X89.680 Y82.705 E0.03132
G1 X86.705 Y82.705 E0.09326
G1 X86.705 Y97.295 E0.45745
G1 X89.680 Y97.295 E0.09326
G1 X90.656 Y97.507 E0.03134
G1 X101.597 Y103.046 E0.38448
G1 X101.688 Y103.144 E0.00421
M204 S1250
G1 X102.065 Y103.566 F9000.000
M204 S800
G1 F1200.000
G1 X102.392 Y104.084 E0.01919
G1 X102.705 Y105.184 E0.03586
G1 X102.705 Y110.913 E0.17963
G1 X102.472 Y111.786 E0.02835
G1 X102.041 Y112.487 E0.02579
G1 X101.382 Y113.128 E0.02883
G1 X100.771 Y113.477 E0.02206
G1 X99.913 Y113.705 E0.02785
G1 X80.087 Y113.705 E0.62161
M73 P1 R76
G1 X79.214 Y113.472 E0.02835
G1 X78.513 Y113.041 E0.02579
G1 X77.872 Y112.382 E0.02883
G1 X77.523 Y111.771 E0.02206
G1 X77.295 Y110.913 E0.02785
G1 X77.295 Y69.087 E1.31141
G1 X77.528 Y68.214 E0.02835
G1 X77.959 Y67.513 E0.02579
G1 X78.618 Y66.872 E0.02883
G1 X79.229 Y66.523 E0.02206
G1 X80.088 Y66.295 E0.02785
G1 X99.910 Y66.298 E0.62151
M204 S1250
M204 S800
G1 X100.513 Y66.423 E0.01932
G1 X101.128 Y66.697 E0.02110
G1 X101.993 Y67.458 E0.03612
G1 X102.426 Y68.111 E0.02459
G1 X102.682 Y68.925 E0.02676
G1 X102.705 Y74.815 E0.18467
G1 X102.457 Y75.768 E0.03087
G1 X102.063 Y76.430 E0.02416
M204 S1250
G1 X101.686 Y76.307 F9000.000
M204 S800
G1 F1200.000
G1 X101.239 Y76.751 E0.01975
G1 X90.508 Y82.145 E0.37657
G1 X89.660 Y82.328 E0.02721
G1 X86.328 Y82.328 E0.10446
G1 X86.328 Y97.672 E0.48109
G1 X89.660 Y97.672 E0.10446
G1 X90.508 Y97.855 E0.02721
G1 X101.344 Y103.328 E0.38062
G1 X101.688 Y103.697 E0.01583
M204 S1250
G1 X102.065 Y104.284 F9000.000
M204 S800
G1 F1200.000
G1 X102.328 Y105.210 E0.03017
G1 X102.328 Y110.887 E0.17800
G1 X102.117 Y111.659 E0.02509
G1 X101.735 Y112.265 E0.02248
G1 X101.138 Y112.840 E0.02597
G1 X100.648 Y113.120 E0.01770
G1 X99.887 Y113.328 E0.02474
G1 X80.113 Y113.328 E0.61999
G1 X79.341 Y113.117 E0.02509
G1 X78.735 Y112.735 E0.02248
G1 X78.160 Y112.138 E0.02597
G1 X77.880 Y111.648 E0.01770
G1 X77.672 Y110.887 E0.02474
G1 X77.672 Y69.113 E1.30978
G1 X77.883 Y68.341 E0.02509
G1 X78.265 Y67.735 E0.02248
G1 X78.862 Y67.160 E0.02597
G1 X79.352 Y66.880 E0.01770
G1 X80.113 Y66.672 E0.02474
M204 S1250
M204 S800
G1 X99.889 Y66.676 E0.62006
G1 X100.414 Y66.787 E0.01681
G1 X100.945 Y67.028 E0.01829
G1 X101.723 Y67.721 E0.03266
G1 X102.095 Y68.293 E0.02140
G1 X102.313 Y69.008 E0.02342
G1 X102.328 Y74.791 E0.18132
G1 X102.100 Y75.644 E0.02768
G1 X102.063 Y75.705 E0.00225
M204 S1250
G1 E-2.24000 F4200.000
;WIPE_START
G1 F7200.000
G1 X102.100 Y75.644 E-0.03974
G1 X102.328 Y74.791 E-0.48917
G1 X102.326 Y74.099 E-0.38309
;WIPE_END
G1 E-0.04800 F4200.000
G1 Z0.400 F9000.000
G1 X101.688 Y104.378
G1 Z0.200
G1 E3.20000 F2400.000
M204 S800
G1 F1200.000
G1 X101.453 Y103.998 E0.01400
G1 X101.091 Y103.610 E0.01666
G1 X90.360 Y98.203 E0.37675
G1 X89.640 Y98.049 E0.02309
G1 X85.951 Y98.049 E0.11567
G1 X85.951 Y81.951 E0.50474
G1 X89.640 Y81.951 E0.11567
G1 X90.360 Y81.797 E0.02309
G1 X101.040 Y76.428 E0.37479
G1 X101.431 Y76.030 E0.01748
G1 X101.686 Y75.612 E0.01536
M204 S1250
G1 E-2.24000 F4200.000
;WIPE_START
G1 F7200.000
G1 X101.431 Y76.030 E-0.27144
G1 X101.040 Y76.428 E-0.30892
G1 X100.506 Y76.697 E-0.33163
;WIPE_END
G1 E-0.04800 F4200.000
G1 Z0.400 F9000.000
G1 X85.574 Y81.574
G1 Z0.200
G1 E3.20000 F2400.000
M204 S800
G1 F1200.000
G1 X85.574 Y98.426 E0.52839
G1 X89.621 Y98.426 E0.12689
G1 X90.213 Y98.551 E0.01898
G1 X100.840 Y103.893 E0.37293
G1 X101.143 Y104.214 E0.01383
G1 X101.389 Y104.612 E0.01469
G1 X101.574 Y105.262 E0.02119
G1 X101.574 Y110.832 E0.17464
G1 X101.408 Y111.395 E0.01842
G1 X101.180 Y111.753 E0.01328
G1 X100.649 Y112.263 E0.02311
G1 X100.394 Y112.409 E0.00919
G1 X99.832 Y112.574 E0.01838
G1 X80.168 Y112.574 E0.61655
G1 X79.605 Y112.408 E0.01842
G1 X79.247 Y112.180 E0.01328
G1 X78.737 Y111.649 E0.02311
G1 X78.591 Y111.394 E0.00919
G1 X78.426 Y110.832 E0.01838
G1 X78.426 Y69.168 E1.30634
G1 X78.592 Y68.605 E0.01842
G1 X78.820 Y68.247 E0.01328
G1 X79.351 Y67.737 E0.02311
G1 X79.606 Y67.591 E0.00919
G1 X80.168 Y67.426 E0.01838
G1 X99.846 Y67.430 E0.61698
G1 X100.205 Y67.513 E0.01157
G1 X100.571 Y67.685 E0.01268
G1 X101.176 Y68.243 E0.02580
G1 X101.408 Y68.605 E0.01347
G1 X101.574 Y69.168 E0.01841
G1 X101.574 Y74.738 E0.17464
G1 X101.389 Y75.388 E0.02119
G1 X101.143 Y75.786 E0.01469
G1 X100.840 Y76.107 E0.01383
G1 X90.213 Y81.449 E0.37293
G1 X89.621 Y81.574 E0.01898
G1 X85.634 Y81.574 E0.12501
M204 S1250
G1 X85.197 Y81.197 F9000.000
M204 S800
G1 F1200.000
G1 X85.197 Y98.803 E0.55203
G1 X89.602 Y98.803 E0.13812
G1 X90.067 Y98.899 E0.01487
G1 X100.591 Y104.178 E0.36918
G1 X100.833 Y104.430 E0.01094
G1 X101.055 Y104.788 E0.01322
G1 X101.197 Y105.288 E0.01630
G1 X101.197 Y110.802 E0.17289
G1 X101.056 Y111.258 E0.01495
G1 X100.902 Y111.498 E0.00894
G1 X100.436 Y111.951 E0.02038
G1 X100.259 Y112.056 E0.00643
G1 X99.802 Y112.197 E0.01500
G1 X80.198 Y112.197 E0.61469
G1 X79.742 Y112.056 E0.01495
G1 X79.502 Y111.902 E0.00894
G1 X79.049 Y111.436 E0.02038
G1 X78.944 Y111.259 E0.00643
G1 X78.803 Y110.802 E0.01500
G1 X78.803 Y69.198 E1.30449
G1 X78.944 Y68.742 E0.01495
G1 X79.098 Y68.502 E0.00894
G1 X79.564 Y68.049 E0.02038
G1 X79.741 Y67.944 E0.00643
G1 X80.198 Y67.803 E0.01500
G1 X99.824 Y67.807 E0.61537
G1 X100.062 Y67.862 E0.00767
G1 X100.382 Y68.013 E0.01109
G1 X100.901 Y68.501 E0.02233
G1 X101.056 Y68.742 E0.00898
G1 X101.197 Y69.198 E0.01495
G1 X101.197 Y74.712 E0.17289
G1 X101.055 Y75.212 E0.01630
G1 X100.833 Y75.570 E0.01322
G1 X100.591 Y75.822 E0.01094
G1 X90.067 Y81.101 E0.36918
G1 X89.602 Y81.197 E0.01487
G1 X85.257 Y81.197 E0.13624
M204 S1250
M73 P2 R76
G1 X84.820 Y80.820 F9000.000
M204 S800
G1 F1200.000
G1 X84.820 Y99.180 E0.57568
G1 X89.584 Y99.180 E0.14938
G1 X89.921 Y99.248 E0.01077
G1 X100.346 Y104.465 E0.36552
G1 X100.524 Y104.647 E0.00798
G1 X100.720 Y104.964 E0.01170
G1 X100.820 Y105.314 E0.01142
G1 X100.820 Y110.771 E0.17108
G1 X100.707 Y111.115 E0.01136
G1 X100.623 Y111.244 E0.00482
G1 X100.218 Y111.644 E0.01785
G1 X100.117 Y111.706 E0.00371
G1 X99.771 Y111.820 E0.01144
G1 X80.229 Y111.820 E0.61271
G1 X79.885 Y111.707 E0.01136
G1 X79.756 Y111.623 E0.00482
G1 X79.356 Y111.218 E0.01785
G1 X79.294 Y111.117 E0.00371
G1 X79.180 Y110.771 E0.01144
G1 X79.180 Y69.229 E1.30250
G1 X79.293 Y68.885 E0.01136
G1 X79.377 Y68.756 E0.00482
G1 X79.782 Y68.356 E0.01785
G1 X79.883 Y68.294 E0.00371
G1 X80.229 Y68.180 E0.01144
G1 X99.802 Y68.184 E0.61368
G1 X99.919 Y68.211 E0.00377
G1 X100.192 Y68.340 E0.00947
G1 X100.623 Y68.757 E0.01880
G1 X100.707 Y68.885 E0.00479
G1 X100.820 Y69.229 E0.01136
G1 X100.820 Y74.686 E0.17108
G1 X100.720 Y75.036 E0.01142
G1 X100.524 Y75.353 E0.01170
G1 X100.346 Y75.535 E0.00798
G1 X89.921 Y80.752 E0.36552
G1 X89.584 Y80.820 E0.01077
G1 X84.880 Y80.820 E0.14750
M204 S1250
G1 X84.443 Y80.443 F9000.000
M204 S800
G1 F1200.000
G1 X84.443 Y99.557 E0.59933
G1 X89.567 Y99.557 E0.16067
G1 X89.776 Y99.597 E0.00668
G1 X100.104 Y104.756 E0.36198
G1 X100.216 Y104.866 E0.00491
G1 X100.386 Y105.140 E0.01011
G1 X100.443 Y105.340 E0.00653
G1 X100.443 Y110.736 E0.16916
G1 X100.343 Y110.990 E0.00856
G1 X99.963 Y111.361 E0.01666
G1 X99.736 Y111.443 E0.00757
G1 X80.264 Y111.443 E0.61050
G1 X80.010 Y111.343 E0.00856
G1 X79.639 Y110.963 E0.01666
G1 X79.557 Y110.736 E0.00757
G1 X79.557 Y69.264 E1.30030
G1 X79.657 Y69.010 E0.00856
G1 X80.010 Y68.657 E0.01566
G1 X80.264 Y68.557 E0.00856
G1 X99.750 Y68.557 E0.61095
G1 X100.000 Y68.667 E0.00856
G1 X100.343 Y69.010 E0.01522
G1 X100.443 Y69.264 E0.00856
G1 X100.443 Y74.660 E0.16916
G1 X100.386 Y74.860 E0.00653
G1 X100.216 Y75.134 E0.01011
G1 X100.104 Y75.244 E0.00491
G1 X89.776 Y80.403 E0.36198
G1 X89.567 Y80.443 E0.00668
G1 X84.503 Y80.443 E0.15879
M204 S1250
G1 X84.066 Y80.066 F9000.000
M204 S800
G1 F1200.000
G1 X84.066 Y99.934 E0.62297
G1 X89.547 Y99.934 E0.17185
G1 X89.675 Y99.961 E0.00411
G1 X99.872 Y105.054 E0.35738
G1 X100.051 Y105.316 E0.00996
G1 X100.066 Y105.367 E0.00165
G1 X100.066 Y110.694 E0.16703
G1 X100.037 Y110.763 E0.00235
G1 X99.763 Y111.037 E0.01215
G1 X99.694 Y111.066 E0.00235
G1 X80.306 Y111.066 E0.60788
G1 X80.237 Y111.037 E0.00235
G1 X79.963 Y110.763 E0.01215
