; generated by PrusaSlicer 2.3.1+win64 on 2021-04-30 at 09:53:01 UTC


;
;

;
;
; 

; external perimeters extrusion width = 0.45mm
; perimeters extrusion width = 0.45mm
; infill extrusion width = 0.45mm
; solid infill extrusion width = 0.45mm
; top infill extrusion width = 0.40mm
; first layer extrusion width = 0.42mm

M73 P0 R53
M201 X1250 Y1250 Z400 E5000 ; sets maximum accelerations, mm/sec^2
M203 X180 Y180 Z12 E80 ; sets maximum feedrates, mm/sec
M204 P1250 R1250 T1250 ; sets acceleration (P, T) and retract acceleration (R), mm/sec^2
M205 X8.00 Y8.00 Z2.00 E10.00 ; sets the jerk limits, mm/sec
M205 S0 T0 ; sets the minimum extruding and travel feed rate, mm/sec
M107
;TYPE:Custom
G90 ; use absolute coordinates
M83 ; extruder relative mode
M104 S170 ; set extruder temp for bed leveling
M140 S60 ; set bed temp
M109 R170 ; wait for bed leveling temp
M190 S60 ; wait for bed temp
G28 ; home all without mesh bed level
G29 ; mesh bed leveling 
M104 S215 ; set extruder temp
G92 E0.0
G1 Y-2.0 X179 F2400
G1 Z3 F720
M109 S215 ; wait for extruder temp

; intro line
G1 X170 F1000
G1 Z0.2 F720
G1 X110.0 E8.0 F900
G1 X40.0 E10.0 F700
G92 E0.0

M221 S95 ; set flow
G21 ; set units to millimeters
G90 ; use absolute coordinates
M83 ; use relative distances for extrusion
M900 K0.2 ; Filament gcode LA 1.5
; ; Filament gcode LA 1.0
;LAYER_CHANGE
;Z:0.2
;HEIGHT:0.2
;BEFORE_LAYER_CHANGE
G92 E0.0
;0.2


G1 E-3.20000 F4200.000
G1 Z0.200 F9000.000
;AFTER_LAYER_CHANGE
;0.2
G1 Z0.400
G1 X78.323 Y68.545
G1 Z0.200
G1 E3.20000 F2400.000
M204 S800
;TYPE:Skirt
;WIDTH:0.42
G1 F1200.000
G1 X78.660 Y67.995 E0.02024
G1 X79.133 Y67.555 E0.02024
G1 X79.707 Y67.259 E0.02024
G1 X80.339 Y67.128 E0.02024
G1 X99.504 Y67.123 E0.60090
G1 X100.388 Y67.295 E0.02825
G1 X101.142 Y67.781 E0.02813
G1 X101.662 Y68.513 E0.02813
G1 X101.874 Y69.385 E0.02813
G1 X101.877 Y110.511 E1.28950
G1 X101.677 Y111.455 E0.03024
G1 X101.335 Y112.011 E0.02048
G1 X100.854 Y112.454 E0.02048
G1 X100.272 Y112.748 E0.02048
G1 X99.631 Y112.873 E0.02048
G1 X80.477 Y112.877 E0.60054
G1 X79.545 Y112.677 E0.02989
G1 X78.977 Y112.325 E0.02095
G1 X78.529 Y111.829 E0.02095
G1 X78.236 Y111.225 E0.02107
G1 X78.124 Y110.566 E0.02095
G1 X78.123 Y69.489 E1.28795
G1 X78.311 Y68.604 E0.02836
M204 S1250
G1 E-2.24000 F4200.000
;WIPE_START
G1 F7200.000
G1 X78.660 Y67.995 E-0.38923
G1 X79.133 Y67.555 E-0.35773
G1 X79.398 Y67.419 E-0.16504
;WIPE_END
G1 E-0.04800 F4200.000
G1 Z0.400 F9000.000
G1 X77.935 Y78.356
G1 Z0.200
G1 E3.20000 F2400.000
M204 S800
G1 F1200.000
G1 X77.388 Y78.077 E0.01923
G1 X76.774 Y77.409 E0.02846
G1 X76.276 Y76.633 E0.02892
G1 X75.787 Y74.921 E0.05581
G1 X75.787 Y68.989 E0.18599
G1 X76.142 Y67.618 E0.04440
G1 X76.814 Y66.530 E0.04012
G1 X77.717 Y65.662 E0.03927
G1 X78.756 Y65.088 E0.03723
G1 X79.946 Y64.792 E0.03842
G1 X99.987 Y64.790 E0.62837
G1 X100.935 Y64.974 E0.03028
M204 S1250
M204 S800
G1 X101.843 Y65.365 E0.03101
G1 X103.062 Y66.388 E0.04990
G1 X103.853 Y67.606 E0.04551
G1 X104.213 Y68.989 E0.04481
G1 X104.213 Y111.011 E1.31758
G1 X103.858 Y112.382 E0.04440
G1 X103.186 Y113.470 E0.04011
G1 X102.244 Y114.366 E0.04078
G1 X101.245 Y114.912 E0.03570
G1 X100.010 Y115.213 E0.03986
G1 X79.989 Y115.213 E0.62774
G1 X78.617 Y114.858 E0.04443
G1 X77.567 Y114.216 E0.03859
G1 X76.693 Y113.324 E0.03915
G1 X76.126 Y112.340 E0.03560
G1 X75.812 Y111.206 E0.03689
G1 X75.786 Y105.084 E0.19195
G1 X76.180 Y103.584 E0.04864
G1 X76.818 Y102.537 E0.03843
G1 X77.724 Y101.674 E0.03923
G1 X77.935 Y101.567 E0.00743
M204 S1250
G1 X78.312 Y101.377 F9000.000
M204 S800
G1 F1200.000
G1 X88.750 Y96.117 E0.36648
G1 X90.199 Y95.791 E0.04656
G1 X91.787 Y95.786 E0.04978
G1 X91.787 Y84.214 E0.36283
G1 X90.199 Y84.209 E0.04978
G1 X88.747 Y83.881 E0.04667
G1 X78.312 Y78.549 E0.36743
M204 S1250
M73 P1 R53
G1 X78.312 Y78.138 F9000.000
M204 S800
G1 F1200.000
G1 X88.896 Y83.534 E0.37252
G1 X90.260 Y83.836 E0.04378
G1 X92.164 Y83.836 E0.05970
G1 X92.164 Y96.164 E0.38651
G1 X90.260 Y96.164 E0.05970
G1 X88.898 Y96.465 E0.04371
G1 X78.312 Y101.799 E0.37169
M204 S1250
G1 X77.935 Y101.989 F9000.000
M204 S800
G1 F1200.000
G1 X77.126 Y102.756 E0.03496
G1 X76.537 Y103.709 E0.03511
G1 X76.164 Y105.109 E0.04543
G1 X76.183 Y111.132 E0.18885
G1 X76.466 Y112.175 E0.03390
G1 X76.981 Y113.079 E0.03262
G1 X77.786 Y113.908 E0.03624
G1 X78.741 Y114.501 E0.03524
G1 X80.013 Y114.836 E0.04125
G1 X99.986 Y114.836 E0.62623
G1 X101.129 Y114.552 E0.03691
G1 X102.039 Y114.049 E0.03262
G1 X102.907 Y113.215 E0.03772
G1 X103.522 Y112.209 E0.03697
G1 X103.836 Y110.987 E0.03957
G1 X103.836 Y69.013 E1.31606
M73 P1 R52
G1 X103.496 Y67.732 E0.04157
G1 X102.797 Y66.658 E0.04018
G1 X101.666 Y65.699 E0.04647
G1 X100.841 Y65.340 E0.02823
G1 X99.968 Y65.167 E0.02791
G1 X80.014 Y65.164 E0.62563
M204 S1250
M204 S800
G1 X78.871 Y65.448 E0.03692
G1 X77.961 Y65.951 E0.03262
G1 X77.093 Y66.785 E0.03772
G1 X76.478 Y67.791 E0.03697
G1 X76.164 Y69.013 E0.03957
G1 X76.164 Y74.895 E0.18442
G1 X76.609 Y76.453 E0.05081
G1 X77.063 Y77.166 E0.02651
G1 X77.643 Y77.797 E0.02687
G1 X77.935 Y77.946 E0.01026
M204 S1250
G1 X77.935 Y77.535 F9000.000
M204 S800
G1 F1200.000
G1 X77.897 Y77.516 E0.00133
G1 X77.372 Y76.949 E0.02424
G1 X76.941 Y76.273 E0.02511
G1 X76.541 Y74.869 E0.04580
G1 X76.541 Y69.038 E0.18283
G1 X76.835 Y67.915 E0.03640
G1 X77.400 Y67.005 E0.03358
G1 X78.203 Y66.241 E0.03474
G1 X78.988 Y65.807 E0.02813
G1 X80.038 Y65.541 E0.03397
G1 X99.949 Y65.544 E0.62428
M204 S1250
M204 S800
G1 X100.746 Y65.705 E0.02549
G1 X101.488 Y66.033 E0.02545
G1 X102.530 Y66.926 E0.04302
G1 X103.163 Y67.910 E0.03669
G1 X103.459 Y69.038 E0.03655
G1 X103.459 Y110.962 E1.31453
G1 X103.165 Y112.085 E0.03640
G1 X102.600 Y112.995 E0.03358
G1 X101.797 Y113.759 E0.03474
G1 X101.012 Y114.193 E0.02813
G1 X99.962 Y114.459 E0.03396
G1 X80.038 Y114.459 E0.62473
G1 X78.914 Y114.165 E0.03641
G1 X78.040 Y113.628 E0.03216
G1 X77.269 Y112.834 E0.03470
G1 X76.807 Y112.012 E0.02957
G1 X76.553 Y111.059 E0.03092
G1 X76.541 Y105.134 E0.18579
G1 X76.893 Y103.834 E0.04221
G1 X77.405 Y103.010 E0.03042
G1 X77.935 Y102.495 E0.02317
M204 S1250
G1 X78.312 Y102.222 F9000.000
M204 S800
G1 F1200.000
G1 X89.047 Y96.812 E0.37690
G1 X90.280 Y96.541 E0.03959
G1 X92.541 Y96.541 E0.07088
G1 X92.541 Y83.459 E0.41016
G1 X90.280 Y83.459 E0.07088
G1 X89.046 Y83.187 E0.03963
G1 X78.312 Y77.727 E0.37760
M204 S1250
G1 X78.312 Y77.317 F9000.000
M204 S800
G1 F1200.000
G1 X89.195 Y82.840 E0.38266
G1 X90.300 Y83.082 E0.03548
G1 X92.918 Y83.082 E0.08207
G1 X92.918 Y96.918 E0.43380
G1 X90.300 Y96.918 E0.08207
G1 X89.195 Y97.160 E0.03546
G1 X78.312 Y102.644 E0.38211
M204 S1250
G1 X77.935 Y103.016 F9000.000
M204 S800
G1 F1200.000
G1 X77.687 Y103.261 E0.01093
G1 X77.229 Y104.008 E0.02747
G1 X76.918 Y105.158 E0.03736
G1 X76.924 Y110.986 E0.18272
G1 X77.165 Y111.892 E0.02941
G1 X77.557 Y112.591 E0.02512
G1 X78.260 Y113.321 E0.03179
G1 X79.040 Y113.808 E0.02882
G1 X80.063 Y114.082 E0.03320
G1 X99.938 Y114.082 E0.62317
G1 X100.893 Y113.835 E0.03093
G1 X101.591 Y113.443 E0.02510
G1 X102.321 Y112.740 E0.03179
G1 X102.808 Y111.960 E0.02882
G1 X103.082 Y110.937 E0.03320
G1 X103.082 Y69.063 E1.31294
G1 X102.806 Y68.037 E0.03331
G1 X102.262 Y67.192 E0.03149
G1 X101.308 Y66.365 E0.03960
G1 X100.648 Y66.070 E0.02266
G1 X99.929 Y65.921 E0.02304
G1 X80.062 Y65.918 E0.62290
M204 S1250
M204 S800
G1 X79.107 Y66.165 E0.03094
G1 X78.409 Y66.557 E0.02510
G1 X77.679 Y67.260 E0.03179
G1 X77.192 Y68.040 E0.02882
G1 X76.918 Y69.063 E0.03320
G1 X76.918 Y74.842 E0.18122
G1 X77.274 Y76.095 E0.04084
G1 X77.661 Y76.705 E0.02264
G1 X77.935 Y77.002 E0.01265
M204 S1250
G1 X78.312 Y76.855 F9000.000
M204 S800
G1 F1200.000
G1 X78.403 Y76.954 E0.00422
G1 X89.344 Y82.493 E0.38448
G1 X90.320 Y82.705 E0.03134
G1 X93.295 Y82.705 E0.09326
G1 X93.295 Y97.295 E0.45745
G1 X90.320 Y97.295 E0.09326
G1 X89.344 Y97.507 E0.03134
G1 X78.509 Y102.967 E0.38040
G1 X78.312 Y103.166 E0.00877
M204 S1250
G1 X77.935 Y103.570 F9000.000
M204 S800
G1 F1200.000
G1 X77.565 Y104.180 E0.02238
G1 X77.295 Y105.183 E0.03257
G1 X77.295 Y110.913 E0.17965
G1 X77.523 Y111.771 E0.02785
G1 X77.872 Y112.382 E0.02206
G1 X78.513 Y113.041 E0.02883
G1 X79.214 Y113.472 E0.02579
G1 X80.087 Y113.705 E0.02835
G1 X99.913 Y113.705 E0.62161
G1 X100.771 Y113.477 E0.02785
G1 X101.382 Y113.128 E0.02206
G1 X102.041 Y112.487 E0.02883
G1 X102.472 Y111.786 E0.02579
G1 X102.705 Y110.913 E0.02835
G1 X102.705 Y69.087 E1.31141
G1 X102.472 Y68.214 E0.02835
G1 X101.992 Y67.457 E0.02809
G1 X101.128 Y66.697 E0.03609
G1 X100.513 Y66.423 E0.02110
G1 X99.910 Y66.298 E0.01932
M204 S1250
M204 S800
G1 X80.088 Y66.295 E0.62151
M73 P2 R52
G1 X79.229 Y66.523 E0.02785
G1 X78.618 Y66.872 E0.02206
G1 X77.959 Y67.513 E0.02883
G1 X77.528 Y68.214 E0.02579
G1 X77.295 Y69.087 E0.02835
G1 X77.295 Y74.816 E0.17963
G1 X77.608 Y75.916 E0.03586
G1 X77.935 Y76.433 E0.01917
M204 S1250
G1 X78.312 Y76.302 F9000.000
M204 S800
G1 F1200.000
G1 X78.656 Y76.672 E0.01585
G1 X89.492 Y82.145 E0.38062
G1 X90.340 Y82.328 E0.02721
G1 X93.672 Y82.328 E0.10446
G1 X93.672 Y97.672 E0.48109
G1 X90.340 Y97.672 E0.10446
G1 X89.492 Y97.855 E0.02721
G1 X78.708 Y103.289 E0.37861
G1 X78.312 Y103.699 E0.01789
M204 S1250
G1 X77.935 Y104.284 F9000.000
M204 S800
G1 F1200.000
G1 X77.672 Y105.209 E0.03016
G1 X77.672 Y110.887 E0.17802
G1 X77.880 Y111.648 E0.02474
G1 X78.160 Y112.138 E0.01770
G1 X78.735 Y112.735 E0.02597
G1 X79.341 Y113.117 E0.02248
G1 X80.113 Y113.328 E0.02509
G1 X99.887 Y113.328 E0.61999
G1 X100.648 Y113.120 E0.02474
G1 X101.138 Y112.840 E0.01770
G1 X101.735 Y112.265 E0.02597
G1 X102.117 Y111.659 E0.02248
G1 X102.328 Y110.887 E0.02509
G1 X102.328 Y69.113 E1.30978
G1 X102.116 Y68.341 E0.02510
G1 X101.722 Y67.721 E0.02306
G1 X100.945 Y67.028 E0.03263
G1 X100.414 Y66.787 E0.01829
G1 X99.889 Y66.676 E0.01681
G1 X80.113 Y66.672 E0.62006
M204 S1250
M204 S800
G1 X79.352 Y66.880 E0.02474
G1 X78.862 Y67.160 E0.01770
G1 X78.265 Y67.735 E0.02597
G1 X77.883 Y68.341 E0.02248
G1 X77.672 Y69.113 E0.02509
G1 X77.672 Y74.790 E0.17800
G1 X77.935 Y75.715 E0.03013
M204 S1250
G1 E-2.24000 F4200.000
;WIPE_START
G1 F7200.000
G1 X77.672 Y74.790 E-0.53261
G1 X77.672 Y74.106 E-0.37939
;WIPE_END
G1 E-0.04800 F4200.000
G1 Z0.400 F9000.000
G1 X78.312 Y104.378
G1 Z0.200
G1 E3.20000 F2400.000
M204 S800
G1 F1200.000
G1 X78.547 Y103.998 E0.01398
G1 X78.909 Y103.610 E0.01666
G1 X89.640 Y98.203 E0.37675
G1 X90.360 Y98.049 E0.02309
G1 X94.049 Y98.049 E0.11567
G1 X94.049 Y81.951 E0.50474
G1 X90.360 Y81.951 E0.11567
G1 X89.640 Y81.797 E0.02309
G1 X78.909 Y76.390 E0.37675
G1 X78.547 Y76.002 E0.01666
G1 X78.312 Y75.621 E0.01402
M204 S1250
G1 E-2.24000 F4200.000
;WIPE_START
G1 F7200.000
G1 X78.547 Y76.002 E-0.24781
G1 X78.909 Y76.390 E-0.29452
G1 X79.505 Y76.690 E-0.36967
;WIPE_END
G1 E-0.04800 F4200.000
G1 Z0.400 F9000.000
G1 X94.426 Y98.426
G1 Z0.200
G1 E3.20000 F2400.000
M204 S800
G1 F1200.000
G1 X94.426 Y81.574 E0.52839
G1 X90.379 Y81.574 E0.12689
G1 X89.787 Y81.449 E0.01897
G1 X79.160 Y76.107 E0.37293
G1 X78.857 Y75.786 E0.01383
G1 X78.611 Y75.388 E0.01469
G1 X78.426 Y74.738 E0.02119
G1 X78.426 Y69.168 E0.17464
G1 X78.592 Y68.605 E0.01842
G1 X78.820 Y68.247 E0.01328
G1 X79.351 Y67.737 E0.02311
G1 X79.606 Y67.591 E0.00919
G1 X80.168 Y67.426 E0.01838
G1 X99.846 Y67.430 E0.61698
G1 X100.205 Y67.513 E0.01157
G1 X100.571 Y67.685 E0.01268
G1 X101.176 Y68.243 E0.02580
G1 X101.408 Y68.605 E0.01347
G1 X101.574 Y69.168 E0.01841
G1 X101.574 Y110.832 E1.30634
G1 X101.408 Y111.395 E0.01842
G1 X101.180 Y111.753 E0.01328
G1 X100.649 Y112.263 E0.02311
G1 X100.394 Y112.409 E0.00919
G1 X99.832 Y112.574 E0.01838
G1 X80.168 Y112.574 E0.61655
G1 X79.605 Y112.408 E0.01842
G1 X79.247 Y112.180 E0.01328
G1 X78.737 Y111.649 E0.02311
G1 X78.591 Y111.394 E0.00919
G1 X78.426 Y110.832 E0.01838
G1 X78.426 Y105.262 E0.17464
G1 X78.611 Y104.612 E0.02119
G1 X78.857 Y104.214 E0.01469
G1 X79.160 Y103.893 E0.01383
G1 X89.787 Y98.551 E0.37293
G1 X90.379 Y98.426 E0.01897
G1 X94.366 Y98.426 E0.12501
M204 S1250
G1 X94.803 Y98.803 F9000.000
M204 S800
G1 F1200.000
G1 X94.803 Y81.197 E0.55203
G1 X90.398 Y81.197 E0.13812
G1 X89.933 Y81.101 E0.01487
G1 X79.409 Y75.822 E0.36918
G1 X79.167 Y75.570 E0.01094
G1 X78.945 Y75.212 E0.01322
G1 X78.803 Y74.712 E0.01630
G1 X78.803 Y69.198 E0.17289
G1 X78.944 Y68.742 E0.01495
G1 X79.098 Y68.502 E0.00894
G1 X79.564 Y68.049 E0.02038
G1 X79.741 Y67.944 E0.00643
G1 X80.198 Y67.803 E0.01500
G1 X99.824 Y67.807 E0.61537
G1 X100.062 Y67.862 E0.00767
G1 X100.382 Y68.013 E0.01109
G1 X100.901 Y68.501 E0.02233
G1 X101.056 Y68.742 E0.00898
G1 X101.197 Y69.198 E0.01495
G1 X101.197 Y110.802 E1.30449
G1 X101.056 Y111.258 E0.01495
G1 X100.902 Y111.498 E0.00894
G1 X100.436 Y111.951 E0.02038
G1 X100.259 Y112.056 E0.00643
G1 X99.802 Y112.197 E0.01500
G1 X80.198 Y112.197 E0.61469
G1 X79.742 Y112.056 E0.01495
G1 X79.502 Y111.902 E0.00894
G1 X79.049 Y111.436 E0.02038
G1 X78.944 Y111.259 E0.00643
G1 X78.803 Y110.802 E0.01500
G1 X78.803 Y105.288 E0.17289
G1 X78.945 Y104.788 E0.01630
G1 X79.167 Y104.430 E0.01322
G1 X79.409 Y104.178 E0.01094
G1 X89.933 Y98.899 E0.36918
G1 X90.398 Y98.803 E0.01487
G1 X94.743 Y98.803 E0.13624
M204 S1250
G1 X95.180 Y99.180 F9000.000
M204 S800
G1 F1200.000
G1 X95.180 Y80.820 E0.57568
G1 X90.416 Y80.820 E0.14938
G1 X90.079 Y80.752 E0.01077
G1 X79.654 Y75.535 E0.36552
G1 X79.476 Y75.353 E0.00798
G1 X79.280 Y75.036 E0.01170
G1 X79.180 Y74.686 E0.01142
G1 X79.180 Y69.229 E0.17108
G1 X79.293 Y68.885 E0.01136
G1 X79.377 Y68.756 E0.00482
G1 X79.782 Y68.356 E0.01785
G1 X79.883 Y68.294 E0.00371
G1 X80.229 Y68.180 E0.01144
G1 X99.802 Y68.184 E0.61368
M73 P3 R52
G1 X99.919 Y68.211 E0.00377
G1 X100.192 Y68.340 E0.00947
G1 X100.623 Y68.757 E0.01880
G1 X100.707 Y68.885 E0.00479
G1 X100.820 Y69.229 E0.01136
G1 X100.820 Y110.771 E1.30250
M73 P3 R51
G1 X100.707 Y111.115 E0.01136
G1 X100.623 Y111.244 E0.00482
G1 X100.218 Y111.644 E0.01785
G1 X100.117 Y111.706 E0.00371
G1 X99.771 Y111.820 E0.01144
G1 X80.229 Y111.820 E0.61271
G1 X79.885 Y111.707 E0.01136
G1 X79.756 Y111.623 E0.00482
G1 X79.356 Y111.218 E0.01785
G1 X79.294 Y111.117 E0.00371
G1 X79.180 Y110.771 E0.01144
G1 X79.180 Y105.314 E0.17108
G1 X79.280 Y104.964 E0.01142
G1 X79.476 Y104.647 E0.01170
G1 X79.654 Y104.465 E0.00798
G1 X90.079 Y99.248 E0.36552
G1 X90.416 Y99.180 E0.01077
G1 X95.120 Y99.180 E0.14750
M204 S1250
G1 X95.557 Y99.557 F9000.000
M204 S800
G1 F1200.000
G1 X95.557 Y80.443 E0.59933
G1 X90.433 Y80.443 E0.16067
G1 X90.224 Y80.403 E0.00668
G1 X79.896 Y75.244 E0.36198
G1 X79.784 Y75.134 E0.00491
G1 X79.614 Y74.860 E0.01011
G1 X79.557 Y74.660 E0.00653
G1 X79.557 Y69.264 E0.16916
G1 X79.657 Y69.010 E0.00856
G1 X80.037 Y68.639 E0.01666
G1 X80.264 Y68.557 E0.00757
G1 X99.750 Y68.557 E0.61095
G1 X100.000 Y68.667 E0.00856
G1 X100.361 Y69.037 E0.01622
G1 X100.443 Y69.264 E0.00757
G1 X100.443 Y110.736 E1.30030
G1 X100.343 Y110.990 E0.00856
G1 X99.990 Y111.343 E0.01566
G1 X99.736 Y111.443 E0.00856
G1 X80.264 Y111.443 E0.61050
G1 X80.010 Y111.343 E0.00856
G1 X79.657 Y110.990 E0.01566
G1 X79.557 Y110.736 E0.00856
G1 X79.557 Y105.340 E0.16916
G1 X79.614 Y105.140 E0.00653
G1 X79.784 Y104.866 E0.01011
G1 X79.896 Y104.756 E0.00491
G1 X90.224 Y99.597 E0.36198
G1 X90.433 Y99.557 E0.00668
G1 X95.497 Y99.557 E0.15879
M204 S1250
G1 X95.934 Y99.934 F9000.000
M204 S800
G1 F1200.000
G1 X95.934 Y80.066 E0.62297
G1 X90.453 Y80.066 E0.17185
G1 X90.325 Y80.039 E0.00411
G1 X80.128 Y74.946 E0.35738
G1 X79.949 Y74.684 E0.00996
G1 X79.934 Y74.633 E0.00165
G1 X79.934 Y69.306 E0.16703
G1 X79.963 Y69.237 E0.00235
G1 X80.237 Y68.963 E0.01215
G1 X80.306 Y68.934 E0.00235
G1 X99.694 Y68.934 E0.60788
G1 X99.763 Y68.963 E0.00235
G1 X100.037 Y69.237 E0.01215
G1 X100.066 Y69.306 E0.00235
G1 X100.066 Y110.694 E1.29767
G1 X100.037 Y110.763 E0.00235
G1 X99.763 Y111.037 E0.01215
G1 X99.694 Y111.066 E0.00235
G1 X80.306 Y111.066 E0.60788
G1 X80.237 Y111.037 E0.00235
G1 X79.963 Y110.763 E0.01215
G1 X79.934 Y110.694 E0.00235
G1 X79.934 Y105.367 E0.16703
G1 X79.949 Y105.316 E0.00165
G1 X80.128 Y105.054 E0.00996
G1 X90.325 Y99.961 E0.35738
G1 X90.453 Y99.934 E0.00411
