; generated by PrusaSlicer 2.3.1+win64 on 2021-05-17 at 10:35:17 UTC


;
;

;
;
; 

; external perimeters extrusion width = 0.45mm
; perimeters extrusion width = 0.45mm
; infill extrusion width = 0.45mm
; solid infill extrusion width = 0.45mm
; top infill extrusion width = 0.40mm
; support material extrusion width = 0.35mm
; first layer extrusion width = 0.42mm

M73 P0 R200
M201 X1250 Y1250 Z400 E5000 ; sets maximum accelerations, mm/sec^2
M203 X180 Y180 Z12 E80 ; sets maximum feedrates, mm/sec
M204 P1250 R1250 T1250 ; sets acceleration (P, T) and retract acceleration (R), mm/sec^2
M205 X8.00 Y8.00 Z2.00 E10.00 ; sets the jerk limits, mm/sec
M205 S0 T0 ; sets the minimum extruding and travel feed rate, mm/sec
M107
;TYPE:Custom
G90 ; use absolute coordinates
M83 ; extruder relative mode
M104 S170 ; set extruder temp for bed leveling
M140 S60 ; set bed temp
M109 R170 ; wait for bed leveling temp
M190 S60 ; wait for bed temp
G28 ; home all without mesh bed level
G29 ; mesh bed leveling 
M104 S215 ; set extruder temp
G92 E0.0
G1 Y-2.0 X179 F2400
G1 Z3 F720
M109 S215 ; wait for extruder temp

; intro line
G1 X170 F1000
G1 Z0.2 F720
G1 X110.0 E8.0 F900
G1 X40.0 E10.0 F700
G92 E0.0

M221 S95 ; set flow
G21 ; set units to millimeters
G90 ; use absolute coordinates
M83 ; use relative distances for extrusion
M900 K0.2 ; Filament gcode LA 1.5
; ; Filament gcode LA 1.0
;LAYER_CHANGE
;Z:0.2
;HEIGHT:0.2
;BEFORE_LAYER_CHANGE
G92 E0.0
;0.2


G1 E-3.20000 F4200.000
G1 Z0.200 F9000.000
;AFTER_LAYER_CHANGE
;0.2
G1 Z0.400
G1 X75.935 Y78.827
G1 Z0.200
G1 E3.20000 F2400.000
M204 S800
;TYPE:Skirt
;WIDTH:0.42
G1 F1200.000
G1 X78.407 Y76.152 E0.11422
G1 X80.944 Y73.668 E0.11133
G1 X81.366 Y73.389 E0.01585
G1 X85.996 Y71.055 E0.16258
G1 X86.771 Y70.830 E0.02532
G1 X119.195 Y68.512 E1.01922
G1 X126.958 Y68.508 E0.24338
G1 X127.771 Y68.653 E0.02590
G1 X128.483 Y69.065 E0.02579
G1 X129.011 Y69.695 E0.02579
G1 X129.295 Y70.471 E0.02590
G1 X129.313 Y81.892 E0.35808
G1 X122.466 Y109.717 E0.89847
G1 X122.169 Y110.395 E0.02319
G1 X121.679 Y110.948 E0.02319
G1 X121.059 Y111.317 E0.02260
G1 X120.354 Y111.484 E0.02272
G1 X112.655 Y111.661 E0.24145
G1 X77.791 Y111.491 E1.09315
G1 X77.278 Y111.432 E0.01621
G1 X76.789 Y111.263 E0.01621
G1 X76.346 Y110.990 E0.01633
G1 X75.975 Y110.629 E0.01621
G1 X75.668 Y110.153 E0.01777
G1 X71.264 Y101.080 E0.31621
G1 X71.091 Y100.585 E0.01645
G1 X71.031 Y100.064 E0.01645
G1 X71.052 Y89.027 E0.34605
G1 X71.227 Y88.398 E0.02048
G1 X73.355 Y83.702 E0.16165
G1 X75.907 Y78.880 E0.17103
M204 S1250
G1 E-2.24000 F4200.000
;WIPE_START
G1 F7200.000
G1 X77.019 Y77.667 E-0.91200
;WIPE_END
G1 E-0.04800 F4200.000
G1 Z0.400 F9000.000
G1 X116.130 Y68.921
G1 Z0.200
G1 E3.20000 F2400.000
M204 S800
G1 F1200.000
G1 X115.725 Y69.695 E0.02738
G1 X114.859 Y70.176 E0.03107
G1 X114.081 Y70.975 E0.03498
G1 X113.710 Y71.601 E0.02279
G1 X113.606 Y71.900 E0.00994
G1 X113.028 Y72.107 E0.01925
G1 X112.465 Y72.456 E0.02078
G1 X111.676 Y73.249 E0.03508
G1 X111.222 Y74.045 E0.02874
G1 X110.978 Y74.907 E0.02808
G1 X110.952 Y76.742 E0.05754
G1 X110.426 Y77.029 E0.01880
G1 X109.759 Y77.644 E0.02845
G1 X109.214 Y78.462 E0.03084
G1 X109.094 Y78.778 E0.01059
G1 X108.232 Y79.123 E0.02910
G1 X107.626 Y79.567 E0.02357
G1 X106.984 Y80.273 E0.02991
G1 X106.607 Y80.971 E0.02487
G1 X106.364 Y81.828 E0.02794
G1 X106.338 Y83.715 E0.05919
G1 X105.806 Y84.024 E0.01929
G1 X104.975 Y84.894 E0.03772
G1 X104.510 Y85.816 E0.03235
G1 X104.350 Y86.506 E0.02223
G1 X104.329 Y97.051 E0.33062
G1 X104.401 Y97.585 E0.01692
G1 X104.906 Y98.693 E0.03816
G1 X105.756 Y99.585 E0.03863
G1 X106.356 Y99.960 E0.02218
G1 X106.879 Y100.148 E0.01744
G1 X107.405 Y100.661 E0.02304
G1 X108.171 Y101.085 E0.02747
G1 X108.855 Y101.279 E0.02228
G1 X108.886 Y109.942 E0.27162
M73 P0 R199
G1 X109.155 Y110.804 E0.02832
G1 X109.578 Y111.458 E0.02440
M204 S1250
G1 X109.940 Y111.836 F9000.000
M204 S800
G1 F1200.000
G1 X110.396 Y112.262 E0.01955
G1 X111.331 Y112.728 E0.03276
G1 X112.003 Y112.860 E0.02149
G1 X112.837 Y112.857 E0.02615
G1 X113.067 Y112.885 E0.00727
G1 X120.707 Y112.864 E0.23956
G1 X121.603 Y112.618 E0.02914
G1 X122.323 Y112.231 E0.02562
G1 X123.035 Y111.577 E0.03032
G1 X123.557 Y110.805 E0.02922
G1 X123.927 Y109.582 E0.04009
G1 X123.930 Y104.556 E0.15757
M204 S1250
G1 E-2.24000 F4200.000
;WIPE_START
G1 F7200.000
G1 X123.929 Y106.202 E-0.91200
;WIPE_END
G1 E-0.04800 F4200.000
G1 Z0.400 F9000.000
G1 X123.931 Y102.975
G1 Z0.200
G1 E3.20000 F2400.000
M204 S800
G1 F1200.000
G1 X123.937 Y91.998 E0.34417
G1 X124.754 Y91.690 E0.02737
G1 X125.390 Y91.247 E0.02432
G1 X125.939 Y90.682 E0.02470
G1 X126.351 Y90.039 E0.02395
G1 X126.628 Y89.269 E0.02566
G1 X127.008 Y89.041 E0.01389
G1 X127.479 Y88.554 E0.02125
M204 S1250
G1 X128.087 Y87.662 F9000.000
M204 S800
G1 F1200.000
G1 X128.231 Y87.396 E0.00946
G1 X128.444 Y86.532 E0.02792
G1 X128.447 Y86.199 E0.01045
M204 S1250
G1 X128.797 Y84.778 F9000.000
M204 S800
G1 F1200.000
G1 X129.185 Y84.575 E0.01374
G1 X130.066 Y83.714 E0.03865
G1 X130.458 Y83.041 E0.02439
G1 X130.702 Y82.183 E0.02798
G1 X130.690 Y70.263 E0.37375
G1 X130.348 Y69.198 E0.03506
G1 X129.893 Y68.502 E0.02608
G1 X129.292 Y67.908 E0.02651
G1 X128.632 Y67.487 E0.02452
G1 X127.464 Y67.132 E0.03828
M204 S1250
M204 S800
G1 X118.880 Y67.131 E0.26916
G1 X117.945 Y67.358 E0.03015
G1 X117.112 Y67.819 E0.02985
G1 X116.409 Y68.523 E0.03120
M204 S1250
G1 X116.576 Y68.889 F9000.000
M204 S800
G1 F1200.000
G1 X116.124 Y69.726 E0.02983
G1 X116.062 Y69.941 E0.00702
G1 X115.109 Y70.460 E0.03404
G1 X114.368 Y71.221 E0.03332
G1 X114.047 Y71.771 E0.01995
G1 X113.908 Y72.195 E0.01398
G1 X113.209 Y72.439 E0.02322
G1 X112.682 Y72.765 E0.01942
G1 X111.989 Y73.459 E0.03075
G1 X111.578 Y74.171 E0.02577
G1 X111.348 Y74.985 E0.02653
G1 X111.327 Y76.971 E0.06228
G1 X110.663 Y77.323 E0.02359
G1 X110.032 Y77.905 E0.02691
G1 X109.542 Y78.649 E0.02792
G1 X109.393 Y79.066 E0.01391
G1 X108.433 Y79.443 E0.03233
G1 X107.890 Y79.836 E0.02103
G1 X107.303 Y80.475 E0.02720
G1 X106.963 Y81.094 E0.02214
G1 X106.734 Y81.906 E0.02645
G1 X106.713 Y83.939 E0.06375
G1 X106.058 Y84.306 E0.02354
G1 X105.267 Y85.134 E0.03590
G1 X104.872 Y85.925 E0.02771
G1 X104.727 Y86.530 E0.01951
G1 X104.706 Y97.038 E0.32949
G1 X104.771 Y97.505 E0.01479
G1 X105.234 Y98.505 E0.03454
G1 X106.009 Y99.304 E0.03492
G1 X106.535 Y99.627 E0.01934
G1 X107.085 Y99.821 E0.01829
G1 X107.611 Y100.345 E0.02328
G1 X108.333 Y100.744 E0.02588
G1 X109.231 Y100.990 E0.02920
G1 X109.255 Y109.859 E0.27810
G1 X109.487 Y110.624 E0.02506
G1 X109.920 Y111.301 E0.02519
G1 X110.090 Y111.460 E0.00729
M204 S1250
G1 X110.495 Y111.839 F9000.000
M204 S800
G1 F1200.000
G1 X110.632 Y111.967 E0.00588
G1 X111.472 Y112.378 E0.02931
G1 X112.053 Y112.486 E0.01854
G1 X112.860 Y112.480 E0.02530
G1 X113.079 Y112.508 E0.00693
G1 X120.632 Y112.494 E0.23680
G1 X121.483 Y112.260 E0.02769
G1 X122.087 Y111.937 E0.02148
G1 X122.738 Y111.344 E0.02759
G1 X123.206 Y110.665 E0.02586
G1 X123.550 Y109.552 E0.03652
G1 X123.552 Y106.092 E0.10851
M204 S1250
G1 E-2.24000 F4200.000
;WIPE_START
G1 F7200.000
G1 X123.551 Y107.738 E-0.91200
;WIPE_END
G1 E-0.04800 F4200.000
G1 Z0.400 F9000.000
G1 X123.553 Y104.510
G1 Z0.200
G1 E3.20000 F2400.000
M204 S800
G1 F1200.000
G1 X123.560 Y91.734 E0.40061
G1 X124.560 Y91.366 E0.03342
G1 X125.134 Y90.970 E0.02187
G1 X125.632 Y90.462 E0.02230
G1 X126.021 Y89.854 E0.02263
G1 X126.318 Y89.010 E0.02806
G1 X126.758 Y88.757 E0.01591
G1 X127.444 Y88.058 E0.03070
G1 X127.733 Y87.525 E0.01902
M204 S1250
G1 X128.074 Y86.136 F9000.000
M204 S800
G1 F1200.000
G1 X128.084 Y84.721 E0.04438
G1 X128.471 Y84.524 E0.01360
M204 S1250
G1 X128.915 Y84.299 F9000.000
M204 S800
G1 F1200.000
G1 X129.784 Y83.462 E0.03785
G1 X130.103 Y82.913 E0.01990
G1 X130.325 Y82.155 E0.02476
G1 X130.322 Y70.348 E0.37022
G1 X130.018 Y69.382 E0.03174
G1 X129.589 Y68.726 E0.02459
G1 X129.042 Y68.190 E0.02400
G1 X128.495 Y67.839 E0.02039
G1 X127.435 Y67.509 E0.03481
G1 X118.902 Y67.508 E0.26754
M204 S1250
M204 S800
G1 X118.103 Y67.702 E0.02578
G1 X117.359 Y68.105 E0.02653
G1 X116.983 Y68.482 E0.01668
M204 S1250
G1 X117.142 Y68.848 F9000.000
M204 S800
G1 F1200.000
G1 X116.866 Y69.120 E0.01214
G1 X116.470 Y69.879 E0.02683
G1 X116.370 Y70.272 E0.01274
G1 X116.103 Y70.344 E0.00867
G1 X115.359 Y70.744 E0.02649
G1 X114.655 Y71.467 E0.03162
G1 X114.385 Y71.939 E0.01705
G1 X114.211 Y72.491 E0.01815
G1 X113.389 Y72.771 E0.02725
G1 X112.899 Y73.074 E0.01805
G1 X112.302 Y73.671 E0.02649
G1 X111.934 Y74.297 E0.02276
G1 X111.718 Y75.063 E0.02495
G1 X111.703 Y77.203 E0.06710
G1 X110.899 Y77.618 E0.02839
G1 X110.305 Y78.166 E0.02532
G1 X109.872 Y78.833 E0.02493
G1 X109.667 Y79.435 E0.01994
G1 X109.409 Y79.465 E0.00816
G1 X108.632 Y79.764 E0.02610
G1 X108.152 Y80.107 E0.01850
G1 X107.621 Y80.680 E0.02449
G1 X107.320 Y81.219 E0.01936
G1 X107.103 Y81.984 E0.02493
G1 X107.089 Y84.166 E0.06842
G1 X106.310 Y84.589 E0.02781
G1 X105.560 Y85.374 E0.03402
G1 X105.233 Y86.035 E0.02315
G1 X105.104 Y86.554 E0.01675
G1 X105.083 Y97.025 E0.32831
G1 X105.140 Y97.423 E0.01261
G1 X105.560 Y98.313 E0.03088
G1 X106.259 Y99.022 E0.03120
G1 X106.711 Y99.293 E0.01651
G1 X107.292 Y99.493 E0.01927
G1 X107.818 Y100.028 E0.02354
G1 X108.495 Y100.403 E0.02426
G1 X109.139 Y100.575 E0.02091
G1 X109.608 Y100.591 E0.01470
G1 X109.623 Y109.776 E0.28800
G1 X109.840 Y110.489 E0.02337
G1 X110.196 Y111.044 E0.02067
G1 X110.636 Y111.463 E0.01905
M204 S1250
G1 X111.236 Y111.843 F9000.000
M204 S800
G1 F1200.000
G1 X111.612 Y112.027 E0.01314
G1 X112.099 Y112.111 E0.01549
G1 X112.884 Y112.103 E0.02461
G1 X113.093 Y112.131 E0.00660
G1 X120.556 Y112.123 E0.23402
G1 X121.363 Y111.902 E0.02625
G1 X121.851 Y111.642 E0.01732
G1 X122.469 Y111.079 E0.02619
G1 X122.856 Y110.523 E0.02125
G1 X123.173 Y109.523 E0.03291
G1 X123.174 Y107.628 E0.05942
M204 S1250
G1 E-2.24000 F4200.000
;WIPE_START
G1 F7200.000
G1 X123.173 Y109.273 E-0.91200
;WIPE_END
G1 E-0.04800 F4200.000
G1 Z0.400 F9000.000
G1 X123.175 Y106.046
G1 Z0.200
G1 E3.20000 F2400.000
M204 S800
G1 F1200.000
G1 X123.183 Y91.341 E0.46108
G1 X123.665 Y91.304 E0.01516
G1 X124.403 Y91.023 E0.02477
G1 X124.877 Y90.693 E0.01810
G1 X125.348 Y90.213 E0.02111
G1 X125.690 Y89.672 E0.02005
G1 X125.925 Y88.993 E0.02254
G1 X125.949 Y88.782 E0.00665
G1 X126.512 Y88.471 E0.02015
G1 X127.126 Y87.854 E0.02728
G1 X127.543 Y87.083 E0.02750
G1 X127.700 Y86.403 E0.02188
G1 X127.708 Y84.399 E0.06283
G1 X128.102 Y84.296 E0.01277
G1 X128.587 Y84.052 E0.01703
M204 S1250
G1 X129.081 Y83.622 F9000.000
M204 S800
G1 F1200.000
G1 X129.502 Y83.211 E0.01845
G1 X129.748 Y82.782 E0.01551
G1 X129.948 Y82.126 E0.02150
G1 X129.953 Y70.433 E0.36662
G1 X129.666 Y69.521 E0.03000
G1 X129.311 Y68.981 E0.02025
G1 X128.793 Y68.474 E0.02274
G1 X128.314 Y68.171 E0.01777
G1 X127.406 Y67.886 E0.02984
M204 S1250
M204 S800
G1 X118.924 Y67.885 E0.26594
G1 X118.258 Y68.046 E0.02149
G1 X117.603 Y68.394 E0.02326
G1 X117.556 Y68.441 E0.00208
M204 S1250
G1 X117.718 Y68.807 F9000.000
M204 S800
G1 F1200.000
G1 X117.186 Y69.322 E0.02322
G1 X116.816 Y70.031 E0.02506
G1 X116.684 Y70.591 E0.01805
G1 X116.256 Y70.690 E0.01377
G1 X115.564 Y71.062 E0.02464
G1 X114.945 Y71.709 E0.02807
G1 X114.725 Y72.103 E0.01417
G1 X114.488 Y72.877 E0.02538
G1 X114.142 Y72.904 E0.01089
G1 X113.536 Y73.118 E0.02017
G1 X113.118 Y73.381 E0.01547
G1 X112.613 Y73.886 E0.02239
G1 X112.290 Y74.425 E0.01970
G1 X112.087 Y75.140 E0.02332
G1 X112.080 Y77.519 E0.07459
G1 X111.751 Y77.603 E0.01065
G1 X111.135 Y77.914 E0.02164
G1 X110.579 Y78.426 E0.02369
G1 X110.204 Y79.014 E0.02187
G1 X110.022 Y79.568 E0.01829
G1 X109.994 Y79.796 E0.00720
G1 X109.511 Y79.829 E0.01518
G1 X108.829 Y80.086 E0.02285
G1 X108.413 Y80.380 E0.01597
G1 X107.937 Y80.887 E0.02181
G1 X107.676 Y81.344 E0.01650
G1 X107.473 Y82.062 E0.02338
G1 X107.466 Y84.454 E0.07501
G1 X107.213 Y84.529 E0.00827
G1 X106.560 Y84.873 E0.02313
G1 X105.853 Y85.612 E0.03209
G1 X105.593 Y86.148 E0.01868
G1 X105.481 Y86.579 E0.01396
G1 X105.460 Y97.011 E0.32708
G1 X105.508 Y97.338 E0.01037
G1 X105.885 Y98.120 E0.02721
G1 X106.475 Y98.712 E0.02620
G1 X106.858 Y98.945 E0.01405
G1 X107.287 Y99.099 E0.01429
G1 X107.461 Y99.124 E0.00552
G1 X108.026 Y99.713 E0.02560
G1 X108.656 Y100.061 E0.02256
G1 X109.210 Y100.204 E0.01793
G1 X109.985 Y100.217 E0.02430
G1 X109.993 Y109.697 E0.29722
G1 X110.174 Y110.312 E0.02011
G1 X110.474 Y110.788 E0.01763
G1 X111.062 Y111.347 E0.02545
G1 X111.312 Y111.466 E0.00867
M204 S1250
G1 E-2.24000 F4200.000
;WIPE_START
G1 F7200.000
G1 X111.062 Y111.347 E-0.15331
G1 X110.474 Y110.788 E-0.44985
G1 X110.177 Y110.316 E-0.30885
;WIPE_END
G1 E-0.04800 F4200.000
G1 Z0.400 F9000.000
G1 X116.987 Y111.750
G1 Z0.200
G1 E3.20000 F2400.000
M204 S800
G1 F1200.000
G1 X120.529 Y111.746 E0.11105
G1 X121.239 Y111.545 E0.02314
G1 X121.649 Y111.322 E0.01464
G1 X122.198 Y110.816 E0.02342
G1 X122.507 Y110.378 E0.01679
G1 X122.796 Y109.492 E0.02924
G1 X122.796 Y109.163 E0.01030
M204 S1250
G1 E-2.24000 F4200.000
;WIPE_START
G1 F7200.000
G1 X122.796 Y109.492 E-0.18209
G1 X122.507 Y110.378 E-0.51675
G1 X122.285 Y110.693 E-0.21315
;WIPE_END
G1 E-0.04800 F4200.000
G1 Z0.400 F9000.000
G1 X122.797 Y107.582
G1 Z0.200
G1 E3.20000 F2400.000
M204 S800
G1 F1200.000
G1 X122.806 Y90.976 E0.52066
G1 X123.561 Y90.940 E0.02371
G1 X124.246 Y90.679 E0.02300
G1 X124.621 Y90.416 E0.01436
G1 X125.041 Y89.993 E0.01867
G1 X125.359 Y89.490 E0.01866
G1 X125.559 Y88.900 E0.01953
G1 X125.583 Y88.549 E0.01102
G1 X126.268 Y88.182 E0.02437
G1 X126.808 Y87.650 E0.02377
G1 X127.198 Y86.927 E0.02574
G1 X127.327 Y86.343 E0.01877
G1 X127.331 Y84.053 E0.07179
G1 X127.579 Y84.040 E0.00778
G1 X127.953 Y83.949 E0.01207
G1 X128.503 Y83.672 E0.01930
G1 X128.738 Y83.438 E0.01039
M204 S1250
G1 X129.264 Y82.881 F9000.000
M204 S800
G1 F1200.000
G1 X129.395 Y82.649 E0.00837
G1 X129.571 Y82.096 E0.01819
G1 X129.585 Y70.519 E0.36298
G1 X129.315 Y69.660 E0.02824
G1 X129.033 Y69.237 E0.01590
G1 X128.544 Y68.759 E0.02147
G1 X128.136 Y68.504 E0.01506
G1 X127.323 Y68.254 E0.02668
M204 S1250
M204 S800
G1 X118.947 Y68.262 E0.26262
G1 X118.481 Y68.375 E0.01504
M204 S1250
G1 X118.540 Y68.748 F9000.000
M204 S800
G1 F1200.000
G1 X118.082 Y68.979 E0.01607
G1 X117.505 Y69.525 E0.02490
G1 X117.163 Y70.182 E0.02323
G1 X117.079 Y70.557 E0.01206
G1 X117.071 Y70.899 E0.01071
G1 X116.409 Y71.036 E0.02121
G1 X115.771 Y71.379 E0.02272
G1 X115.237 Y71.948 E0.02446
G1 X115.080 Y72.233 E0.01021
G1 X114.903 Y72.802 E0.01866
G1 X114.885 Y73.241 E0.01378
G1 X114.236 Y73.270 E0.02037
G1 X113.715 Y73.451 E0.01729
G1 X113.366 Y73.666 E0.01284
G1 X112.921 Y74.104 E0.01958
G1 X112.645 Y74.553 E0.01653
G1 X112.457 Y75.218 E0.02165
G1 X112.457 Y77.825 E0.08175
G1 X111.898 Y77.951 E0.01799
G1 X111.330 Y78.238 E0.01995
G1 X110.855 Y78.684 E0.02043
G1 X110.555 Y79.154 E0.01749
G1 X110.390 Y79.655 E0.01652
G1 X110.367 Y80.161 E0.01590
G1 X109.611 Y80.194 E0.02372
G1 X109.024 Y80.410 E0.01962
G1 X108.672 Y80.655 E0.01343
G1 X108.250 Y81.097 E0.01916
G1 X108.032 Y81.471 E0.01356
G1 X107.843 Y82.139 E0.02177
G1 X107.843 Y84.749 E0.08185
G1 X107.362 Y84.875 E0.01559
G1 X106.810 Y85.157 E0.01944
G1 X106.147 Y85.850 E0.03007
G1 X105.952 Y86.264 E0.01435
G1 X105.858 Y86.606 E0.01113
G1 X105.837 Y96.997 E0.32579
G1 X105.877 Y97.254 E0.00814
G1 X106.176 Y97.878 E0.02173
G1 X106.695 Y98.404 E0.02316
G1 X107.005 Y98.598 E0.01145
G1 X107.387 Y98.735 E0.01275
G1 X107.633 Y98.758 E0.00772
G1 X108.277 Y99.429 E0.02919
G1 X108.812 Y99.717 E0.01903
G1 X109.278 Y99.832 E0.01505
G1 X110.362 Y99.842 E0.03401
G1 X110.362 Y109.616 E0.30646
G1 X110.528 Y110.180 E0.01842
G1 X110.753 Y110.533 E0.01314
G1 X111.253 Y111.020 E0.02189
G1 X111.883 Y111.321 E0.02189
G1 X112.149 Y111.359 E0.00841
G1 X112.937 Y111.348 E0.02473
G1 X113.123 Y111.377 E0.00589
G1 X114.401 Y111.377 E0.04007
G1 X114.510 Y111.361 E0.00346
G1 X114.619 Y111.377 E0.00346
G1 X116.939 Y111.374 E0.07274
M204 S1250
G1 E-2.24000 F4200.000
;WIPE_START
G1 F7200.000
G1 X115.293 Y111.376 E-0.91200
;WIPE_END
G1 E-0.04800 F4200.000
G1 Z0.400 F9000.000
G1 X122.419 Y109.117
G1 Z0.200
G1 E3.20000 F2400.000
M204 S800
