;FLAVOR:Marlin
;TIME:17481
;Filament used: 9.53439m
;Layer height: 0.2
;MINX:132.2
;MINY:70.2
;MINZ:0.2
;MAXX:167.799
;MAXY:149.8
;MAXZ:80
;Generated with Cura_SteamEngine 4.3.0
M140 S55
M105
M190 S55
M104 S205
M105
M109 S205
M82 ;absolute extrusion mode
M201 X500.00 Y500.00 Z100.00 E5000.00 ;Setup machine max acceleration
M203 X500.00 Y500.00 Z10.00 E50.00 ;Setup machine max feedrate
M204 P500.00 R1000.00 T500.00 ;Setup Print/Retract/Travel acceleration
M205 X8.00 Y8.00 Z0.40 E5.00 ;Setup Jerk
M220 S100 ;Reset Feedrate
M221 S100 ;Reset Flowrate

G28 ;Home

G92 E0 ;Reset Extruder
G1 Z2.0 F3000 ;Move Z Axis up
G1 X10.1 Y20 Z0.28 F5000.0 ;Move to start position
G1 X10.1 Y200.0 Z0.28 F1500.0 E15 ;Draw the first line
G1 X10.4 Y200.0 Z0.28 F5000.0 ;Move to side a little
G1 X10.4 Y20 Z0.28 F1500.0 E30 ;Draw the second line
G92 E0 ;Reset Extruder
G1 Z2.0 F3000 ;Move Z Axis up

G92 E0
G92 E0
G1 F2700 E-5
;LAYER_COUNT:400
;LAYER:0
M107
G0 F6000 X133.179 Y74.334 Z0.2
;TYPE:SKIRT
G1 F2700 E0
G1 F1200 X133.597 Y73.663 E0.02629
G1 X134.08 Y73.039 E0.05254
G1 X134.485 Y72.602 E0.07236
G1 X134.602 Y72.485 E0.07786
G1 X135.188 Y71.955 E0.10414
G1 X135.824 Y71.488 E0.13038
G1 X136.504 Y71.087 E0.15664
G1 X137.222 Y70.757 E0.18292
G1 X137.969 Y70.502 E0.20917
G1 X138.738 Y70.323 E0.23544
G1 X139.522 Y70.223 E0.26172
G1 X140.117 Y70.2 E0.28153
G1 X142.883 Y70.2 E0.37352
G1 X143.672 Y70.24 E0.3998
G1 X144.452 Y70.359 E0.42604
G1 X145.217 Y70.557 E0.45233
G1 X145.957 Y70.831 E0.47857
G1 X146.666 Y71.179 E0.50484
G1 X147.337 Y71.597 E0.53113
G1 X147.961 Y72.08 E0.55738
G1 X148.534 Y72.623 E0.58364
G1 X149.049 Y73.222 E0.60991
G1 X149.5 Y73.87 E0.63617
G1 X149.884 Y74.561 E0.66246
G1 X150.196 Y75.286 E0.68871
G1 X150.433 Y76.039 E0.71497
G1 X150.592 Y76.813 E0.74125
G1 X150.683 Y77.954 E0.77932
G1 X150.759 Y90.7 E1.20326
G1 X159.862 Y90.7 E1.50603
G1 X160.651 Y90.74 E1.5323
G1 X161.431 Y90.859 E1.55855
G1 X162.196 Y91.057 E1.58483
G1 X162.936 Y91.331 E1.61108
G1 X163.645 Y91.679 E1.63734
G1 X164.316 Y92.097 E1.66364
G1 X164.94 Y92.58 E1.68988
G1 X165.354 Y92.961 E1.7086
G1 X165.471 Y93.077 E1.71408
G1 X166.003 Y93.661 E1.74035
G1 X166.473 Y94.295 E1.7666
G1 X166.876 Y94.974 E1.79286
G1 X167.209 Y95.69 E1.81913
G1 X167.468 Y96.436 E1.84539
G1 X167.65 Y97.204 E1.87164
G1 X167.754 Y97.987 E1.89791
G1 X167.778 Y98.528 E1.91593
G1 X167.798 Y100.293 E1.97463
G1 X167.767 Y101.082 E2.0009
G1 X167.657 Y101.864 E2.02716
G1 X167.468 Y102.63 E2.0534
G1 X167.202 Y103.374 E2.07968
G1 X166.862 Y104.087 E2.10595
G1 X166.453 Y104.762 E2.13221
G1 X165.976 Y105.392 E2.15849
G1 X165.561 Y105.849 E2.17902
G1 X165.444 Y105.968 E2.18457
G1 X164.863 Y106.503 E2.21084
G1 X164.23 Y106.976 E2.23712
G1 X163.553 Y107.382 E2.26338
G1 X162.838 Y107.718 E2.28965
G1 X162.093 Y107.98 E2.31592
G1 X161.326 Y108.165 E2.34216
G1 X160.746 Y108.244 E2.36163
G1 X160.641 Y108.935 E2.38488
G1 X160.443 Y109.7 E2.41116
G1 X160.335 Y109.992 E2.42151
G1 X160.498 Y110.469 E2.43828
G1 X160.677 Y111.238 E2.46454
G1 X160.743 Y111.753 E2.48181
G1 X161.435 Y111.859 E2.50509
G1 X162.2 Y112.057 E2.53138
G1 X162.94 Y112.331 E2.55762
G1 X163.649 Y112.679 E2.58389
G1 X164.32 Y113.097 E2.61019
G1 X164.944 Y113.58 E2.63643
G1 X165.358 Y113.961 E2.65514
G1 X165.475 Y114.077 E2.66062
G1 X166.007 Y114.661 E2.6869
G1 X166.477 Y115.295 E2.71315
G1 X166.88 Y115.974 E2.73941
G1 X167.213 Y116.69 E2.76567
G1 X167.472 Y117.436 E2.79194
G1 X167.654 Y118.204 E2.81819
G1 X167.758 Y118.987 E2.84446
G1 X167.783 Y119.545 E2.86304
G1 X167.799 Y121.311 E2.92178
G1 X167.766 Y122.1 E2.94804
G1 X167.653 Y122.882 E2.97432
G1 X167.463 Y123.648 E3.00057
G1 X167.195 Y124.391 E3.02684
G1 X166.854 Y125.103 E3.0531
G1 X166.443 Y125.778 E3.07939
G1 X165.965 Y126.407 E3.10566
G1 X165.514 Y126.897 E3.12781
G1 X165.396 Y127.015 E3.13336
G1 X164.81 Y127.545 E3.15964
G1 X164.174 Y128.012 E3.18589
G1 X163.494 Y128.413 E3.21214
G1 X162.776 Y128.743 E3.23842
G1 X162.029 Y128.998 E3.26468
G1 X161.26 Y129.177 E3.29094
G1 X160.476 Y129.277 E3.31723
G1 X159.881 Y129.3 E3.33703
G1 X150.8 Y129.3 E3.63906
G1 X150.8 Y141.883 E4.05758
G1 X150.76 Y142.672 E4.08385
G1 X150.641 Y143.452 E4.1101
G1 X150.443 Y144.217 E4.13638
G1 X150.169 Y144.957 E4.16262
G1 X149.821 Y145.666 E4.18889
G1 X149.403 Y146.337 E4.21519
G1 X148.92 Y146.961 E4.24143
G1 X148.515 Y147.398 E4.26125
G1 X148.398 Y147.515 E4.26675
G1 X147.812 Y148.045 E4.29303
G1 X147.176 Y148.512 E4.31928
G1 X146.496 Y148.913 E4.34553
G1 X145.778 Y149.243 E4.37181
G1 X145.031 Y149.498 E4.39807
G1 X144.262 Y149.677 E4.42433
G1 X143.478 Y149.777 E4.45062
G1 X142.883 Y149.8 E4.47042
G1 X140.117 Y149.8 E4.56242
G1 X139.328 Y149.76 E4.58869
G1 X138.548 Y149.641 E4.61494
G1 X137.783 Y149.443 E4.64122
G1 X137.043 Y149.169 E4.66746
G1 X136.334 Y148.821 E4.69373
G1 X135.663 Y148.403 E4.72003
G1 X135.039 Y147.92 E4.74627
G1 X134.602 Y147.515 E4.76609
G1 X134.485 Y147.398 E4.77159
G1 X133.955 Y146.812 E4.79787
G1 X133.488 Y146.176 E4.82412
G1 X133.087 Y145.496 E4.85037
G1 X132.757 Y144.778 E4.87665
G1 X132.502 Y144.031 E4.90291
G1 X132.323 Y143.262 E4.92917
G1 X132.223 Y142.478 E4.95546
G1 X132.2 Y141.882 E4.97529
G1 X132.203 Y122.299 E5.62663
G1 X132.234 Y121.689 E5.64694
G1 X132.224 Y121.495 E5.6534
G1 X132.201 Y119.855 E5.70795
G1 X132.2 Y119.746 E5.71158
G1 X132.2 Y112.617 E5.94869
G1 X132.24 Y111.828 E5.97497
G1 X132.359 Y111.048 E6.00121
G1 X132.557 Y110.283 E6.02749
G1 X132.662 Y110 E6.03753
G1 X132.502 Y109.531 E6.05401
G1 X132.323 Y108.762 E6.08028
G1 X132.223 Y107.978 E6.10656
G1 X132.2 Y107.383 E6.12637
G1 X132.2 Y98.617 E6.41793
G1 X132.221 Y98.207 E6.43158
G1 X132.21 Y98.102 E6.43509
G1 X132.2 Y97.7 E6.44847
G1 X132.2 Y78.117 E7.0998
G1 X132.24 Y77.328 E7.12608
G1 X132.359 Y76.548 E7.15232
G1 X132.557 Y75.783 E7.1786
G1 X132.831 Y75.043 E7.20485
G1 X133.179 Y74.334 E7.23112
G0 F6000 X133.578 Y74.441
G1 F1200 X133.994 Y73.794 E7.2567
G1 X134.475 Y73.194 E7.28228
G1 X134.767 Y72.884 E7.29644
G1 X134.884 Y72.767 E7.30194
G1 X135.456 Y72.253 E7.32752
G1 X136.078 Y71.8 E7.35311
G1 X136.743 Y71.414 E7.37869
G1 X137.445 Y71.099 E7.40428
G1 X138.176 Y70.859 E7.42987
G1 X138.927 Y70.696 E7.45543
G1 X139.692 Y70.612 E7.48103
G1 X140.117 Y70.6 E7.49517
G1 X142.883 Y70.6 E7.58717
G1 X143.651 Y70.64 E7.61274
G1 X144.411 Y70.759 E7.63833
G1 X145.154 Y70.957 E7.6639
G1 X145.873 Y71.231 E7.6895
G1 X146.559 Y71.578 E7.71506
G1 X147.206 Y71.994 E7.74065
G1 X147.806 Y72.475 E7.76623
G1 X148.353 Y73.016 E7.79181
G1 X148.841 Y73.611 E7.81741
G1 X149.264 Y74.253 E7.84298
G1 X149.619 Y74.936 E7.86858
G1 X149.9 Y75.651 E7.89413
G1 X150.106 Y76.393 E7.91975
G1 X150.234 Y77.151 E7.94531
G1 X150.283 Y77.956 E7.97214
G1 X150.361 Y91.1 E8.40932
G1 X159.862 Y91.1 E8.72532
G1 X160.63 Y91.14 E8.7509
G1 X161.39 Y91.259 E8.77649
G1 X162.133 Y91.457 E8.80206
G1 X162.852 Y91.731 E8.82765
G1 X163.538 Y92.078 E8.85322
G1 X164.185 Y92.494 E8.8788
G1 X164.785 Y92.975 E8.90438
G1 X165.072 Y93.245 E8.91749
G1 X165.189 Y93.361 E8.92297
G1 X165.706 Y93.93 E8.94854
G1 X166.162 Y94.55 E8.97414
G1 X166.551 Y95.214 E8.99973
G1 X166.868 Y95.914 E9.02529
G1 X167.111 Y96.644 E9.05088
G1 X167.278 Y97.395 E9.07647
G1 X167.379 Y98.532 E9.11443
G1 X167.399 Y100.297 E9.17314
G1 X167.367 Y101.066 E9.19874
G1 X167.256 Y101.827 E9.22432
G1 X167.067 Y102.572 E9.24988
G1 X166.801 Y103.294 E9.27547
G1 X166.462 Y103.984 E9.30104
G1 X166.053 Y104.636 E9.32664
G1 X165.579 Y105.241 E9.35221
G1 X165.276 Y105.569 E9.36706
G1 X165.159 Y105.688 E9.37261
G1 X164.592 Y106.208 E9.3982
G1 X163.974 Y106.666 E9.42378
G1 X163.312 Y107.057 E9.44935
G1 X162.613 Y107.378 E9.47494
G1 X161.884 Y107.624 E9.50053
G1 X161.134 Y107.793 E9.5261
G1 X160.373 Y107.884 E9.55159
G1 X160.36 Y108.134 E9.55991
G1 X160.241 Y108.894 E9.5855
G1 X160.043 Y109.637 E9.61108
G1 X159.912 Y109.98 E9.62329
G1 X160.141 Y110.676 E9.64766
G1 X160.304 Y111.427 E9.67322
G1 X160.381 Y112.127 E9.69664
G1 X160.634 Y112.14 E9.70507
G1 X161.394 Y112.259 E9.73065
G1 X162.137 Y112.457 E9.75623
G1 X162.856 Y112.731 E9.78182
G1 X163.542 Y113.078 E9.80739
G1 X164.189 Y113.494 E9.83297
G1 X164.789 Y113.975 E9.85855
G1 X165.076 Y114.245 E9.87165
G1 X165.193 Y114.361 E9.87713
G1 X165.71 Y114.93 E9.9027
G1 X166.166 Y115.55 E9.9283
G1 X166.555 Y116.214 E9.9539
G1 X166.872 Y116.914 E9.97946
G1 X167.115 Y117.644 E10.00504
G1 X167.282 Y118.395 E10.03063
G1 X167.369 Y119.159 E10.05621
G1 X167.383 Y119.549 E10.06919
G1 X167.399 Y121.315 E10.12793
G1 X167.366 Y122.083 E10.1535
G1 X167.253 Y122.844 E10.17908
G1 X167.062 Y123.589 E10.20466
G1 X166.795 Y124.311 E10.23027
G1 X166.454 Y125 E10.25584
G1 X166.044 Y125.651 E10.28143
G1 X165.568 Y126.255 E10.307
G1 X165.232 Y126.615 E10.32338
G1 X165.114 Y126.733 E10.32893
G1 X164.542 Y127.247 E10.35451
G1 X163.92 Y127.7 E10.3801
G1 X163.255 Y128.086 E10.40568
G1 X162.553 Y128.401 E10.43127
G1 X161.822 Y128.641 E10.45686
G1 X161.071 Y128.804 E10.48242
G1 X160.306 Y128.888 E10.50801
G1 X159.881 Y128.9 E10.52216
G1 X150.4 Y128.9 E10.8375
G1 X150.4 Y141.883 E11.26931
G1 X150.36 Y142.651 E11.29489
G1 X150.241 Y143.411 E11.32048
G1 X150.043 Y144.154 E11.34605
G1 X149.769 Y144.873 E11.37164
G1 X149.422 Y145.559 E11.39721
G1 X149.006 Y146.206 E11.42279
G1 X148.525 Y146.806 E11.44837
G1 X148.233 Y147.116 E11.46254
G1 X148.116 Y147.233 E11.46804
G1 X147.544 Y147.747 E11.49362
G1 X146.922 Y148.2 E11.51921
G1 X146.257 Y148.586 E11.54478
G1 X145.555 Y148.901 E11.57038
G1 X144.824 Y149.141 E11.59597
G1 X144.073 Y149.304 E11.62153
G1 X143.308 Y149.388 E11.64712
G1 X142.883 Y149.4 E11.66126
G1 X140.117 Y149.4 E11.75326
G1 X139.349 Y149.36 E11.77884
G1 X138.589 Y149.241 E11.80443
G1 X137.846 Y149.043 E11.83
G1 X137.127 Y148.769 E11.85559
G1 X136.441 Y148.422 E11.88116
G1 X135.794 Y148.006 E11.90674
G1 X135.194 Y147.525 E11.93232
G1 X134.884 Y147.233 E11.94649
G1 X134.767 Y147.116 E11.95199
G1 X134.253 Y146.544 E11.97757
G1 X133.8 Y145.922 E12.00316
G1 X133.414 Y145.257 E12.02873
G1 X133.099 Y144.555 E12.05433
G1 X132.859 Y143.824 E12.07992
G1 X132.696 Y143.073 E12.10548
G1 X132.612 Y142.308 E12.13107
G1 X132.6 Y141.882 E12.14525
G1 X132.603 Y122.299 E12.79658
G1 X132.633 Y121.718 E12.81593
G1 X132.624 Y121.49 E12.82352
G1 X132.601 Y119.85 E12.87807
G1 X132.6 Y119.746 E12.88153
G1 X132.6 Y112.617 E13.11864
G1 X132.64 Y111.849 E13.14422
G1 X132.759 Y111.089 E13.16981
G1 X132.957 Y110.346 E13.19538
G1 X133.085 Y110.011 E13.20731
G1 X132.859 Y109.324 E13.23136
G1 X132.696 Y108.573 E13.25692
G1 X132.612 Y107.808 E13.28252
G1 X132.6 Y107.383 E13.29666
G1 X132.6 Y98.617 E13.58822
G1 X132.625 Y98.135 E13.60427
G1 X132.6 Y97.7 E13.61876
G1 X132.6 Y78.117 E14.2701
G1 X132.64 Y77.349 E14.29568
G1 X132.759 Y76.589 E14.32126
G1 X132.957 Y75.846 E14.34684
G1 X133.231 Y75.127 E14.37243
G1 X133.578 Y74.441 E14.398
G0 F6000 X133.977 Y74.551
G1 F1200 X134.392 Y73.928 E14.42289
G1 X135.05 Y73.167 E14.45635
G1 X135.167 Y73.05 E14.46186
G1 X135.724 Y72.55 E14.48675
G1 X136.33 Y72.113 E14.5116
G1 X136.98 Y71.742 E14.5365
G1 X137.666 Y71.443 E14.56139
G1 X138.38 Y71.219 E14.58627
G1 X139.113 Y71.072 E14.61114
G1 X140.117 Y71 E14.64462
G1 X142.883 Y71 E14.73662
G1 X143.63 Y71.04 E14.7615
G1 X144.368 Y71.159 E14.78636
G1 X145.09 Y71.357 E14.81126
G1 X145.786 Y71.63 E14.83613
G1 X146.449 Y71.977 E14.86102
G1 X147.072 Y72.392 E14.88591
G1 X147.646 Y72.871 E14.91078
G1 X148.167 Y73.408 E14.93566
G1 X148.626 Y73.998 E14.96053
G1 X149.021 Y74.634 E14.98543
G1 X149.345 Y75.308 E15.0103
G1 X149.595 Y76.013 E15.03518
G1 X149.769 Y76.741 E15.06008
G1 X149.864 Y77.483 E15.08496
G1 X149.883 Y77.958 E15.10077
G1 X149.963 Y91.5 E15.55118
G1 X159.862 Y91.5 E15.88043
G1 X160.609 Y91.54 E15.90531
G1 X161.347 Y91.659 E15.93017
G1 X162.069 Y91.857 E15.95507
G1 X162.765 Y92.13 E15.97994
G1 X163.428 Y92.477 E16.00483
G1 X164.051 Y92.892 E16.02972
G1 X164.79 Y93.529 E16.06217
G1 X164.907 Y93.645 E16.06765
G1 X165.41 Y94.199 E16.09254
G1 X165.85 Y94.804 E16.11742
G1 X166.223 Y95.452 E16.14229
G1 X166.525 Y96.137 E16.16719
G1 X166.752 Y96.85 E16.19208
G1 X166.902 Y97.582 E16.21693
G1 X166.979 Y98.537 E16.2488
G1 X166.999 Y100.302 E16.3075
G1 X166.967 Y101.049 E16.33237
G1 X166.856 Y101.789 E16.35726
G1 X166.667 Y102.513 E16.38215
G1 X166.401 Y103.212 E16.40702
G1 X166.062 Y103.879 E16.43191
G1 X165.654 Y104.506 E16.45679
G1 X164.991 Y105.289 E16.49091
G1 X164.874 Y105.408 E16.49646
G1 X164.321 Y105.912 E16.52135
G1 X163.718 Y106.355 E16.54623
G1 X163.072 Y106.731 E16.5711
G1 X162.389 Y107.036 E16.59597
G1 X161.677 Y107.266 E16.62086
G1 X160.944 Y107.419 E16.64577
G1 X159.993 Y107.492 E16.67749
G1 X159.96 Y108.113 E16.69817
G1 X159.841 Y108.851 E16.72304
G1 X159.643 Y109.573 E16.74794
G1 X159.48 Y109.989 E16.7628
G1 X159.557 Y110.166 E16.76922
G1 X159.781 Y110.88 E16.79411
G1 X159.928 Y111.613 E16.81897
G1 X159.992 Y112.507 E16.84878
G1 X160.613 Y112.54 E16.86946
G1 X161.351 Y112.659 E16.89433
G1 X162.073 Y112.857 E16.91923
G1 X162.769 Y113.13 E16.94409
G1 X163.432 Y113.477 E16.96898
G1 X164.055 Y113.892 E16.99388
G1 X164.794 Y114.529 E17.02633
G1 X164.911 Y114.645 E17.03181
G1 X165.414 Y115.199 E17.0567
G1 X165.854 Y115.804 E17.08158
G1 X166.227 Y116.452 E17.10645
G1 X166.529 Y117.137 E17.13135
G1 X166.756 Y117.85 E17.15624
G1 X166.906 Y118.582 E17.18109
G1 X166.983 Y119.553 E17.21348
G1 X166.999 Y121.319 E17.27222
G1 X166.966 Y122.066 E17.29709
G1 X166.853 Y122.805 E17.32196
G1 X166.662 Y123.529 E17.34686
G1 X166.395 Y124.227 E17.37172
G1 X166.054 Y124.894 E17.39663
G1 X165.645 Y125.52 E17.42151
G1 X164.949 Y126.332 E17.45708
G1 X164.831 Y126.45 E17.46263
G1 X164.274 Y126.95 E17.48752
G1 X163.668 Y127.387 E17.51237
G1 X163.018 Y127.758 E17.53726
G1 X162.332 Y128.057 E17.56215
G1 X161.618 Y128.281 E17.58704
G1 X160.885 Y128.428 E17.61191
G1 X159.881 Y128.5 E17.64539
G1 X150 Y128.5 E17.97403
G1 X150 Y141.883 E18.41915
G1 X149.96 Y142.63 E18.44403
G1 X149.841 Y143.368 E18.46889
G1 X149.643 Y144.09 E18.49379
G1 X149.37 Y144.786 E18.51866
G1 X149.023 Y145.449 E18.54355
G1 X148.608 Y146.072 E18.56845
G1 X147.95 Y146.833 E18.60191
G1 X147.833 Y146.95 E18.60741
G1 X147.276 Y147.45 E18.63231
G1 X146.67 Y147.887 E18.65716
G1 X146.02 Y148.258 E18.68205
G1 X145.334 Y148.557 E18.70694
G1 X144.62 Y148.781 E18.73183
G1 X143.887 Y148.928 E18.75669
G1 X142.883 Y149 E18.79017
G1 X140.117 Y149 E18.88217
G1 X139.37 Y148.96 E18.90705
G1 X138.632 Y148.841 E18.93191
G1 X137.91 Y148.643 E18.95681
G1 X137.214 Y148.37 E18.98168
G1 X136.551 Y148.023 E19.00657
G1 X135.928 Y147.608 E19.03147
G1 X135.167 Y146.95 E19.06493
G1 X135.05 Y146.833 E19.07043
G1 X134.55 Y146.276 E19.09533
G1 X134.113 Y145.67 E19.12017
G1 X133.742 Y145.02 E19.14507
G1 X133.443 Y144.334 E19.16996
G1 X133.219 Y143.62 E19.19485
G1 X133.072 Y142.887 E19.21971
G1 X133 Y141.882 E19.25322
G1 X133.003 Y122.299 E19.90456
G1 X133.038 Y121.647 E19.92627
G1 X133.024 Y121.484 E19.93171
G1 X133.001 Y119.844 E19.98627
G1 X133 Y119.746 E19.98953
G1 X133 Y112.617 E20.22664
G1 X133.04 Y111.87 E20.25152
G1 X133.159 Y111.132 E20.27638
G1 X133.357 Y110.41 E20.30128
G1 X133.517 Y110.003 E20.31583
G1 X133.443 Y109.834 E20.32196
G1 X133.219 Y109.12 E20.34685
G1 X133.072 Y108.387 E20.37172
G1 X133 Y107.383 E20.4052
G1 X133 Y98.617 E20.69676
G1 X133.021 Y98.23 E20.70965
G1 X133.019 Y98.217 E20.71008
G1 X133 Y97.7 E20.72729
G1 X133 Y78.117 E21.37862
G1 X133.04 Y77.37 E21.4035
G1 X133.159 Y76.632 E21.42837
G1 X133.357 Y75.91 E21.45327
G1 X133.63 Y75.214 E21.47813
G1 X133.977 Y74.551 E21.50302
G0 F6000 X134.375 Y74.664
G1 F1200 X134.789 Y74.067 E21.52719
G1 X135.333 Y73.45 E21.55455
G1 X135.45 Y73.333 E21.56005
G1 X135.991 Y72.849 E21.58419
G1 X136.582 Y72.426 E21.60837
G1 X137.216 Y72.072 E21.63252
G1 X137.885 Y71.789 E21.65668
G1 X138.581 Y71.581 E21.68084
G1 X139.296 Y71.451 E21.70501
G1 X140.117 Y71.4 E21.73237
G1 X142.883 Y71.4 E21.82436
G1 X143.608 Y71.44 E21.84852
G1 X144.325 Y71.559 E21.87269
G1 X145.024 Y71.757 E21.89685
G1 X145.697 Y72.03 E21.92101
G1 X146.336 Y72.375 E21.94516
G1 X146.933 Y72.789 E21.96932
G1 X147.481 Y73.265 E21.99347
G1 X147.974 Y73.799 E22.01764
